-----BEGIN PGP MESSAGE-----

hQGMAxpVe4mJ3lrHAQv/dKMTxymC8WeLNwLvENiaz78XQQsIu9lE0qIenwT3kAnX
4kTMD9uVkJ0EN5Pfcv7DprEjgcHBXwBsOqX0E6G8hOeZLgM2XPqY0sKv5hxBl1BP
q6m60BLT6emImne2/kSmukkb6ud69aALVYJ9dq4xGjGip0gV0TCMJyEbo1Zu6erA
TVMxVQrrFccvfaSPZUvWIaJt+Yd/T47CmGtnQZ6LcDmziL/+YxZwySN0/K2clMz6
2ktBgttgCqCgYpw9ML0v/N6kYIGDVbz1mFAMAg1H0xL8AILVoVYB4Y2Rzzww+Vzc
GHC1l4sfvcm4orBr0u8WDS8ZFq7SIbdjb8puZDYlMd/WH4hU7cot1aZSYiIpvqwe
GLioGvl5oo7JV9ITKDVOn+M37KoSaAc2UnCWAZn88qZ9JcW5Eizv+RjiMJ3656/r
MZenVT5e7hxjI8zqpb5AW7Th+H8Zf7ILT3YIVWfT8BI6buIly2RvGnLSqbVu57D2
jeyDO2TBbQJV9TIyHNBT0v8ABk/qAXmV6LG01PlgcopuTki8vBCJvE1XV02jYzCO
dgFSwBQ7Kcu7dKAb2mB6obeb/nU6VjfCsyCBaaDpeJ4PsV8CegpxtguNfdcGiMCZ
gOKVZVztvdYK3EOELW4W3FuR5j2KLVq5xKryr6J0M4pNRCJ7DIF3LQVLDor0LgHJ
jCSQyza9QqEaJxwkYnYT02BN14fIAqviFsje2QSf/nLXo5opWKC8K4bTNVAMrXW2
qvmdZ5BDxWfc+VHHknONDq1I2omKsfTFaBMtbsTtbT/Png5jAlmHkIwiGvAD2wow
2aR+bcwu3sdSCJ0hBkc5C323QKXk9xaRqw9HgRA5d9IYkt/GC2YcH95KLeks3EhB
4A1vZyzTCdXePtTOsivaGW7fZtPi2SY7fpvU+ncP/si1ZUstAYWtozHhZnCxEqn2
RWmFsShnVCE4j6/flNEZhXufq+zF/iCpzmScpAcPNxRthDZDn+fdEiEznD7gd+2B
2uXnvVq4Ilc6QYedBX3prHU5PKkkJAdNcrKkxUpWjp6XFhzwgZaq4MQUC+/2GkXb
IZZ3pQ8mFNUAQeTda5RoL3vwJgzr89UXXCZbsIhH/AIfkq1IVqdIlZ7mEhoBGHcM
M5d9lNlle7x/bmfj51tVvTSDPQ8ZvdMql3oI1x7zgnUDKAC2Z8A027savqejho5L
+5Cq88SEIxc0+SkkiH8KgeyJzNZCRVfuVG1ExOQM5auhSIE7SRXaxtgeyzWf7D5Z
R+zHLAVBHg1jR+wUAKDQya3N2LLG8g3rnOtGlSZoKSfY/YG0d8ikpjzC9y8RXHX+
KmCHA1nIK/8D9bal0Hv4abvP7S22BHCaoRH1kYBMITc7Ix42NgENVevkz4HEeySD
T0iILt6yO0B67dmE2HWBhb7jxKEnQVkXWnZHRbUVTrb7zrtiy73zLrumrzvFkk20
Nr4pb3829UMvdKx9ACHRIwpLdIlxP1KlKAqdruNOZ+QRbDS3IGsos+al/TK6G7F8
uewmQ9XG5UPWe4BtOUCn4rv+G4xb2sIECEGdkK6cqmtXWb71GliqoiKvIcbbDlSG
+5/5Ils/SyRGFro4nq/BUvyhU3V6/TKtZUlIfbWvjjQ1TeFFphtcQwHB1YImxNW5
6S8yghwTJ7en6lNnu7MkNXYJ0HxudXvkPihs12TcM9X3CZeU1sMh9tDWnUXohtwa
FlEn9xCSFliFMEWOmDT78q8+LVYH1MW7Ju7PEO1aczmvSlYvNLwuY9evcZBcwPY+
lu4exXBC9uwd0PiJxO4APjnA4ZQYNZDKIHHeawNgLx5Fw1NRFM9yMY0wMc93AdYa
X1X8O82jRSuAua5XF9fEL0Q0nhKkHbAQ7vKGmQTeHD4j6Io//zXwWt3dhdM2kseX
IV5LgtpfdFPqttYfbO/pBVFOIE9JU7xA1OZv5g+2WmXQgGJ0yWIHZ/kGK76tipWQ
hYbXLMPnvdv2OviIg2QjrdJ50xGtosWj+MVERrfMOBazNeo/QRJBRXRZZeNhZoMU
nlAtyunDSSUO/y9RBNSR1dR2dlBXrNEcIGWftP1JsYMoHwCJ2S2uqBPFden/vcvb
n1HmMJL0OsthQ0ZjRHJajI1VoL37SvP8P4IYNmoG2xFZnhy3cm/EATM+NwF8Mrq3
0KItx19jZHo2SnMuieUl+C5mOHnNMcsuF67JwJtdYZlTO3B7qNcP+WRtnJDuAh+Q
OJaa5h3xjO1w1G/MIGGnw4wCXhTW7CucXiDqvG5lJXSOXMO++X/S0Cis3n2d1A1H
hHqNJraV5s5qrYWwnoawFuwyedCfQShZsLU1uPTf6HopOt8YoQbHDgKVEa4PUbyJ
JJ8+pY/coo4nVDP4qhmyMvODhxCGjxKVxZ8zkg4fJlPtuvGFWwnDu9NBD8w2hYTi
oTOCuBOY0DGrFrSGAoKYrdffzehLItDeJo9G6MLwYg7ZQ0tZBwWTqBJqK6Dig+MH
1ajW5KACGy+9vt1X+52eIeUcbpIbx1UM7f2UZri0F78RiIKhFXtAjkd0rFDQig5B
aZFvwfinIOJcjt2o7WSOlwsdXaO6mxuWC3tKaDrt+tcrBjSPc3huQt7KnWm4puHt
cGvhNjpA5k9jQmh49CUg+qNGZom1XSN2PvTDQNgoxWv5y5kFa7dkMUTg1li8i9tP
lMyCwhVemD4DaaRe0+Jxc+8BXYh50vJz2ImvjoR/fC/JiY5bFMcUHPNiVqm4LoYD
pVvOpVMMYO3x0/uXTFWTTfXaMw2u5dgo08qnnZ0Awnav0MqN7+tv9SaX5Ec4G2/F
QgWjRzQMry24JN6HTUurYG+vEcLrSHRZJFLOLoBS/g/aaDPXTIre10UTh3wuMzCm
tOwhxNMvRTKMKWmHxY1LaXPUO1gjEsdUMx6x3iKIAkrQotIeVyiymw0sqpS/cXCv
Tn+WBzc+YJp6bp9HqshRO3n7lUZgFyBNiVZp4Ul3H6grpactVV+oqGwI195dDUt9
hrOXwMryykw70cQUZ0eN3A1lAmWqGFLFTr8HNLrmf2RTM/HFXEiwnSnU5BELnC5Y
M3CUMLJ9JUZNAqbU8ggU7Bagqg8uQ0NS1dTk/1v0U1ZxtC78BgnAgBoYslT9Qk5Y
gsAKyzr7XMuA7yeNT1KLbR2OKt2skfhP/nBOTgOEzjhogDjxxKD4FkT/DPwCRktR
m/bRFV58uXMTSWC0NADFZIo8UJnZd/Sy0Kv6ZKRRzbEW8Cm63FcFmO5pLtNL7BzM
ao05Maq9aVwCZHTACWbViCkJVuajbo6FELNJoc/1YVehdAqR0PFB/tr5ir70G6RY
5I6IqTiIHu1Z1WjWUNY6hTkzyEQfIQSRs99d8xDLahus7wGbFbpfyU377MqjplCR
g0gXwfYwCeBLEPHZAvddnKZ0eXdcwO8Jt1h/+mleUfgoXPNoXM11HjmewPO7bB5H
t7GdhuUVwI/k0nfw6ofz9E3NZ4QyYWn6qP6oexmNm7lsVgAN2kkxI3uI3vtZoEKi
yggKrj2G9mkEXU4yC8UEm99tAf8aNpsAkVdlX9p7CxilHyjLjDBfFlXzMhBwz9gd
l7mcnQwqkwPmY/0FFol15twmuSCHnuBKhVlnwGQR8YIQ7Nj/h5EICiocib9qK1NV
s36OJYYz+gD3ig8dxQO2DFLOL8hmvaQ1pR3vrDdGBduhnkH/5OSffch4/IdZkwrf
xEbWfEFd0iHwNnv9avO4tD5Na8D7jXs2U8g3ZVGRFAm5MgRvmzJfHtqtDQneqffe
M+VXXfUna/CDBRk4m2oQtcoBO0JIGtwzzSx56vYpfoJC6blTj3ETioSLuCYNhEo/
7bNjn2gxyByoq6D8J8epwyii2gtOYDqEsO6TXdBJQjgqSpLLQGY6i0s8bD3sqTtd
8J9xSl0lrN0LeZIdckSf0JCcDZ9RPeRMQerCsywvzrlM32IA/6s6EIPAo+zLulk6
i5xIBbFypJbFnTXzZ2Xk57xTpl+5fGsi18UsZ1LmHVOK61/vAvGbVKi+b5sSygCy
dzCLmH3VxmYbD2T9zwYleKBBnyrt0hdGkOYeCkbbVkR/GUUWfhrM4Mb8Qz3jidgr
wOQj0g0crc525/ALD4sLBWLKxgB7nKtESSltYZAtXpsrJB3Kg1hUaOHk1XuiXqY/
Y7Y2R8/mnkgPVSk0yOczUEqJ1sHUR4oGjkp9kQw2JMUja878tnIpDhxU0Ev5qwI+
FgI1zqnLnB7B0UKanLwQdfv2qrItBodYIgRrcEASVq3C7Y0ZWzwEQfFQsHt0zHpI
j1gbn9GSp8bDQqvYd0nQp1wCdbS2uQt+sIVC6iuACHQeYE22wxpmuLfdFYt6zCYm
NZNsH0zxmTuXp4Uc57tvIwNQsVtUJlgFZlc4feTuXJgU8zMMp/dROpkXTCc+HpKJ
a5tK7O7kIKmRUPMUMP88J6/yadyQgR5aBs4NLpkeHknHJjOP6Cb1V0bbnL8ks3s6
xXCBEPhFTwCHkVnUMiDVeZINoPbKKzX0MtOvTyGW9DmRxNZcfsLTB8Xe9BH1VbiT
gqiyb+4ik0Qml8pSTNBtBDZ8xeQ3Ba7R6r14J3KletPbJ6aM8yoiKOdGp3+hUloC
M0o52o73un1S7K+Du3DTqbVY62h9FEkKQVB0Jd+JPmtwW33pUl2fjxcq8+eDF2Kv
0EnJuAhkGZ77Xl0mQtC06Tj28Qv1hPqziEcGbtwe3mlaAaylvU9vI/NTgTPxVrPc
c2i6AyqLeuJhIV+0Bbq3hA1m1q/XFuXY3uKQ4rQep8wDc6ya4cpCCBXupPeUFfz9
AENPklZOu1k4BTZb8OyuDFMM0x5KJznTGN1Q7KqYB2VLzW77BAHWot2PhBV+OpGt
an21wAxFqdCcwvFbdacZnV+TLJPQizqr7pUZaVwTQrmcnsc65vAvECfmOk8snlBH
FCphHp82rrtw610VQ44z/t4Opv1+TvVwUxc+H+8L8oB8ghIfJJHudoGnLLmAcYld
lblANwzlDUVULAZ9I2ZfmYlxCzS2xL/Mlmo9FWsEGRzRHsyN9bXaOmFLaWK9Ebyk
/8xzAyLgf7HGpxXEHDVN94YsT4Ik8D++664sixIZk8BeRcXQOyXGRtSuozZJeKiP
doPPq54rJFE5i288PhvihYAy7Aar/tV9I3++DrqKitwprxTpg1EIi/KQpZgWcVna
OKmTZAO84VyFFEvxWn0ZlzoVV3FxGbUuw/Aj/CkRBlY0YhsxtS8R0FgY/qZ6Rg3x
rIklBDAwWncHNSBIatByH5lLnkloGnBu4zCBTT7DSBFYAIAvJ6E99gQl8S/9p6Yw
dYS7UigpnKewNasPJYhmRfQw4rgtvSYSwcQ+zBjbnM2ApapLXOePhwJGN1qAYYic
no/OjMalsbydDvw78VDsd3xiKchAXydIIFrCIU7EvPZ8Dkc53eGuc962FIJWPfjS
v/X87ZT4t4jr7iqqWD0hv+w44+y5NjlsTC357XIFigeXcq0yQrCzFUOx+/3U1x5v
AEj3aAcLzMrOy8xaHFVffajBceuMn+9LYy14/kWAiMi5XiD7P8dJTTyMYkwLcCKl
EsrdtULftNNti/d+xMgT62/ybRbqQIRX9iqyFKzeCtbzWlpcvzpUG6+oNiZr8u7g
7U4LkU0suYbPA2WZUbwyoohH8IX4bgvN87BQkgoPnXuIHK5ilzLlq4Q7VTCDzzrL
v11P2Yst9fs3UY84VqA+7d4GxqOfKN27kfUwxQ2VU/8l3hDFHaa89l5LfQIM1HIW
Vmy4+PDAok3RESr7oZJCBcvHnquC/P1HXITOOFhQeGYCn28ug0AdP5KjDH3Sb74V
Ik0r5ETcxGpNIPQRKZ0NRCXFZ7TlwkOZFPeEhaytW783N9B2+6TYwx+4Sar0EwTE
E6sYwPRIIVrHv4R+2Suxh6CkajCyw2mFEz3UKdePDkk0rPgWE9YKlJIYxr1DNFWD
m8Vfo5+ZClWMmQ1oFa2RI/kT6VM/tvSsSJxDsUtj9a2LDC8ExjV76HgLgnmySO5V
zotm8iZJs0qzMyDGBe41T91GoyOShsZEm3w8BMQ1DkAHjHtCGTwmXIQl1riwmVX6
hEjbTH1zgeyH9kjv9j3db2fccXd4qFKx8y4ao4Ngy2zVtxPpIXTx6MG93cj5syeZ
HXV5agiXJlPg8uD792G/7x6Be9Jqi9dDjxYeGPG+OUyGqy5HplSWlGtuueGuYm8N
7kKSAZUIuZBEReOc/GFUEEsZFUlQLOk1UZf3CkX1Wlt2ZK1M3ltF+9hd/IXAahFv
inISPxchP0ngDaWpLgzChPFrmu2amWW5l8h5tKR9RwBnishiwrrG+8gBi1aBDwVs
01fFQ4R/neT/2ycxO3m+S2bpGrNxJ+V1lSoY55FdEBr5M9PFFQghsa+i1WE10AWP
zOedieZJXTPdTRs5zTTNsQ5A/aljastxjSnc+UTjx5QOJEWxbCWWDHJ1f7fiPL7D
YW/YUvAJkpRyalwoztEzP9JW/9NPkiKg0HOaHQ7XheLKJr6ftMSQOK9FnvoztavL
ta3c0Hz6TcFXcO45cAYb9XNwFkPPkIiWmITH9QHR4u5lCZVwy1goVSQS5OnPxBUj
zCC9wjKGkZkt9D7LciIi6xbOA3fUhTlapJvKWXsB4VZPQ3VP0wV0LKixOSCqo0as
ESTH2rjw4n0CH88/BWaV6W6vZ3vPGYFK7G++cEqlf/kygbxwvuFCpwJnhBPGgr11
hn4nWP446l7D3nGvfIkP3KeIYRkcML+n4I32ug5zMF/CyU1aK3YLuc8Q1nFVD36a
V/m6eeFd6TYbZD7ceJGzvBGRX/RqKaMbJncSDUKjKBOqjXPERFYiGdJVS5s8DvD4
jwwiTuh57j8ubwhxJy92i0oOBp2twgrxGczZJMJKt6bvHzzPeKcEujrJpxrIzMi2
e+ZL27pZf4c9ylSufJWp6Q/MR63zOjU6hr9F+fGabJcpr1vERrK/6I/d/WmxVq7D
37pAy6JVvqFOx1w2A2rL2T7Gu1ZsTWDk2P1fdqizNeblZYav6NwCoGwkZ9JOvvXd
FkKHZ2n/ZX45jFWTmYO/PXHAGVcF6JOeAbfZdWU5g5v/DyqkbLcnm11Rf31Arg8X
hVoI0SbUJsGPlC7OwNFE/0LeKbCZ7AbpjqPjzPuWxHPR5pfS+jCKGuMzYZUc9ny9
OMf8R+IzJyFlqd39ya7ehOwRcVlKdMQOBiN+asME/70CYTYkqa3Is6TM6uHGs0Ox
Rk0FxC3b+WdS+bK+siwg5qU0h7CVE3EUqusi451eNpbVmXtvY7Y965PY0EiwvhX2
br1lAhyJzWbnvrBxqNfTdL8k/jAo8E1ZpHZ5JbduMVI3bclq5p+Sro2k966Ucnt4
LbR0JYIQYsubqa67oXp3WHWVh2vsqKNKClRR11w4RloPplNWVCl0OUI2iCKmAWGu
QLCBKaRyRnvOqdC7qTEOCZXzuEGKsoHRyza8p/UoCz3vH7TKyol/JwkujEBeAm0D
8W3Jz+GL9KnijBeVnGlPl42h2fihHW0By2CpwmpDvjEOb71/DEsIrwxremLfh7+q
ZnIWT9E+XGALiGyDZukZotWjyGhngqFMuH8G1xQQyvF/yKK+Rgy2FJsbVcJmdWNY
B0ndU+HKO8bqoQN+tpq99HAhrtQsYrztzJDWAu4JL//KhYS0Ep7tZBC/cIZfOUzV
hxxC7Lqz1uugURGUbhI/0iw0WAnvcUBlhFrK4mvqJ5+vCot65MPpXEcHQd17bwye
i2okPnn95wL0ryOL5GFHvlpfHKzaRWTwDq4CRTrhZyHcb+naAT1S55R9FetuxbTM
lGEkdaM1cZ0as18h5xgAa9yGlvreChT7ldLR732AOvgCItP//KqBDZt2N2nL85yx
i7kNo6gdBlI+yU6H4Q5euOCeuqoW3dmQ/ZC0fHZd53XF2BFGkynmEOvC3DWmHc4s
ikYGv+8K81P0LPmTsuobf/kpMgMDgJmDenbsxdfwUeEXZVXTM6NsspHErciC1lgz
ZRg+szMlxZKzZtoEKQBX5wM7J49lfmL0fN1Sz3FrmV9azqMf05/PS40MCcERR2dF
3eCBz7yqApyc7nJ5N3AxPnmQd3Iw+z31MJvKfXu8BhsZ1uwzmHmjh9Rn3biJUHEE
B3HHjne+YIceQbhXSwlFh4VK9+R4A80med5qa+iay/INb3PdXceI7tj8JScCVNfV
TrXrchY0sygj316wd35ClKyEcQh5WEk//KEXNKJv1aOUo3fvrXY1lcXoiY9Fo+1E
HlfjFLpHtug5wVaKys8yA6DqasNS06fwYo1UfOMUdMY9I4KNgfH4nQfKuowNHVc/
g6prupxQnnk4yfHBTlrAlaJMr6t3424Vy3bAIMmbvMGjBrIPlFwuuH76qiGmVyow
mhuvVcwfwBRcRZQbDIemwHFW40aeA5aDfjoxyDMBnyiFrHlGppBmPVaS/D5PBWql
JPDMUX0AzUw12xVAW6A8Osp1ts8tsy0fHAKuncrqMhygy2C2JGUT7X5dFZWdbSgK
ESmkDr24IkrAPvuUjAXmg+ELvlVMlWP2XKi5usDdh+pRqD368VkBtFxuypQmv354
1nfGJI0uDHTfWbk4ofk59AibGkDCubnNNdU8dQTsaY/DXV7gYno2aCPe8UNumsRd
0JuI0yEUJGQ4iSbUe4HQ65K8BwUTAsHN/JziOGAcVWy7JCpIULMZ788cTqRVwdfh
XzG6dsj7jV8nTibAJ2Xz75Bk8RI5cxjFgkw0CJJB2lADORHvvhZIWtuZM2ilnjOJ
933q6ntS++274FY2ntTIzBic8i62X28b84fhQYg3pxCc/mEMcZzkgWSc4uOcfBr5
2o7RgrcntTbTPNsb4DeFruK2WTaSe9X3g1l6Il60PbABCeN9UIRFeSO89fdtdqtp
tFlYbuB/f1id5/NO3l2CjoKEPbkPffq/jAFkmkK4xCvrQjtPKJBCgBUYj7u0lmm1
iv9aD7zQD2qlrj0LCvIOeBQqca3DvaZxxI1GyceScQXtOft5vNE/ai5XN3zbyoHV
7fpWDOymLE6Op6whVKA2POHumypy//+29/5tEQumeaRnDN2mJUj5eS0QaybuvwOL
LzEfmNr03LSboN1C13Nn1ajNAnUC6VSVcn0DB78WAPgOU7yTMAofEtdgPaPauqbl
O+3GigJ3L2oDeLzE4SGdSc/XWw7tU0iM+K8krubtYqhG4riFnNcPT3a9J3rZ6x6a
u/N6L23A4lW0LEq4VZDEeUsAr0hvBZVqWshCQ1Br+eeFvDrUTgFbIIZX0Pa0L88l
n/3CwVkt62+JuBgag+K5I5ygLjRwYQOAu/ib2JabiTPdY70cQQAnld5rVRJwMCi3
leErprlIZHA78iX0XMe5i3NEERew4fyFDw6xbfBFFeIEpDe91hY2AFq60slTCnH2
0flXgLCm8XM12avuB2u0mEgDj87k4k50/y2al7QoDH5K+ekMzWeCSNO5wX7rONso
GRdq73adn9A2HOm/RZnoLdsilewmR9Z0NvCaiGFcKoyIu5ehpYFAexp0/XVf/8Ev
GDHAGeAG6uaUoIq0Fu68cm2ATkJdYOtvrsTnEIGPANv6QI4VJAEi+FEVSGsASX5c
/s1zpHYDzdQAZOVGCkuurHjdwC+Vg2Z3VpVFA/tT7NjvKZRooRCruW+a0H9DX0Gz
DOAjCwHUcTqUdGxI2vCbEO6lfKRE23fCGcZ1fDgeZnXgOdRWyBTlmXK+ATvw1BdR
x3jiyxKEv27D+W7n2CICezMYlqQWFc9VNBxEpOY5ZSbhA57jMvlNBuOg2K2RwvwF
RpUjL1oxGd64nGbS+TVVkfwKdRtt6ostEMexvcuhM4pQ0gh3wAEnnK5CZCIWHBIO
EuZab0QsOmTkIRl5/+BDF1Zu/1TVPtW5Gp8prZ8HfMhTzYlnD4jGvozKd9pswX6J
HdjzIywb81SNkLhe0wurmWe2gfIqyr2xApc1bJqAMvMiqjuyXTWw4M3naVpOPLRd
IrCmmA0lM+WTBJ6uCUMoRaF8xGXg6sHpsVztNFsN/rwX3bbCoq4tpUbqKo86Ko7z
jv9KZE9rHaqGAiH99L6gcqH9Uo4h7i1WMdskhv9rHbM5FU30uA2kSgrTDGlEwjNN
8hV5ifl1ccwweHHxsMLnShFHq+r6UHMZBwhGWlmktuXQnXOcSXGVrlXzUsjO/yIE
RRPAXWEdpgllONIZ3ywgnuzlnqb2kATC2FfEMWGuP3IdTUKwC6mwedvuxNNx6TRC
wLw2HIwnGD7cHQNR8iS3kwFVRBSU3hyekowGQAGofEiBYsXxFOf5qEkcboIQwT0Y
gSra9EhrJqs8AKYyvEYU+lzPgd5VkKD8g3mFUsaJstdp2uR/YDpZFEOiX8Yl1p+U
LOXnyQk5DlFATPDiuEbXkq3WFb91uNo2k7Gm+e8lU841iutWR0lNcinKRtUgDrD7
pqxeF4oCH20E4+OcbIuk8MHrKInN0pib7Qhjy830ilnMVsWyxReszSd8XnGt8SVk
Shvi3miWzwe/rzxKI3kiDtxEaisKxlo8LshLYDKc7nlNb0t9WLtlIAUd7PFmHU+6
i/3HW4M8tq5MhZkBEzBGeJ7T82LgxcVJ/SJtvXKW7E1jg6M0HoMWandX/OC+80E6
zAarrZ8yBwNCyqgeJRil9dWOe1tUZ3xAZS6d8ib/r2bqwydmWrz7FzNsYYcR4MQB
3DiQts6YZD+YNdEg7/FagQrciTnTZqXQgPWCx3KDJjxH1dDw+Q/5dZ7yFIWb20Xf
vgJg266DGsLqQ2eYhwZIJ8zYu8pOs+bR0UTpa9g+qbypaUHByw+Svx530i7e5Z4n
vqK2UwTmi+gdRagcg04vQpSrlxIYC1JrW0iKiFwYSNsjDpMkVxjqBS8GQ2qdaOQm
UTAdKuZTFENTSqeapBBTtk7J3Iy7gAbjfS7kol6pFIIXBxjLeUvFEX15RmMT++sG
PlLsNNvHEQoDSBTpjUVOmt0b1q0h4zZhNcUDU0W94W5wUgxM2sAHBHT/FEhDhIPU
Z0rigFd8H+f85mxVfCT1SYkQLefnlzQiKrU1HzTcFg89SdawC1qo3P09jZ6MSPDF
YfyAffFzIAFDTVUQNmlxf0p5+ysIWXCgoAULwHw4KrE6BqSzPx2ncDUsStuLFZJ1
ldi9jDtabKar+HAKsvzxtthjHSTnk91Sq6gF5fUMeKSSMvokZTek9Aa5gpw5OYET
PE+TeIzVP2lLeC4L5jSqtIfCiQWdkYIhQjFccXIP1oGx56vfu7MDJW9uCtbFK/bQ
xBNZQl+94zkwFwXeBORJ/PiAgpr7AnQBVgPzKG05Lq4aq2LTPcu+WKnl2A17+Hg3
QJP3WvtVhsG2JlSJcOl83GBLlRLouSnNzDoZk7iMPHy5Gg6FuOOzp98wSf+lhKOv
24z5kmeg1r6ZSjpLfFf0+YpYEX0x+QxzdGom9Qg+n4cNVNWpuGrYQLEPUTgsfyVC
TLrPee/2hZVS9QPP3LFYK8mAGUG4HvDGPj3T72pxW2zyKkaH0oyzcTRzz8sS948x
Ky4XhI0SiFb1GdFf2Df6vDsSGtCNJCKIu8vrdeoIYDIx0E1If3XJG9q+SzcGTuVs
d/yl87SzGP7DowQJRpisEAfqDpM0FOLAyBnhDi5PHcM+H4kl0UtSftruL+5bOpeu
3pCIystfkiq07frweumt8NNFiAaGsTFuip8Ces9lMeyt4DVrtD9IoaNv6vb8kz4n
dGpgZ3PcshrWZNcF/xjRlyRCwt0cBpYUwRXWJsT9MBcQGoV1cdzdTfpGNpDKciAd
4k+lnjhfygzyQsWol5yfiDNItjdN/HFtJPTuT8DdBTMZQVeq8taeDu/ypj1kM1En
mPaNJBJyEAUaDRzqp8GXBsubZBSoQS/9NoruRdXrPeXAgOe1nQyftksXR0rZItW1
C7ZWKMUf1okgZCA0BPhI7jEFkSPy3bpqfheGnmtSFQAktxgjzH3Ki0PREgyps1/v
LFQ6H1WOFL3tvpfLIqfkGeCRVnxMKRrxtKlkVzHWH1YXRG13MXz2hCtVCzxI2AIl
V8h7vK8ARIIvXGNIeNxNRLXJA0vYCiedwf+e91zKRxMrkRmMjKR3YVdsYTf9vf+Y
A3lzgeCUWrIvHmLSlnLLfSOIj6yjA/uw0rZFzZcOas2H6s4pMHB3+Hy+mIGzIwBe
z1bFxRae4/pdI8n4ZbbV9b7e/bLppeAJob4a8tdzNvLzRJg4Wuax1/M9RqfOm0Zn
OKoUOj2Qt+zzh1tlt5D7OWR71btCGGX8+NCaeKXcE3FGQ+hBd5tWk9RL5RQjzMQn
1oalKHNhK5/vJ1dq2q4gRFXPq+1AUAf9SlRHgOr7G/5GXoi2MJ4fS46nWY4Ripsy
jV8SToSkZzMCgE62zviqvUSfkbGvnWCZ3++4Hf+MPRtgITvoVFjz3umIDrAwL/bv
2NGg8eV39JfSnT5gaq9vVmIoEp2paP3KhaNjECTpLvycFVSUpme9ogMRZH1mcjAq
xvDErQLr+qgBiULzMoYyA/uj1yhLB0hdvNXorT5+MQuo0TG4ftG9cjPBAY1ZQ8GH
Y4nYP1Is+NrDJoiypy9hLhgRs/jXZItAnEfmuipHAhZOlu/SOMfrmcRfe7ae0Pwu
p2gXEp7zwej3jC/fZdvsZI6mHIkPZ8bkSA23b3K8qq1fTY/AJOrTf7lkWKPWGmLn
W/Z9+9NFdpqyxgjBTnQ1vyhgBjIZq7JjK/6rK1cJGGlnjWvrh20yzXmDdZyB+ECW
oG8/JYd/nfuMon4UQUNLFFyVszL+26q0N2ykdOg6KFYXm3mM/BbHMskHpC31IHmh
DGqMp8e+Q/TenddjXODatW3EAeeCmv+KwEEmwKQ2SoBigJox1gW7hfmeAVQgFvTi
Ll8wna2OolDCzUt6B+5IF/ObPpX0SzCGKAC/G5GTRJqRhaFJcV1XEfR7uoAzu/A8
BbE0WasNR/KEQhDc7me9pY/BLfmPSQOynyQXqlMolplPj9IWWt5hIVwLNdafkzRR
v9By6IVidlgoGmJ8ymJKBWy/isV3I73Bo6rz6fpN24TmTsi7vtPRtemOu5gveZrd
6t/8J21lcVKVCpITtuFsRarpJmea7YIJaHPERsg1DGke8tYNRpZrNuxnqncenInh
jjORZStkeoY0TmciVfLnG0foGy4AAN6+/rJbACBedyMBg3evVJlSDX8QGJWjordS
OX2vZ9z4fCX8QgGirUcWDGGrKXdDC8cBHQnwaE/dRozqIiNuctAazwFL0P/toE39
kP2EN/FCfPR5hXYIv6OuldkVyYJmemZS6OklcOGf8mgYP66FCP8zHL5fXSiTIBrY
2XGGW6ZuYLq5HcUrLJC9t+nAahqJPYV3783VcEmNV6jbeAF06s7CtvMPcsIFUU6L
e6cpw+HUgfwEynMjsJGbsqsEKIhn4sIu20CdnUD40ZkfNwMoV7RGLoOI3QlXb5Lo
296QPyVDuRYEC3/Piz1wGj0Ygc2KYQGLdNzdOMcSAlpDwmL1oz1e00aEXR/1txN4
lxIszUzoN2Ah/P9IK+tQsyrA1aWQ7UP68H5xLTjAe4H8d5/ab64mJ2fxnLAg91NI
9Dkecsx9ZkT6FqGoK74BjQdcOo/4z08+SfFgo6zEW3z0LbmocTDdkB9y147Ny5a3
bn2k3qu1/FZJO/ptF1dI0EkghdeKccn7r28ZXI75mi5oWJ1S3bEZFoG2Y/VN/c+m
iP5A5XWJr6N6O22skqEwbJBzUnXJbg3t8IMZs45urkjNBWbd2iZzHhDFdndhEHiB
AXRxnYUSl52XW5aZ4PhzYsbEiMGkQbYQZyOTg0iZKkeHX5x2BGz2GfZkA574f4HV
RvSWphGOJXFPB6dkgWJwPe2xD1q4Ia71rOPOQDo9dffmz8umkwb2vj/P/xseDeUi
sWuQXkobDyZMvWPPmiyoMmlHCE77IJZTyWApIIoh0PGJa1f4Rl/it1IVJpIhIzmq
MbokdZaqrjBJUFtRgCqFXD7dE0rQ611r3NYHT3LI568dxr+NM/XcyMhwXcoFvx+Z
EGIvzCBoATJfRNyLSppbK9AVpXS/wb8xWvbmwDD09sCD5yUGfGX/k1kklLcCFqZp
6EqQRFxSqvph2pAEeWOfWuHSboiB6C0NnWQMQQpP+0AWtYS4gal8lwDFYHCdczMG
vB1ZaUgsXWJOEz0JEDaEKfEm6M2AP1TYih3ZRRFrMzcSTU4ROAWFdV3wer1vwDFb
62aZm8xE8UWm+0K5/D0gZcj36Abf80rabXfbjogjlyS3CSLf1iQcfwbRfxCgihSx
95DCpoUh0PhW1IXvKL3ArESdhCNholOGEgJGSj0LtPFwRZcAHJ64JUJGxkYz0cQf
5yRsnVC1sA8r1XHrpGQQnopqsXN/Stc7CEpEe3SQJ/N8CnTqZoa4H7X0vBQe5G48
xvM81yIwrtqoojUjsFQeBkWqKHuPVOAhnI4yLWI7bQcogpIdYAQKLE2xDtrZnAob
Qc1OT9YUu8wxWLLMEcgnuPFLPZrMSkmsUpYBOaZYpbL4yEx/QxmXPf15WC7ZrzkD
pJvhggCnGTGlgz0wF7ygTn4pWVI57ttyYE6fIUrcWxbSuBW267TrSWj86NBmF2gx
21VUR0qbPM3jaT0DDiFWBVdUG5MJi3bW39q0R+6Xf4MoOR52LyG4vIEHBCnqX61x
/+L6orUeRMHDj6QXfIDwTDemxxWYhcpGa8j9czr9o6Hb4XLdwF3hL+Mr9hSMDkhq
JELvvWrbvCjsFGOt1h2ziEbCgTGu0AfKtCJ9HHp+IgQPgEZpJEAvJFCkWwRktmUS
w0Tt4QSYZrQOU0wsqjxZUhaY1I9wiaPG1DYWcAHFSr3rrxFBV/BzYEVtAl0BObUz
Gv9RAb+vnOFIQiAneYiOsahzpde4bppXGXdSVnSYsaJzRSAjeVj/dEQLJE05Tru0
+uaIIiZdx5TYvotrVisZ1JSF9zYOvyX0U8sUoCpA1Ja638cSy8AYzC3U93liMXXB
e2VycRbFdan9+HXz0LYf9TCFywu6zhtUdjfu1FsGq7KHXgHYzbCVzWppy/gwm/LD
9DVGC33HZQR/wiymOQHxCnfANXflJSZzu9/6Kgn49MWkMVcTF0he8k8OqJepG5qz
MK9DRLUoYKYVrFkQHjV7Sb9e/hs7M8zc0V5dMvW3687s90+NKYWxaGnsoIlmvH3a
4qpRhJe3dFfiOxowm4S1fwGSO+tMGXIpVtjurB5qKltTMPKfbfLjW3LE5jbRlJMd
JfszE1j1iW0Sr9BgPHa/FWQU3qJ3r285QtJWterr93exJmEOe8uiwU2k3ALY+lv3
QU2OTGuVpnW43k1tjcbFXtlourITNjjzaIrOBUyP66pqUCp+g0g3olsvNKmuA/Oi
ZjgYA78TK5o9ENtnwoiL5wqhZ2SPWsC+3bkbkCy6eRGJRdi620JfALavDsLJKB2X
BBcgMZGADog8NkA/48UuXjBcP4UO/CrZnJgK58L0TLCP2K4UiHctoKzq7xV1snyo
nKJVuSoLVhP+Bnivlgp7hevxiPSLN0oQYibsnsFoh3nDkSbmpWYhnPhAYpHR49C4
zfuFTHgkUUYVnM6QTA/a2PPgCP2u8srFl12xloPsf0cur69h53RucLC44QY6oHzT
fcx/zUoFTiqnbU40d5uIp/INZm58kFcrKwwiUZBa1EBVoOcc3d2Mpw/bLTh0QsSP
uyOhXU6GG5CCg2WWRQzrzDF9z+hLbL3ki/XSKiBlZSetF5DIwBOfo+cuLiR3fpxf
co1qxGdaCi7lAVJ41EXa8eL414u1q6m/bjlP1ckJxPJe7UU2WRJ2vZYZf1fvCifK
g6sQBPjxTmDSE0YoiH6EIKgddiTObTeMUXcrDCiQsMVMnauYir4P9VMtW8x/5vmw
NpsTG1kRbwnSNcPB9zE18wEsKBQPft4EDhaoT8oD35E6qQQpsIIMAwuYCKxHmNy9
YxMCIeUVyyvAGRn/px8cFeTPuaj9m2xHdC1h3cy4+434sbbYzxjSkR/aeEoXTEtJ
9A/m72c9CYKBFWEZPBY3cboL+bf3kIDMPdA1BGSQV2/7b8vrDhV9HhQqK4LxLTst
pkq/d6IVdHGlwMMnbGGqOENYOtvex4wPByJeNfqMWpkLDOwRgQ50gG6DElf3Q4ck
DS2Plg94zGAx+Z6TIrVdrO/EiMhzpJr7idBwO75MQ3PxQInnTseHmNczlM2Venwg
jxdRQ+HNVjHRH/mup84ZOr6zT4l0ht/tzfg+OaqJvjz5OB1hTiIZvaT0J5Qah2ct
bifW+MQqQganeu8XJ3DIaX3PRZo7T1deZ+HkeT7RqUF00Ccm3lQPbp2cEgui6z6C
tkYyARCKRhnHeWiTUNFucw3iEj2jhxVaVVUAOddpwjzHlEootMGdgfcK4MuXZsDm
SRthU4Lc221vUIkLoCVwt1qtRxJ/sllE5DJBtZF/izrwM6kqiYexxyQuV9ZmV/9g
e3cm6TJCbQ9WPvzBFdTLddPWYpTgl8q7w1Pfls9S8UtW64Vdw7AnGaqaNNtg/UhY
DKkb/FLI2x9d1i8CmajNlBhGbGJCJShuov6BtM98tZoOXq2cyS/R3swf1m9D9LkB
XKKOshj2RoeXLulCuHwHJDHnlVyn0CINmMn9/YUbzIV2l7kps1QG8053ZZcDo4v5
pSMqSJ/mFk/AzwcpK0zKkUyO5HhbwrtPTIKtBNLUexSLLOMOldX1X7w4Bw/9amwC
rfw1C+1nvJZMEXJR8xFUjtqOi/l5fsXSGf4qGjz3JoxoV2+sgp9umBMTS3O7X2nc
buIO/2EMEGI0JqeqzJubklFW2qpwvkas1F8Q7nxvI92ARk7KAiZBQtIL+Nl8Gqdg
sJh8IhSKDxFFZd3wJ1t8rMvk8qhUZUs8lBq+PI6vJXeIOQc+hUWEp3uPeX57nzlS
4wiiY4fA2LU9XwXcYYBpzzj7Md098Tb/dwDzmN6SkVqP9g2mC7kRLWP0N47Sl1Gc
xpdADwkQFW9CWr85N9Hb1GL6Mh97CTtqX3JT/hjg/9sb49FCFGkE/8Fu5XfXJOE6
dm4VIG6jgJp0uF4bcA0htAOSkWGlexIcRsZsn4EVLJkkeKZcoY2lynSMSLk3YA9Z
2vphSxOp8HgTUtsxTApt6p/zPIkWh3xgUSahd5bFGqqvEfceNh8msYU8fyw3bNya
4SxvPFcpYxELF9TiiM/R/5Hlpq6HYHRgd1kg2HxYKfuDlRThCF2VPGrWfuQscYMp
athduaRf9K8ovV5n4fQ1RA6hwvWKftThvVH7tpdtPKveLzxzVjsZH19iVAewMLbZ
OFL4nTLuwW0WMj2a9ICmXAgQmP9ngxzdIDOUxi3izrNDK+zJz4zpSfinCA5CVTb2
W4Xaa6v/2vlPsMIP/iFpgBgoqMZEudKs6KD/FlIkzYJBHTU9NacbLfaaQLijkIw5
OmslV7vlOgFSxkHoV0XUCTGsuDsDFqMUl+SeOlPIyZbHAyIVXS+Drcg/e+rjBoHw
4se0mXCTVy/67BTyYS8ARvRfytyohvOUzKpN6bL5nfP6AnsTLhI61a0OhWN0CaxI
9TM2Xkh7LEiP3U528OOc0v936cKxSglLdjT5W1vmAkkPB2R5ZQRRSIfNrZTdYAHQ
zUB1klsXw422Nreue/PAtB6PyWdMNvEj+aDTPjCaBIF0EACjRfw0NfXbPsUGQ6/+
jR2ofLlPTE2hY5240BavcJp4/g1iRFarTVn87PAZRaJssS74qT8NitR3E16MEF4A
EZA1zFIZ5AxdUAgmQVBfjcN0ifhR4FHsL/E3vnsAEk+S8C+MkxUN4rN+oyM3+6U4
FetVqk6lQM+bNVxo8RFWCflzgXYf1RRvwJEpm5msmjdlCrUMugJUZ5TTvBwzhhKu
SRW5Z+boOK8phzfDHQnzFWfy1akSd+VJaXrFd6Ns0XhMz2ipFVK+sxiKDPfzBTzn
qjGAgHBwQ43QUYT2jXLIhT9Hf3PHxbU/YhvSlUXYcRZc9zCPlmq8J5mOjFkBKYuh
hSw0DxMM++D7kNTRQUB46ocSkVwhQbHGUkLoaiw3MeTYFiO93kG6ZUq8ccHkHmqW
EuI15KwPrtR0/fms8GgnEWmKoflc/RZSSEu+KYbSL6KiHMY/GaZK6W5oYrTGOhEd
aNZ5BXnFuzYN0gH0CeJG5smD7c1BR+yU4j28uwqvocfvFbuMnGhdpC7YhBUbB86Y
YFWvA5RYE4M4+U3x1mX5noI3aTexPsTNvZ2IXENg+PoOtd5aciaKGAoVdn7jyGsE
jJqIJygIZPtFVk87PPNwFEnK86G1mLOJcuKMTf+ju+fvBWAchu+ggD67JoV2osja
lE5G2c5LoySmOl7u4zEnGuIBk20aPfvBEcuED3AwAEH2ju+xuHQJJ7cJGnPCnXpE
OHnTuBZhkBukRouoCMGC3Rc7Rii3Py1PjZEjtKOIkChIFPMZk4eA7R6ZWUVHrTJs
E5Zw+v7BJBlAdBVQYsAaJMiwgZM8lLFUIUf1CKGSvBRqi5MPB1t4vtotLpZA5nJf
aykEgeg2gZHNt2wNMIk6hu0LwOsJ5PxYtD2jDCA0w26GMYoK33/7Oq2AWlaej8YE
lRKIaC6vm3bUrP83fqBn1ENor2VNJn3B+n5Oi+AAjDX5p0kExwR0kwimQtAKe+9k
Ez715YI8w9f53bmn9xehL2OQtdHd0MSo9t24mjGvDM96PTFZheC8qbRq6Fc1r48f
8wK+a/u0renkS07nTq36nPDVURxhpaafVlZai+L16WCRIuWXkk6CApLraouVvL2y
eAB6PYaJPn1YrqH6aq+euE4D29U5Eb0EwJvv7iYbt5wb558ejS5sOYpeeAwo8qNc
tysknXVAWTSSDM1lL4VIUcfnc0vMhROFI79BG1j4jcQkda7irYa7Z3wr35J7qQU0
5NrszC5rESH41Ug6W9oYO8Z9rIWjX1k0j8s3IeOvNnkVucC2g9iQN2VdPRzk0Stv
IOg3mM9fMPmHOQ6uqlYnJSvGHPBFm/mKLMtb2y9F/N5gJE/XiVHAvCvLyzurmSrH
89rBOH7tBlEvgX44OGSQoeoRI+OoWqkqljTw/GKPvA/uAkaRCQfjukX2K+2v+pRk
WJyg4zVvdi0sOVU8hvBADP7bEA86mbF9AAUXGK/c0ZUl7FCRv89PAxFbJki/NHqf
ciZGLDEE3zvuEkfx9ojKjdtxyaty8k/IAf8RNIzw3ByOxnCsikc3LZSGmVQP62Wf
duAP4f5+7mKrVznpuUzeJsyvCNICFDyHHDf/tmRuItUvADCHZdcVXltZjadyIHzf
X6ocIY/8Zo20cMKiXZj+9xDDMXPhQl1y/BBhL1pykkykgjgdEx93VXVGMMpXmlh1
+CuBRyqDz1qjiq9+rQ5tRL7DYb+41gh24ITavpEEvCYvwe+hnE7oz8A6Kfayjm27
dvfp8HXT9ocpL1YdgyO2Pbc7tNRGQ1+3+Bg4T6799FYfiDrHcToXR1pwexigWItd
gHZznIs56sr8QMfCYI9//zuYCGYHQwdM0RxlHjnOQ09Hp9+2zpU+mdGwFSnof7PR
hQusfDwuybp4HohdLQ0fNEeXfIFJflUrs4szWoVZ/3JnUvRL0foH1Ta7Eq7wARga
6YhlQ1EpWQkhHj5vakeW6HotXZr8zo4/Gfa1YTcNbIT3MOqOH1TIkZ0RK0NvFM8S
8JBMGF5lFBmMN8mmuq6rhMuRHLdhnU9EFGtcNVKXvs/hjmjsq/oZhG8P6dCDAmIX
8fgnXUYFG2V7sTY1rawSMVKNbTLC8tDZRGdU2st+wsBm8MW4TZvzVmXce+vDfnpS
vd7GViYPKzB51tm61Jcp32c6lMgLE6DEsl8aT8vhposAJ6VY7UZcTMrkBYNfV+/n
ozxvoXhEANAjCAfkg/ddJcp+KBmOYwFB6p4/4m+LfwbORLHzMdIn9sTqitC2jgMr
KjFgRfHfo40XOmywpc5j0zKvWduwgLG4iun911Mcp6rBeGpbFoc77uxXFytPxoFJ
kzLnB4vz7jULNL+29HwdUedpkjem/hjrjxPJDfp434eKwvbNwPEVg49+q/pFCAPM
hjdPTXVIJzJq2TSCYTDpTtXNNiLL02CEuwUfQl7mkFU3A+Y0Ws8eMRYbwrPow5OM
i7Ja4n4mcvjZ4FrDwMwvu0Z+UfQu2B3FbT9LE5vpmowX9KwyA4KsOfOYeRarpUjT
7lRZnbd4hQsBRBJZeUUih4VHaPvv0BvSpuKyVQuZCmRh2bn5tYRFuLf4WCu7QZYz
ISN4x4L7uF9EtDLFkDjTHVPnkL6Lq1Cusc3fGHRkPqRRJyRQIFlmyf2jeX15SMzA
bPNbC1wc3VTuZ+6/oeBkEIov0N0wXvm7EBnCqehIdWRUOHcTC1nShqykU5cIQdaT
A5BECfBPLb2Ieq+evHZrnUpIBe1Bjt7BuWSJSVYjM5jFK6pdMdGWIlvoGtdY6jWM
unCcaOzyxF1HdEETwOmniiD4K2cogSj1d8YIb4aNfqjlEd+hWlUjl+LdL/12Gm1E
6GkH7nyBUemEgeJl4eImsoEMkLVb5+19dQhYRTXavQObIQ8fBrDSEKUkiuxg9Iu+
tL1IClQGBESESDTrmjDwz/Pq+PKNl+XrOwt3xsCyUTpu6m71yuWJ4XTAAJJGVfld
SpuU115hH1+qt3WcVH6ADJWuJC4qX47a/8QOJsVz5lKSN1XOn5u5Jwu8w8deJInF
I7DqPlgf4JS8G3wgbQOPByW7GdN/bgy5sFaENGuiOkN+NWj9STmAryQSQvSRwaRc
O5dJGGkYeUCX49d1vNEgNQNNuEbW1EtrBXXLZZyGdEya1x6c8KDWYtjyQ5e+yZ4V
nj5JC6xZx3DZD6Y2rdcCxZQ6OAEyoNJXiV8EmJDseuUGvfCdDeH9WjfESkmuYV+8
keL2P1bjPu7abglHXTGZ2hP+GMCkrHqMBhCZ7Qy2PH8aqbP+Rtjmh+lCzD6R8M7h
1ZxfGYLpRaSJ0umBDos69twJAUtyc6UuJGo7n56gJM61lXEGi7rndO3yn/jvupjD
tkUqOs8HzmeMmEEuFMEhweWYCHe5Q7id23sZn5XElfdgviu85DNdPWKRNv/SAXDa
8+QbPX7DzS70Flccb7ZNdcuFvbst/iuNiMMwWBvQhYDSXbOXaag/LRIDFIJ3Edr1
kN8iFSQNMCd9zfpSVzS7+m2fzKt8ZOqMpF2HMRKTB6zkxPD8ErnfIL/REqp8XMfE
jxKXtUpiyVHsSWNV7Eg1OS5AwwWQbgB+boQMEaV5ffPidjcLzLfzpbZyQTEv8uSV
FnZZt+mobbS6mBTkUm9hwt8t41NJnnpdH/Q/S5eXHzorfOD/Y5bV0xV2jcsCqtmc
ehEz9WQVE9tdrZdsYowHArNzYPFSf5s3VTFBQaGpiuKue5V3XarO8v+BLQEb4hEg
icct9ycCzuimpAA65arsBJUFRfvYl7C3+Bgbibyd6Tt27+W1l9wxMscuQajyr0FT
UoD+mu1lmiXyt5zbdyWDc3PkwmP5M3Ee+u6mbqEPDbpFJgtb6ki0uf+5lljEdw+1
9eEQg7jub3N8aNQJKOuS0LAXS+pTLaY8DrE4noF1JbdjW9KvEtt8mzG0+vwFoZIP
Hm5X3MbwFbKCZiCaJ9GmowNw26VmgtwQ+2K3VfWP7V85k+On5lZENNvG11ZGB0Xd
p9xjCNTNQrHY/ThJ/IAf4eLPlpMLV94ryZmFJC+5c8htnitw0t0bQnMsOGrsJmlZ
vjL5GgKFG99uneFf1Nhfjkz18UA4nTDd9Y6CU3VqiT5yZR5yb1//rmX31kSapRkf
rXCXiNXXENm0FZRNI/b/UXRluT12LNbpOCdgOwcYWOmVW51yCskm6vitOssLRqJB
ddiu1Q2TCZ4tG/Nll3WpWyvw8sgK6+T7EaDJpCTvb3XMtYyNLg2+mC+PCTulDSc8
phOMx61uSBtUmgrEnAzsdGW/BPoF7+okRvfvJ4HmwNybX7Gosh+qsQ1pY+098Ba3
/hrJmigS3ZzabAC6K3ELdp9C6InTqGOt95dV0piCj7zlRffTa9Ty51pKwKEkmP7P
SanmmWraOAO5XY0ACUU0zMoJyBfhEGNTuk8BCnkTqhzpQeWgWaMWSvVdv4IrBXZS
qALTzo/pR7P4zcKYnQnEzsjVqovnsqWLfGeSvdil+SiLm2n+bUHMedOrF6BirEeT
/HMipp6xW5sI1KUsto6cPFQ/+tsg3JR/zWDuMXMj1LRv4yr0nAasHdTG46eoduDm
JF5+/0NZe0TiaAr8c5I+FrGBVsfuFeITL4oWSZa492UlL6vZ7YRdgk5cOg+AOArq
pUaFjFcSwvhk1k5ZBW7SfbyIq+PbcZKvX3NAE8F/CYLbbmlfW1MpOG275ZdJ3AWd
Dg/6jR5B8LINRx9I8rQ3QmyWfgKz+BRNLd19RHYVMkUEHr7ZnfW8g2DG5n/wbo5Q
YwSysBbAJkZfTlcnUnsejWvikskod7eAMN5iklQujNjuAxq6VMAmTZc3bKEDYrCP
KBU60zpXCOX7SpIQmn/C+b+6mOVCh9/oyH+zc4q52fIOGSVvPmD98Mey4fx0dwjZ
AkCGv+DGGZTREsBc032qZacqtewZnLYHSdFBZEiUVvWgJOm+HLELP1zOUlWrggFI
BVAq2rVhAY7qwKp+fJ2tcoSIGHfEsBGFUT21IFIpiy8+fk2sS6egYK2IFYXkWhP1
mVFuhc0VYkFOmLtpzi6gkHOm09CdC+7rQH1SkPi0hk+R3geUklvs6EY5P1miNggT
XUfshq/2t3YdlwUpvHZcM6HdenwOLlLIQln9A65CUcGP72hVynkazoTZ6wmYkH5K
VQtKAJJ3zlXbenu86UbQjQZkPh6ZGwySCMWwN1l0ZCbng6ZXzq434fLcPxuQ8TBK
/QpT1wvu1M0XHoEInU9Myp8Kn0WfqfnaY8q+cA1TqxiNJaawBCscKWhwQjykgapj
Vna43dxUgNPscAL5spYGLVF88qoSgtlASy9UeEuK1vzEyvu5/nqB7m3/LtGnQKKK
KcYbFKvTNrZYSxEzHGNkEcihV0+cAljAi0H6iDDSMvX33aOaO2v+R2irwm+Pq171
6e8VOUGY5WXQweNqE57IsDtircQKmIFWWYc22yutAjS40+rYhZvAFx1rYVgwfCt/
WsSXeE2VrC/xbqAAKhEAyxro9WCF6s2fkPmk4dvlOHIznVw2gPSJ4DEv0jIMNfir
vhVCHvFNGCWd18W7e7J0ATRcIfKtVxodOaIp1TKegx2ic5vf7RSNEv8GBisUn4aW
0Xn4REU69pp9lgodUoCkIbCEcMnUDUEYxmJw2jFg85gjcbLPZqo6BNOpNdjap0Du
1sbxAxiRBVbYbGMVSX/9puzQ27whZMGbHTZsfvU9ezXPnPmE6Syr2JTR5SdTTl3i
mTsvadgWGPn4ot8rju9y5Vz4wnjnB7mp2BQ2/i3DmukIBg1KUA2V0lQbJA5SK+yN
BRoDWln0MP6+OSgvrzWm55666DROjGw3eF90Lh7Dwopj/HTwdymboneDejWs3lga
BuwpGw7ZC1vQPyZ51cKUORhpZXC6zjnRjZaR9dpabGTvUibsJrJYvgJg8vuv5EmE
bE7aP7U+UzLinVNw9ua1Gj1YnbVpIRNsKIY6j4CWXW9et6VRdPoWaaipTCF+jOWT
MmmjGdWVQ6nu9ermr9dsKhIwcNVgrzCvN49rJlmYhcBMo+n5d/0owWNn+2BK7gop
A8NOdCcl6/2mwSfa6HQkJgXhaL8utbSkOL3FbUmjuO4WC7WYIrs2zv5D4GrJU7vU
ldT4u0DyE9Qs39l0gNveQPfVXoboKDw0GxlFblGVSjnZGog+oA0PL4IE41APNBvZ
UyZhKmhLNyKNDdFNSBbcm5Kybew5CHx2hB+3P9brmE9qx/BHUNd82JbFPk8jPbki
KDMLSReDe/zwYlWtV24ZzfmXL3lgVedVuxWcEHSmjNNwodHa8Qc6Sk8ktPM93ox5
tsGQKgYWvIza9bob7N9vDypoA3bFLyzqbeyV79tU17THQ6Q9kexQCK9HJs3laIMK
toGOAJKyti5GZ48z3nkZAx9Wvp0eJXjPvxbDUEUPL0Fi8Qfxqn07y89TiKVy6eAW
lBUcaxzvZftmagRywzwTUTnsPmzczyQxzd4CySazVjWiXUjB+9j46PCRWg57XTsf
saZY24EXvCW07Z92r2qgRob27bZkzqzNt4ObkZ+MAM1NH6+YyebGU5AXmIi53qvt
Uf3b7R27oRM/VK234WxhQBl5Ozyb5aIu8KJtXt0KWepTpXbL7URc9wpW9s5YpxtQ
Ts4EvM+pG/Zrv3nvogrRaRmUOcsx83ha3qaWWs4wdREO0fYaTjU45DmhAZwjpvA4
Ldy/oN7CRjP29Vga6oHilpvnTkJsyjxKuQXEyBJUB//sW0UAqbik7OOdigX4+Yfn
vHV8BDH/p+EKfButNtkgvQTA1in93eI+zjB+rPXsqQYHSOG4vMQ3AIN3oWZs+AFM
yDQMiEeZva2NyDOlNbV8F5mBQEuls2PxIUZTBugeDxhcRWaVRAW7/LDKQf3ro0/9
oMj2mkil0vCfFkq7ke7ou3CVqyG1fTmEldGyE4QEn3ZRc8yLNRELamFlHl7TjoAw
xG5LD6eFFd1khy5fn13zTHSFJ5tZrSN4CXna92GMdQP99ti33XrfVaJ5Wrca3qot
qD0uVyZ/eTBNBMz79mPmeM/Vab0vVVug8LcYOkbflJPP/T8wrlj5Bq3qIiI7/ok0
jZgMY1e3juZygG+ejdhjn0my2RUw2nIBtlCTZmy/Aei+fSxJhADUskj7VS5D+o4q
iFJKUtN2fz5sEa1yLhNfJMGXcOKFhPgWdp2p0e/8EsH7YozEQZTAAKPkYtV41aYe
AG8W5e1BqiZi0dAja9htPE+ikE89LsRLSK78EZ94S1/pfuob1Ae0nPh7dN03gkrt
8Vxk58jIl/EbmTzzSxjaBoM0LaVmob4Gh8M0cHviUYranqmDRLxJDXkUpsXFAgsB
9SLnud7yexAvt9m8HoSkO7TgPs/jhPo3K4EBtlZXgg3CiC7cx+/xpyfwUz85R3+z
9g3zIEE8lMJYgqPv4d6o9r2KzRrF6d9+azxQdCKM7dwEC2MXfgkeKazko49Ggyt3
ctXgceKXBix64N4kHhpH5+WRztt9ZrF/0zZBrmXxj8Mhep6SMwkDE+s8kZFISrW/
DT1iculv7i9mIvNfAnwZQtfyc6dv59Iu+W2YbUcKQSwpXx0YHeelHumSz9UJPkH6
heHTTH4k7zIykyYAa4Qa4J8QdDv9BA21movTHH74gjVPGWloayi1s8Sc8lU02fia
4Y72Cfv8IpahDTwkLMmwy9lZVdOJXpXXvR9ZSXqcvJtuizk1tNWeTR90T9/0Kyea
oHCmC/5aivnfzisXG7RTTTufbjMTxySdgBNu+4AzJRmoK310TwexqPpKAN0Jqq98
lYt1I70DeYuoid1Aa8QikQzi7TNTwQlm1AYtkdYqM3n0ylZ8EHUZMEu3A7QIX/Fl
jWNFga7T1AnsxNqXb67q4E2m151aWUMLWRgX2WX0fP0VzfHej8ZD8xuDTtLMCJBB
umyQwSxMpPt9knZXWWmLQlTYNQoqz00q/4Tc0cUKzzQf/fp1hgjNntXSTL4efTuj
+p8bm7xdJb7648iof9i6ydm9fUHNvslCzUq/OyoJdE5z4E6kz3FqVBry7mpHwdQH
mQxXw1hkJCj/XCvh3lkTx8Tew4Q860z+rzuyldGEdXyZfg13Fb/taX/n6twC+4V3
tl1pYoju/cnBXYMZAh+X4VxI93CrhEQ6E9UUt9DycaA/8kry8oeHIsHs2DyHRt8a
ggfk6xOEkI1JoZXiLl/+jiDkHPAgKsXeUQldrK4n6xZGMfF5Xb9oyhv3R6Els9Ks
KTrRvhwlxOddOwrRDduGUWRfhxdYpzR7le1rHn+egmfgVFJXxVNFtgs18ps7VOi3
EzbrAXf9rTn9al6IS+djeJGnglc3lDhtDmWexx0il4npr0k9CvwJUNiFcCIRPIKH
fw8KL8H+A/WhCa5rNKWsSqj8a9hUyPtfsOUnD26hmHvSHRjD9+Moas/STwalxi7o
iRkXTQwn0d+Pm9+ej9M9XPDa0NtaXZVzwTfIAWJENPVK1Zs3ioc6+fZRBcssPgV+
yItf1+2/msSDOWGqOzlamJA8R2eEIxj+lYGYujWkmU3TcdfduqTM+YXSrYniom37
UQ28Z5xD1bJZQh86f0QejMTplF8+ZwutGzF5m/5y1Olg/uiGFbBajSkFILFB6ode
CKilCQr/2eCPgaMFZ+3d8vKo9f9SVZnN/YbGBsZPBgeNDyOunA7DHkQ3EPrZI5v1
noO56mYqly22Ng3vhmvQN592I6aM0IE7nmhxsF0KSyF7lrh01Yt5ggs01/pk+vMV
vHavfd+uU17xUSiY2ZRgO59GT5peko4y0Y3nroMDCHHfEvjqlEyWtL7PCuQ2FRPI
hEirMat+IMdk6wRn/aplv3xX3WzmvLdmEq7aziDZM0dZDPgwgQM0FCsnZnwfNe1O
sk/0iLgX0Yqp9jyOiW08xdc1S6BeDpqY9PiWhaR6sYPe+cTv+Gytr98EEW0LOWKV
+LDzZWfT3VWC8oDdcZ838IMR1+7grkU4YoRihLVp8ml2uaV4MXcnUgvSNVogaP2H
7Wff/QJ1KvSM3t7H90j4Y/y1z/d0UBFTJsGPZx3qCwWyn+3M2omnYN9jcNNxK+bK
VM3IQcKDqMiK02AT4LgOFLt90C7MSQC1hELc2P5SlHQ+y4qP8AL54qulFgalwuGr
h5jHLXge1FVUkdlLmyh78lHVW4msj/Dgr+bvGVaEgi6Ete+r17gSosv35Vdy8nQ3
Zw3hiVRwpPBlyR5Xv1RcMn66kWprQrK091MmhYypXvFwxPqx7XL5jSVpVBlN1Iz9
HeOW3ueBGOcAGccpEGlXs7f3SX3vfMdQQxvqYl7SRZVT1tOyJ+RUeJNUap+c9N0Z
MoLTy54QIoAHWb6gn3psS9BH99z3Zl5f5ExJ4arkAkdgdgvVIa4euoGTg9OdtTh5
mcJ97v4GE6QF54YtgZ57qoEdwehhAwYyXTSdyXbBnGLrEf2Ae7hufjlKIDCioBXW
0PtUCorOXaqfNrcmKp3jvEZCRqsAK4YiFpW0iVVROhDHNYx3XrSKAadkB4kHcEfy
kzdbbO7l0LnEgyI39TCp2c6zbHYaO3XOMirTXd9o648gb5hbzp1pAWyoyHrcz53d
UuQoG2LZYPX2cP3na3TrzzbFUjVKmlYMXf1ruZc64E1Ov0aSrFhc9YASxQPeymDO
h/nY6g76g7vZj3jn2pABc1mPsBUN8jBRq//zPq9CFAg/T+SfAkfEOx5jyIZefPRA
E18A9yk5e0G+BwuTGBR6aqpAdAxZvPjA18CzQyj5+W7iZXVxe0yt82q5AfOsDU1f
2IjTzaEyG3WvCThOn4l5srOLxSEH/W+V76A6YvmX+B2yfNyv++8Ov1h0iJNOhEC9
aDWnkOCHs1UdGtpnDcys6DDPQNMh3/X87titFRthLTABzyv8XJOeXzkaUcwy0OHD
Acd2sr0aLPR+V/3VvE5fDczPHXI2F45eYfUCmEESUDbNQBZCmEHDqGzKYNtOobL9
wL3NKQaVf5lrobCcqNzjF1I92/3GoZk8EXwYKD4xBqeAdLAKkCA/eQrTBG4ya/xE
cX0P83b4YG/y+pFa41zYDJ39OzLqA931ZFrq5mH3Sxs89LttWX0oa2P02axVXYJ8
Ev17Ml3en1pr0UlysbtAG5hXNhiaDb/OrgjZrAgjDKoiUtmvNXD4rkpJDekgdNq1
aRgNlmoU1y95IMoIpp59AkTCF5rXIRIvMl/HJIP9UKW/Irvy+CiaKpKRAqtE78je
B1vVKeS7IMi6y3fOXRVnfnAGVErrYVjw4qFpIcX4U06caUGlbYi3dfU8rA9e8td+
dprdUC+IIG365t4c9l+mqj+ADlBsmbypVXOyPY0lS4c6bGYJL2tYgsm9NOZHNNoX
vyQ0R4PmFAaxftnTyWXPbLsLp/+KtsK/JjO+c8qPYCEpLAZJpVoyNpSTm8t1nASQ
yQ1HQbQbradQwdGZfu39p8+n6dcfpA6pRlDKIbm51YPUp1+ZinaL1gh0cQMSnrAD
s7hM+bkRmoGZDW10ILuLhswMCHdDWkbfsAyw8smJNiowIF59zHuPZH6S9nFIEOc/
Rde6V/71tu30L2DipxfOOMN1Qrzxs4j0eiLpVK6OsuYvXzztZ+4JEi3cWCOzYD6z
04DdNGs8bKX4vF2z0MXyczY52zhC4u/52+DE9bKFvcYgt+29+0RU80UXcd2MJVlX
7fY2mrEQ/B03gw3Er8OEfqSAOn4WdEumYNn+zP68iKSTv4h5J9pla+/uH6yGRwug
kOGAIslP/UiECvOx0f467nz4GwzJyAd9UlcyAA21B1A8HF8wE1DMs6p/2dc1WQOk
nzGUT3679rRt8W2kz6gsggHBEBbBYwjxoy0FbC67SJIlZqGcJ//5eiacElEsqRtn
4yLxttqE5PUfkj1RBiTYdlmsXsTGWsxGHwdda6gt7RhTOysbmOzeYcDBXS1Lv4bq
jgB47r6cmlOE9Ywjx6KXAb+Qk8zCMi5cAnXipNRy2XKnFRzrAh+qw44H0R4xBKDx
ppc1oRyd3f1Iqu19mBG0nXgwSqkEon9+S5DK8/mjBot9xg+jFs+rQcWIrntn1W3c
5W9QWKhOnVo8GU2zmx7k7NWWjlGNMrP2buys6iIE8MfT8mT+wXc8T1MhGjptSyP9
1HjXZDF4B4rnAz7EeupKEs9eAy8o6VwqjEUcuIp5tsWWywsKdRG7NPHMR+T8X/PZ
HUNZFFO+EvzcWzqJYHkRV1ZHevXKiEQzS2NpXjeyB0eM/1epq5agxK7LkRxhYdZA
6n5C48JeUGqcGP/KqkNK/CE2+v8QU1gxJXDv8ulJY8FhrSGtl3ACebhPwtk5knfx
FDRcaD7tszzxtY2+lWI5sAmVSVOXlE5CtQYBFhEA+u0W+KYlU987NyCzjFC5vsPt
EiUqT+XC9lNlkuskiWr/kUAjqhHSMIzF8r+rKVbvV6z5oU4J5N+y/gKlMbgDpZIk
z0UfReTsH7+EZLlkUUzSGX/QVhERgQZoH6WNvdheimLZNXJ0LmNMwXznW8CG9KO3
UN8TY/kuy/YGFFAOb6/c/VKwS3m4dwFG+m9qiAuFvp+R5DpCocjOQyMFfeFPBO7Q
QcP7YGMCzAV7iwLhLkS7suRV6/yUqYD2iDlQ+4zWpzKSH5ZU7YS5nf0XWn+C3zi+
foLhuirpLtKdakBWZtyo50AuGPtsUVzSZ9AwUPrU9UqLX7LlFfJzLLgtO1WZaxmx
pK+geRmSoAOPPEmrME3gY9yeYJ/Xo2JAWfKa2HvpJff2kLg6NOAJL1rpxuf3Ii6l
SyFilqCX1I0zALIGA6M89nFa1FNe0zfJQCjbmkDjAyqCvrEvgsWuE9dHblxf6MWM
Wr1QRNdRZuz5SqPak0G2SrpuIPiUjV8FPt7vWomadsJxu5u9+8BaBw8icJDa6kFV
XtvrMroWgF9vSlbvSug/gmBEdB34Jow2pOZWVYF7VAiT8iBUuFs76faU33sx/O2/
M57IPg8nwLOho2Stiq2hW8Fm9Rp1bwL8EQ34ignwa0eEgsiiUAkUDOhrpu6lcXWn
aoJ+Av5jYyCApY77K9v7DcyniMhXwbXSoxqcg3axRp3LoY6N2JafvMoOumYvreMn
fqMtFC9SWlOU19kjfdnpuxs7MDwVsnwl7pxhXq+Rs7szFvfvQZP124ko1uWGvewm
u86kFxDzh4BlqzBU8RovbVsHBQQv7OMvxNBZjRj4vuIR2Der1gfwdxfuHEOAZFU3
3ooKk0MNHg+uW9UekwbuUyN3lQIubi/VgdS1DK7PnOgvSXh5UoM62h6TzXrHVrDw
9cDE9341ooiipFwUlx37n8T3XwpAnyEZUIxWGziY3b4+/HNU9wTT/UXg0xwH4fHb
0E5gQPXfbQzLiRdOiEJ8AfxZUw4+UYQE769/TRkJzGP0fk+wceW2BF0UrPBI/BlH
NdIUkiJ4qJid2ew40zIDMc7eEgDi+HR6brSR/p7yU9skAOe+/4lE3hJJlfSaoE0x
NiZF1mNIgfW+PeBIlMBP6Pukf7fDU049Q6NhRFlbFyXTM8GmnYEvQNHA3ACk3Vlv
wb0WZjtgHM1yuhwF0z/rtRZfboCNIMNQ0zxLLCc6bIXhpVSB1HW9SHoh0nny4drC
tlP2DP3o8HtKTUyPdroD4ljl4SSyuT2ohYSeASn4i09+WXUm/K5007ASBpXyE7as
qqIEyGtDoqeZijpqw/FUKYyup+U1hiLjboiOLyEhFR9drB5eBX6yeAYEgUFd3lI1
w1/4f689F4YowBy9ekeV0t49SJVMHCQxwO1ToDpVY9cpQy3SorJLjnlNXLWUTuoL
LqFPinLfYnctU36QjzcubGEtV4+d/iylce1APqUBB2mYKrm6Ewxgc1S4Xoa4F4mR
YusG9ZSH64iGnbRL1m0qRXNetZAEmaIS0n3jQny/MQ1bdFn8T8b1fpObvxcA4OFX
JfriBeMEFTrJg9efbfogM8d/1W+MZ8pAgO9z/DwvJYuscfKzHQvLoMhH+Y/ym8Kk
xgADwmEJdrkg2IkbfAG+zY8iHaZVHohDBnHX+B+O9hpuGlN5K4C3dKtciFpyICKo
ye5yV7efNkAjBTp3T++Cx0lLlTnjXOJb6qCXW1LH4JurmJ9laThUZ7b/YDTXCm56
ag/vkz+Hhm7HV7aJ+TS/d0IxZMFSzGy19CoQVxH+ZjRNwkAvXfZt52aXa5rSOlFx
IIuxUZQJJBvEVeIgs6KptGKEOvqMNaSodF7bPuL9AbVzQc5YVgIjMxjeOxewzoDv
pOEMcd/Y4c22NVFJGa2T5rAfBXeqqx4QIf+qLkptlsm2LZwxNSou0LP9czWsGz/7
PzaDT/YPUNUPK410PJcg/u249mIuMdSnnNzjCoa2K3pzaFhlP0e1G7GzNSDWp2e3
guZ9XwzaUOyHIeHcL1oHUO6x6yq4hEzn7H6etIncSEMkzK1+apGolisT6MwvODFe
6oEu92HX4yDrUAm/Y/aBEiodkgacT9NoxUAQ99L4uYQ+/JWVPgFk/24g3QjyuMDd
5jV0+zYbP567DG3XYwhyCzyM+vvARfbHfEqgfSTGq2kpv+b311xynbMEu7et6AY+
kYY1375tGG3CE40PNXdxln57VDLq/2/W6CXJWOIGUCk8onbe0OhVD1igDsKxp9EK
BNskVScIKNmSkrux8gv/p1Z8YX5iqD16mum89z8Ax+6E1Kz9B1lYMBxt55m5drZt
Z/4WeSL1wu64JD1338EsMWCaKb7MAqfsR6MlJ4hlJbtoP2/6k+6LbSJSArB1XHJM
RKqiXAXXjIl6Jvb6D0HabbGEIxEaJocHxoXIVqNFgtOGnauNTubaC5/K6kkOg+fT
kuPNmQnWDCwooGqc7QMxaIIwYnKyKHsXRfpdH34R+pogA4ZZykfcAEoURfUVoujH
Ea9sVQCWrcoIKR602FKVtQB0SB2BP0iwCNKc5oVeRahHNI+OYpHiXQ8GeFy/H7pt
rna5eL81XrXTUE1jzKFoWamavRm0szOrwyAA4a2fz4CKqOkS8z+hUianUpMz9IYg
LqbI8wKkuRl6mxLesxCqhuZg93L850d59YE3OTPVJJmEI3YwRG5aUlMQ2ZB6C0hj
5HA7zberZOtKT2pDGXFvqKek5alT80pYFSQQoB23KUhghRHGHM5faoQZ6Pfbus0I
3lTqZiKJvOWzZZKSI1QrEDc96O4nINhgoKysNbczbPdP9MX/0QfjsKgsWds1LlFw
OMRQiBUTBac6gYpWBZj/qElNWsPGPbTtreaDxp3Hms5hSlTWIsFFOkef/80Kz2+8
HIeBz60TQZk+2vUefouG84556NQDxcKAzqNkf0Dk1SR9NvgLGqqXwYBrBFF0zOa/
JWLV4eoetmYW1maU2+MS5I3ZPYqQc+cu9tyo9xjE9q5VdTyNsRzGiamY6CggoNCc
Ef9FnQ1RYeG/LlywLvgWtql+6s0mMmptN0MFRgw0CWftr5kKVQ7ViDXBoZoOorna
acjruj463dBRG6yPMETTNbOEM4h837Zged+bc/QDULKVQmq636KOKumApSOh1qR5
zbmtRQ/PjVjGx+FTPyGm1FAeyJpKlxHn0FTLSFK3l/DLhrGNBvA0QEQKrlOaJxHV
y1MAdvoLn2ciMY8g38Lz4uAlfvt7wQejlhle0iSN4Br8NVD27EeHY3NEHRY5Osgn
NCa5J6RVD22laH0NcWI/QbhH3/QHcPdyqKYnoV28bodWRi0le3R3tS35s9WzGp7D
FJEDfgxm/sDNMiLQh3mJaNAT4+/EWe5Jg7hYboNNQbtj0cSqdilFY59o28RYhHmC
dFyIBj9xAchPBp2thedHY8MhA2ppLiVf38C6yk8HAEPcq2H1WKMCeAwiqS6y3Nsk
QEwyXWOuk1M4eRGOmr+5XuSU0mEGf0wDaIRM9kvCsfjgXFnuvvWk93tXTsusBQok
wdUOxuXXCQSuHcme5bQniLgCa8fXVmcTLQuv9jzlk9hrsSiF8US8dqT8XhNw9Lvc
LjdO9MR8RvtGl0shm0Lp6U2da5Q7ur0qHSzNdS3MM+8rG5Lr00SDykBWscGdHD8e
0tvaqN7yvaoHRyuwNqgGalbZa9cWg41rlctAK1kVMI5GfbFLzH4P8fXC8huFab7m
PBNAl1ExC2Xwn5K4mU0P5F9BChEoBR+n8oZEU8QCsmXVECphNSC7LilhqC7KC5K6
2XInKLFbRBAsWQz/zRTiEBmtewHbYncRi6QpqZp1omvDsPjUPsiUzxl8I609NZCY
pP3wtD52glOxAChzYrDQUVVKREz/y50TLrCCO+K6417BuqqpPcrYZ1BrtjUI2Ap3
YlEQZIwf87YYP3EwpFMs52NmHyQeTGlPAKpGVDVPN43wwGejohskY1YinQyMu6kK
zEcGT+i8OM5lKIxyrcjK7nuzMP3un78iEy/1oHyHOSdHf/0dScJs/qb3FaTKKZDj
mPxSoTozgFs6MDNYyxSjflavohr19FVDwzJRTLtpaN79B+oAZlgtN5fjPoV5SHM8
AIVhxqaKVpteYDloCbvEbOAiJ5OoA/SiLRMf9dc2MGcoB4qgz1GhrEbFd+TmB2f1
/xnPIPTV0rTY1CDPe37PoL0cPj3fMyk5nxikPazpPvc02B6CAyLtPqI3rPFxCeaO
faP8GlphmBBdWbpbh8LNmayPDimq+UAt6fcFMtJXvi6uGoSbbD6+z3hf7mZ9LgwN
PC1v2SPo80u+jt05Grm/fll3ou2pHXIHhMWXYz7e4WHjd6iTNEWGx0KdqOsg47FQ
RZNxd/ngb4vIbnapB7ixKwz3wI/QymttD/7+pDejpaUCLZqAutl5jiwRcY+SOgXr
q7WK0k6/WcFe+N2TtCns4DvIfW3ztabvXh7GzfgvRzpNbh0zYl9Odw65Rjg5nJPd
VoXZkayc7VnnhWvegP/l1ew2U7kiJWDNAxHB6Ms0ztH5NzzoEjEBH/hPQGooqkzE
k1wzFwmKrtV5dHOdNe7yXYkDbkNWjzLLUpq2Z97T3qbJeJgK7AFn3qS4yFE39Ply
0w//5NQG84+3o+dQ835TyQ4kaRdjoJupDyesm8UNQYGgpTYkE/KF9oNB/REm5vqQ
T2bLP9v21UPtKuH4TQnLxxXUy45DvLe/TLH3td565PZbj65QLpqdBx9nt62VWSqn
hM+AS4jmMsRcakyk1ULKQZRS1PnR9itDTu8pHyCjMAQEUKB0uTww1q7MffX0A+HT
gT6kzDlVcP2Vi3JaB6VowOW/XxLAKmNdASszR/NMxwiLhvCo6kMSTfHvbWz3NMaW
HrtgXsRQgK+pNZ0Pu0cwZVOgbw+XrZwfVClAne8IFjjcmfHwdLG1koLc3IDpWdzY
Bbi8u7XFnf+lrMRy01BZPdsiK3BDQEYFCFn7kPNpIV78UFUGxRW85ktlz2yQt7r+
j1VdsIA45tZpJduyRhSfOpuLl2w0TsDXwAMBd6Ng020NcnQof00YxQ1NAlBnhZ6W
AKWM7SBCKLzK+FUWSPg/819NSlVSbE/8ZAx3Nq90OPCENxNqinEtnDZOaT2abSVw
5P+dk/POgrnL3pyprC+xSGdAJFtBR+XXBzIaqnkkPWX+xcLzplsvKKxPRfWg9xpI
11xUHXCu5J451YK9CLaak/oXMygNALnNfDguJ1KcVkqDhUJYv7npAIjPFDSuOcFa
CjwZ0/YVgkg8I1AdaINDE1WEpH726wgr3ryb+oNxH53cfa965KDg1cdvwXHbqXGM
icEFkyQAMOEOyTMgVMBTrL9NoYElq5fpjXF4Ex18GLB+K9kfjh0U3iDddg5Wcd+U
QdEp0JjBnHGApsEJ74s3G4WsdQnyR5JiS6gu1EwuLJL9AXdhMsj8fkLJ1bRasbPb
puWBt6VLNoM4VW+2RcV6pOFSaWgM1ExPhV99aSpoB6kS2hCZsvlVIMK7eisWmcZr
332MUflOZjQaXRbrx+TzjTRXBViJeRzV0Cjdze6hjM9qTW3fRFhEu+rzci+rAYzN
WFBPBEyQo8qVrrGQf3xmhbOMtI1N3p239Ir4o5yZGGmLWwDm4t/ZG9dImgsvsTTl
sNnVwI6f7kZ0oEyt8XdXaTRzZG/FlH2Z6+lKn/iyldhEuqg6Rua9qq9j0mcHGIdL
IZOHol2YYWv0rYE2GYx9nN6814+ANh+VxftCvAknb+T5NUu9kAP+Du4+du81ZNIU
0Gnxf+m6E7JmNHYRbhN0Ca5oBWdPZR7EzRkLoGDcsM0jOBdzpO4TDsCO/Ct5vhWi
BmdpmhiYmZoUNWQ5y+kJqq+tYif/kHaAOuaxvUREpnrXiqfTtsKzDZuLiftyTpdf
velAZPwk6EQ9IKG3i8WGH04JvMLiKvcwugjpcRoYaLGwN7gYaezzzg8CRTwM9DdO
ViDtZvBGsbXmX3VdeuVZzmwYCRRSRvkH0EeBS7JC7Ihp8HTGF9b7Jv6swC//I9Ix
KFJAcFEcFoOfEOU8W/DEgAB3CcC65xYjWOPhcMr66D5p+FWJ97hn5uoAp4MBUjXa
ErowsipJITPxBHLDDezxBqVew077c+nFtGSmy0rkIDJvVFkGGY7/OyvM1vNA088N
++ZNr1fesYF2WT4sYru+yl7AKsqpyFM8HB5kupRiEutncQ9N6uPlBOneKFIc9Yiw
VKcOsa+2wHwJ0KA2naAsyKrdKr6UUaMuIcOXbk7HNyuSgNrfWoEZCypz5XPVo32z
wO+t8RnA/Yg8BtR41zkN1UOcEM3C/q9tewrXaE0IDwRB9cGPJRpJ4j5oaatShZPO
ZSvsA9UoQKSR49Ww5ApfC+w32DNxquDIHhYHX3/PISyxpE71EFB7evfkuRTW9uTm
PgaYGjDnePU3wi/eayEyQe38zhC8f1SjPC4By4KDEoEUvHvVMj0w0lj3kP8FzdMv
TEq8HKbZdMZB+G9U9yWvzMwjokvmOXlAHe2Jz06qAlaRISi8N12jA5WGxkzbSKQJ
y1hKFtHU205uDqQDogCftbqjQjU5p35F7NgFzdTgMPT4fhTUeIQTjxVpN6Sn9bJA
K9YjLxPducgv90XjQDkLtOjftCOz+TN3fkmT2Gv6iFX9qYVZ6yYZGThYv4z2Ux4P
WAXU4rnSIDAo60nglkwmve1bd1+e1XvBmkfnxnHuxEeMgRC7HrEbtpBviU8e0Gsr
k21WIRTEy1hnQR7D0UDUHEQJ68wJJxlpAoiMpouwd27pn4wByaNCLu0q0fPtFFrP
z03c70GHbvfOMHBPKQcXOCJMAmCaETYJawTXmIdzCa662h/kjG7XNDfnQeNUHwv3
ieUdWSeTeiFJVq71xXux1JgDT9XLGst1LELWIg0HwUNwBleteZHXnQp3xC6a0722
sGUszmcq2jq7X33VpoIKaM0tIOoE1yLM1H9Bf2+T4Shtve+l7p4wYBWNiU3QqEnw
3/iD/fEW8CN2hnoTurqTBjtpDfqLPSQkTcwnS9cFwN8FtLOa6V6qnCAgEAPTJPn3
6MHdhKA5FHlUMcfr5UKEC1gtSr1SCC+9Sjpg3unHXQkhMghlmeyb5pl2vZNPF3/X
uYKhesF0wlDRCN4LOyXylmUcTSRd3WhvNlazLMcW3KaojJad4YeOfNHSGVwgn+j7
89nyGmosH9UH/4qH/H1awBN3q2yWAib1UQgerayB7JUti0KkUnAqX11tGIQqCIL6
ECEiQCIJz5BtCEwo5TluM4myC0SWgxlz8iJcdQwlM+gINhX3B1EniY8AkyXoqPwS
ZoMDcREYf7yikgWe9bja2xAf9h5KdWFsBjnTUb2BsviNlkjS05AphBeGFX5cq9h8
vj8Dp6hCwJIBJ7ULTSX+jis+cQ7lW4aWHWNxRh7MujcbuIfJhgPM7tH4wp84UyKc
15CbX9+4WoNvZsc/V3Y2BnZb14ikJ7iNlFl7pvXQYtB+jRbrOhk8HVY0c3vyMEJz
WZ7Nc7ioxH6hb5Q5AVyPVhijGaawUMrs5qjAA6XS93HRu5cHaes8BUw7L2e2615I
NKSAVo21XZGefUpkNU1uTkdevhNH/jgq0McLlzNlRa55fI50lXdq6pq6iXFGkg9R
G5hztJyhXVgWHcwYkcZXupYijq+SQO2R0zogeDIl+Je4l3cp0rLwkG1jox3md8uC
J8iy4ureiK1xYUSHGmM4/Sz2WrSSM7S5ZhJZVsGOKh9W8CiP+zCwRcu1wA3BGP5q
Df7MJPLiVSnlv62+Pe8QL6AOGQwQRwZGXzD+u718/7gfoMk11jUgJ5xdoMqKEtmj
T72L/3PDMxSKQzC9SsaaUhZcpNSQpIrGKKpeATWeoM12WJ8JvGjxc/8sv0JIEBsb
re1WdDFOb5O1fVP92hZSJegJ4INnhl9lXDBPZNyRgsYzCfVhcpG2dogB8Glcaqkf
GC0hN+biYxnli7wIXq/irqohwufgkptWPTpUwc2Z2d6LlJKcGWU8E26kkaGFqdSV
6Fx/EbvSGg0uMHus5DxOGO2ZxPmlZIgl/ggDaDweeooVYwOiuJpLRiW9t2fPFFgC
3yU1jua7fyETijnR1e4IwPo8IZlKEb3wIFrYEWIB8PTlFYvOdoRHUKF3nRio/5U/
E4fL12mhwSZCr2Vy3pJAfZA/jRzKBAeoh8scTncQ/cYYJ1jmZ3XtR4hV6NQPU2Fw
oUmbVLGJ77YcOgROEqA2qw4ycuiLUNDUg9Jjaqi/A6PzaHY6CI2EPSl7DUti1XHS
9kAxel2dPmmCAukQCRW5d588NT8B5O10pBxUSeZXZ/FrzB57pPhG5bmcnEaEQh1W
988kFeREJLwR/zH/OfR/F616HwY5HeQZ1cZzgEtzUxjRoDvEIriMHbpLh+UEfdUx
zjOXsxPIuYAia1F975aXV0SSqDTyyCdYZbY3T7FYDPvdzgLhypwYlSJfhunNcN7x
KXMCUu1Sn5IHBuB7IQt1K7ryiFJ1Y0tQdOt6Nx6Ywv6hfyfAvl7KXjz2cVDEAF6b
SXAoqrrrU+yH/sKlwX27UScyibkm75biQQ+ZVgYh8lxPKeiWHnJfVGaAheRrtzMA
EqemkaiPc3F8i6oNMRPF7DQNqYc2onTvX/R+KUzWXmA9lyv2fkTbGfYWHAbCWYnf
kZsNSwClGccrEzRJKC0UHedl+Nbk3YLSPEHAJHxhlkj+GIhvlqZStSglhaYRqOTe
d552xd8gdZmAX8MJrhytNony9uOty9Ct3DZ0IoMz0Jys8MovHCKYDbIHIORlB+r+
LSlh3OW9p/+qhAgVpD56repPwvHrtm3JwT+h1GHPsLOFIwU/ChJMYUreP6bCVbzF
YNefR2BT6Op397uNRSZ3T3yjwGbd1FMLzzT7yIb03T4BFwAR8Wh9XJmFR0nHRHKZ
8cNCWxPFKpmTFlN0pgEuQGpAL/1bJEX5EmdBl2L8PXMMpfHkCZU30qp6QGDtP0LH
c3lWW2cvm5k9hGQm6M6egudoY/dPKukpQ1tJM1Ra1N4rfFzXUEWQxvh+39XKyVkC
38XHJlyfixZ29dxtEXyGiMTMgj8VNOMatEDYsIUwZl5rXRQweoVwSIuvMHfYAgzk
1ARv8wk0qfCEyTdYY03cIbi39klieuVLAi3yZLYNS7GlkiFczZgsIVVsWt/JVKtO
lm1RnycJpzyTdUrgfz5b1tSHHHRQZPi0gi3cCJEYVxax5n9gIHTK8iu2NOTPVkav
mhdHXgEIcZVivCQjqr4zNrlB0beMmQmk2dzX2tpjDQLGldZUFx+5XwiAH3ZCns/F
5/6CzYv04PIzScaHQXRfMpgWQEpHUNCmYSIcHxH9ipes7zfl7fw7M1KXOuUZ8QRp
hW9eRWMuhIWYQv8WsCvi9AxnMdEoPexDZgkCRfpoXqvjXxGrtt/cBA829bjt+uVq
9szQ6IfH9Xgr2cHnhAZn3MiQwyoPo5QfTNjuPYwQPePh+gtZfVIlEkFdvjVZkZwE
U4w6a3h6dORhylrz5CaRPJ0ixCSETxS+lmmbCmnN7Qxxhrv6QE6fl8uy0V4/knQZ
ibXslCReT+yEAVqKVgGpwsThK91TgPT2Uw8V33qJTAlDeivsZ4N8V2rmsd5+r1PS
BsjYnHOuFfarrtvfzXdwvzjyu+9ILLqRLJLJ1dLgKDVjIVBjo+ltZ+cyleRxgaSN
gbPx7v/+KRZt0/iHflPz9YSBX1srReNSqz66P7+GNtVV46vILBleAfm4cm/mMDCE
nJHusGDK3oOof1uNL8nsMjWdeTO7HhKVg4v0sTjCbMSgmIE1TzqhdYULNK1PDRHL
PUN5Us4KefirgPh5N3JcyVhjsHEeVy5q4wrxm1sCcEhFZeCZo2Sx5pBWhYmtZFZS
V+/kr4VPw2y9lXKSIIhw5JIZxXY9RLVtMJR45yR8OpY4AdAYbGj/lfaSMeg4h0b7
2BDtzMj0B9Aqphb9WrDLz9Cl5wwL+tSE5BtF5E1lqV5nAiowLbw+bPituPsO8Vv6
Qa0iBG/62p3YKSY/xhVRMbflCaidOPESsZsW3vHoZB6Sz47G/1bdwJo3X7wfjWXp
2QbBZZYy7dCxKANEWbrAFHqbrviK+RXfYKp5c1LBxuaF6wucYEkzv2nfF/bW48+8
0ZS68BXUlYZ9VK9bMCLeTR9F9eoZLTiohM5+ze/SoGqxXFtmS9bif7arlD5JH48U
n78Ip4WhAh3RxzF4coj1K4DIGy09v1XFHCRmGGqUE8knyW4QIJUvb/vtBlk957Gc
ZA7GxUE4bn2mRS63o5fvZmTMtAjoKK01NGPJNLs+qAQ3NqXbmkXlrNUwBC2MkKxw
q1BZbRFTqY62NG1NoWIGNCxmIeky7oKzeZSBRxe4WKVozTogJxAsJCipHGsOi5x9
6FrjgoTA7leUFTT81VoPPuDnMCVNOHYBxNEIMRKR0IKcTNsOoxPLkd3cLTVKXR9S
LX1083tgYs3N4zIw5iWjlNeCGiZb5UNPM5igehzRqQO7KoXYciILGMQIUI+Ywx1Q
EjkqMjapO7/33cAA+B+ZyPfRTtbttvoh5BBOyRKYnHr6tPa1JL7TV2aYDlQoM4Bu
MvYFewRBhrx+dZVrvBCNFJKWZRovs04xT1gzTs512vWY7cxFh2lt5FBJN8NgtYUG
56wtiJCgO3eRLSiUt/HIqdFfn7dPd16j3nUd9liJ45CkSyvPA1P8cT+CYZLHHF6n
5MXsSSTW6Jk16z/iPz1P3kyca0g2D1sTuvgOn4s+LP2qstaIrbliBHkmWMuHM81I
0OqIk93vf+3VHrF/ug2VbvVEn+zOai+SEyT6YN7aXDKKtFZCm0Ovp093Ptvl8F2T
9BH1ssRu2Redgz/3WwRrv7tdbAzdUMYR7hAA4Ju3QmtMSzenatA+X/Ztbrb2wfWi
HKCBNTHJd7u0UOLy+FlnAHRKPXFMxoOPfLLBo7vg7qFIYwN50lfAcRox2mONgdXr
HW1X6UFuqS5HoPgTwuVDiqCs7WEDtvsKYQcmBCIpaf8zD6EtG9JU1kqsX62YmfAN
IBioznfS86h0kLVwDDs/t0oZPahOx16IilNntQdkibJevoL1KosZgJ5zvWK45VmX
KhL/5+onZc1bm4hDwtapvNHcvSDOD5YjXmlg9kDdCFdZ2OOvTNFgZb8TCcPPjSpg
0P0Z0sDQRL4kGPB4dDTjSGHfMNBFO/jSNU1k28SvuzjD+puGgunrtnqlX9mWJKXV
9ivvcxt01x/RtoQeVz/hYRYYVEET2l9uH3XK4pzHYwLbTqYl6V7xYrri3/59nsxA
iGbgJiw6IC+6lTb4AT+z1VqaFufIWHDgZovEh+7/PWVp7K/KsW6MQTFq4m3RW/sX
8rhJc46YaVBoa7UCCgIIv4IItkrlWt5IKcTo5aO0nrawSlLANf8LQG2WjIbaK9WG
+uLncMsJDe+7kABoyReUUnPqoy1pYwa6Bvu85h1ZE4rdwM4KoLyU0dEyQACG+bwB
VvzMH2PsDY8IeyPftIfzn/x/3lNFLZCLPre3ZPNN3juw9ZLDd0/xtvRgVEP+pV0g
uGMCnB3zAY5G3VJ2HiPLMDiceKj5oUAsBSQlbKrWWC9tMWsxPcz/T9EQNIH0UOiq
vS+eQj9YN/aNLWStTHPT0+33m3XBaR3xKqttO8Ptf5wai1drDFabvOKwvzSMoWCf
FvhcHsGwFhICn5vPv4qnRx0QNMBuc8ZosGIVGjOh64SXLvgauCIlgelNgFfND9vf
0h9OXzk160RBTHzHsZChFsD/Fz4okXgA7Brc8MrBGjBrY6FRdIRXxzTKlNUikQeL
yJV+VUjQpMpkHPaJ4BTbvAIJ2jC9kpU9KkbsvGJUzpDglMcaXz+L42g7dA/gjKaO
+GOTqtmVNCcICMJt5y47XSTvr8ioOrGOzWnpEMY11Sw693bfNeUSLCh9oIUtopJ0
8NnrE3S0vQivpHlbrQaxmYz5695Y79Cq43l/7aNb4B9Ku7wDE6uRL/B6gQJyWi/w
KsJwIZrDiBN+AfWKEpKOJ+YQbLadq0GQhNRL0NXuZ8/jQDghM4HXY6b+yVoo2ESc
Ivv/FAzM003gngmMbeZZ//jDoIrA3RyjrANi6gWkkoYPOrNzIyWGqoYC8PnsdajD
qykWQwXPXYpRQIskKuxLYv9XmyheFN6s0TQ44EaDOcUvUUl5xofKh00jK7tFeS6m
7El8loUFKnFbsTn+x66ADMZO4/SeMrUKvhg8jx+DU86coO1Uz9pMfimIryefA44W
34PbiBx4M/ofNpBmPym/e3NO9DEnlMhLiYE4iCtjos0klVnEBV19j1BOgiCjTyTh
elVeHb3Dbc1iTtqplQkUCsQHtt0GP0W1h2TVVsIsopT8FTmXYNuQB9/L63SwSatg
Asd0GltEO2v4PWGdyRj6GheodlhGIosTsdwaLX3xoTtGYWVR17JzNQ/xRiYBv7Fa
eFgShdEGWgy4Z2haJgytCg1OJ5/cOpkAAueC4ufZwiO1iEOOXirOGhl8rwwBZW0j
im31aiXaKnRX5b6kyV8y9BsB1ay84lWx/O3zkGRq5JZMfSavO6okbCTmXxlTCyvf
Wpbg6DqoNPr6VjCKnqyd2KQ3EMpWqCoH9nn0yhtNFvumn4JHfaftD/E5Gw0mOCc4
pAudjlnEwT3d11UXpNomPl6Ng8jJMz4qBDjMlSs5nZqTbFutU/MAp6CUZNEKyl1O
GujzfOS7tIgwgKi0luzH0ONXRQWZyUnQRhoeyNIpLjoDYitKZ1JoYze5V8EnxG6L
SakXm92O/jiumRxUwx2lkfpGL/r5n0GGTSlidUHu6HTCGay7bSzbMnWqucOXkrfP
57qo3EkUzjpmBG/qn2ALLAPEu/VcQxU7+0kEoDqU21uAibwUlLvl+XzfZ/aIPfvF
2Y1mIxk5ObBdbuV2Wl5gNVRgC+w4WoxUcmHfL8NzgVBK+QzViXxAmZkt7DJeNC6o
/q+2vq/0WWiZnF1gyQNRmLuCUQ/nOI8a09SAO+Cs6lWzwpxAfXHP2yYJgN/FREz3
VeU8Vp+B/Vh/daUXDvsWLqHDQTFhRU9evN+UBNO9TP+L0PzWFBBOrO42MGl6EyQh
Eig0nbvYYtKD5UCl4bjzjPT+t2QPNhInuszg1tuEmYfTbi/i0blibrhX5YFnn/O0
deuWhuLb1Ld6dl79UwZiaqNg/QkSOfOTscAlEfbcisuZdQiLf4MOoXGV1q7PPupq
UrjRdvbcHJcXsIvkWTZj/DdC9zLijiTtzAaEH3QarYzgO2vZdeiXi1DrAX0Qs/j6
kmoFthlBA6/AV4e+VYJ9goSu0jlQZRSZktWmoILIAaTR7gRJLqPuue/U+RatfXMU
kqygoiI7lJptm+GQfGpanuuPzaVag1t5ZzGU+JVa2iGK7HFpLyJ0LW6dcCZ7/HY4
WeCMHNLQsmXfr+kFeVZl41Y0JbeWijgRK0rcw+aUzMoE0UsOa1wwMIoRbnlDkL+k
cXLPEInT94VSgFbkB+xEPui4T20CxgitGQcoirIaX8LTrae/d2B0JhaidWNsL9l2
/yfGZKU130lB6mApCcaWTlTHOgDjr5nJTfcgzYtCFOBKDU48wFHSJVwmabXoBRA9
KMb0LIX68JHaDd1S39i0I/ycmkfJZzsNeU+Kcl4au4oBSoJ023cPQZmnMfkwX4ux
Ujvzx1DUuOMF4vkCR1weK14WncM1A4hNL4rPr8hXCN6tnyZbTh15uJkSprY9/SFc
SWIh2btRMnXybqeyQyAmlj3k95vP9QUzL+Myjp5Ncs0EVRTQ13Zp9mHLa3eyYX94
6Zv6o9c2SWx+wFl4P++P9osMposuVSrzOYgt9i8iozDQOXUk5Bt/PvTXZqr6PJYh
8rUktZsIhfg97UcRAjRE6Wd+OqAqqLzUlV84BQvm8zMszEoiEyjJWm2HFWOaqNxp
7US1NvfXf2Aaqc7uPZygFTSD2uEstO6bmB4RHXKgKVFHF0eW6Z9i20zZ9ImaCkR2
y5XjEC1ykbftp0WgN4wgUYjiewto6S4mq7rJSfA+BZtehhLJwv4dM1PePoEZQgp/
fUJISsnuKqASBJDr3QfPnrmRGYv8DKcY84Zuac3H2HJ2bGKuJ1lNjsfuwq4mTXCb
TTY8oW8lPPreAmV8EOwP07pjQfrk+M3h6rhKDK0a7AZDrxx1fclDo/kLNa82NIZz
GKzK6n7+IYw1OzzMTMvcTSVLF+4DT+hI/AnweMOHvOhTZHUDJQlwz2WUcQ1fAVAN
BMpS0HLg7DaO4yAnA8alBTD4Jr41v0ha9jCmwcBaSQ4zz/czlv63lZhYrs5ZWduU
7yrGcqQ+dZhKp7MuXgLUd/nf+vqHs0ld9N7O5JC4vo3GeKWwIDyZMnknbwWuFIIq
dtJ7Kg9uRzRveR4OyEasOI3i0Bn4cODmyNZzB30aDdNuhOhhsNVVBVIEklTSdJ1C
BHz9+Xw8jzvePGsWsVg/TmrMqzp6IGb3FZofi7388qHbJVBm5XdtQRZpcTKJyQhU
hc5HDOzTVvdNdbT4dJBhIzDOt04KirUOasqO1rpL1C65uB0djJKoaacGhhyDWLfa
BT+iYIAQMDpYOljZDH61LCHekWwSpv35X/DLqRpai5if2u5Ytzx+/bNybZll5ATh
X/miqBgDNpPB8W1brHi2DEkQief0F3li5JWO0v13Aaz43LRL/b+ym5bDw6u4utwq
VW629r+I2xIBRe08vH459A01/zOeD3L0qxeWPR7wB/Z9DU7ouTmK++JbMjc4ao7f
YKUrqE5dhUPKkd3w6BIqkHxMbTB8pfrvFLMmbPwXpXhEunIlRmI7UMHeObcfVSUn
ZwRfKUgjAqgAq4VivM6p7wEWU09LdE1e9cMVfSgZ86tzDMn3drVnIHzGgCq+Hobr
aB5f6kM65uAJ8xp/xNvU0+aii6TwLSm20ey+urAwVnnwsW+XPTA+G+KL+2ppomVU
mPHn4dXgMoKSpr/B6dnbx4cm5GRt6Ky5VwUGD3Bnrz9ObTte9wgc8rpRFtMiGh8o
+bd4amacMvCL0T8BcLaqSn23mAIk5ijQ73Az8zRt2kHyl7jgToGFaJOpu6ymuMdk
LJieid0bJP3LSbtJyCRnTfsDvKRhz+8I3iojghGMPF/hWvgazR2nxkxytfpo3SBz
gzj2gR+Fpi6ZIMYCfCTFzhHizlUg40bvVLOc6KN2buecjDWeWYvQpImxJ0MuYAaZ
aqvYFCO9Z/IhI0Eh5Nk6/JpBgEQHpTWnpZhGqjNDKEt/rzQn8c4I6aN0Mo9UA2dl
xG5rSNW4EpLgZv318SSvwilPiAThmm7bNildl4XbT2I9zXv/eZHG54gDgmh+pO7t
oBskBeGgSLukaPfczvWNsJz2WPKqMiHb6QQteYGsiFgMxWvouVBffQumsn+Uns7G
DvvUeX4c8X3ZyF+4ThDxZr2fPcvQcW8ZuQZEPUDfP1R9SmltlDhO4GLxDAuDpcO8
pJzY9bogEghGM66R4P6yZySAk7/fSzAXLAXwtiW7wPJa+lLZWd9q5wntBw2rrC+o
uu34Aes83ZMlpdyxWZz+QEgExBiauYjYARMm7OXkaKLmjpeoh+WX/5dzGtPB3p++
Pxei79Yt9HZZxhvSJmA89mi7dKU4/ApcOdyWiBvl5a4HDa0xjcr+3LMjinLObDHY
j1xe6oZYJiaXkNZzOOKbNxbSoyr5YEzCFL2h+IRsWZSQKBXKm+LXojBKS5e7HHzA
hZUGwyMxFOav561mrXxLmdwr0PaxbvGW/CwV+L8n/xV8TwZkNmNL01Jc3YJFqbqL
1CqY+nPq3K1hEjaT7HRjNEHJHRuY3YxyHdz/h/PBlIvZDEgbj1tnVssLxe7uxIms
IzQYdNbd6EVBIJY/b/WV96tLxf48eJZpIzeC+l2GWtMzfOpLwT/oGTIdvbUznepP
p9ZBpq3z+2fVwarSP3+AoKM2S60tkljP2YgBUKQJEkN+miQzM3rQhSmYah7szERZ
TVnbb3iBXmNrACG7CisWpr2W70hb4NLNF+JpZr1IygEYu4Hs8npsyttPEf/wL0bj
mvEJkAVvZJHNPvkAlLIbHnGFrhJTSo5SAfC+E7MY2YdcefEzEFmuT/QOrun0Oafq
46PGOFt4cBWpJ/HfHA7NykjxRnCFPqabXXp0aZNspItIxaO432l9BTmLxhe/zdZh
TTjvA9OUIRSwZhfGhPy1GQHDHbfgA1b0QfIOV6HX2crkh4uYEB6WjuRRZP6V7/Gs
eJgiuGmlmVEYs9FMWniCeHFvXuaSfBcBzfjBtnhg3iJ+mey0fCVygbMkTwmRN/Cd
FufNxa32YMzTpupOkIF8wr28aR3Ph0hjwzRLbbERJ6LaKz6rEw0hz3TBYkjqmmKi
LDe32q2PY0viNKJG8mgoptkEWC4mXpWbRBErQbTotAtD65plO0/DGIROprXjM1/I
YijO5G95rrhFi+chMHSlAgwfST4ux7u+jm8SPBnDZjO1l14WY4q5N+ag6R0nlagl
a4jy8zBF77ITEP+Gx7fYZODEcKsWhskG9hszr8QP6ABYME4IAJu1wMxazsgKUMCf
2KTp3tLxVtfTCiSwEYrjHV3/VftY8xDwKRMWIY0BxmK78O45wkcFGq8LRIDBY7Ma
RMcq0FVlweL3yioF1f7AzOzWJhUktWnVk5DTBCqgm+c5R9xdbyTlzMrBCL7uo0UR
ZOwZkqF6q+vgEAOPSQYi5QvuNTsEsGzExHuPVVaiMzB4TKW/JLW+WjNrG7hRb4Xg
9p/zr4e6olbqm444Dp9w9Md8q4JLGXV/2q0lgZEd6uP1eUJwSddFizvO2XfhjSAk
fECcSkquTx34XVWXf0yEh7j2BqNOl+ShAnrKgprz3gZfhGaXpHdq3QTYbOqSXgXk
Q1ZJwjRzS7NoU5I9rmW+XUZ3LD9JmN+Zl4oRSXEOhvUHYlvdl/uz5BEfwx2XXdNn
mdKg+1DcVuJG2CHPthfkmYfTuPAhYfk9XY2kS+YRvukYCBZpsuMIoRDgeEXLgUP0
za1Ba7KRbRlCs4TzH3h1eQSZ/pwLPtYd16AfGrAxm/TNwG+cC9hBs5F4uqc6gfhj
nAHR9ZoRDMQJ0t3Ibx8jpChRBjF082Qn3US7bwgnrlPBcvab8018QA1OAwLnx96B
hi/OH55UeItcV63r6yjlFITzD0bP73oVUcfaBtm6iCll+9MgNxDvxVn6w2h7gbOm
rEeGCF0B9t5NfjmcWmW81cWweaCv2dtxddzhB1EZ7O7W6kNED3XLOPROtFIra1G0
7PNV4KJ0AEhX2ZWVLWg/McByOr5SzIjXGe8Dq0M3ORgRr7TbEPASU0GgmQ5NHhGo
Yrxe5HdlVxX7rIqownYjpa12JT55yN9RsOCi6LEiCOXsVVnz6mjbNNina6KDH3yW
H3S0uPmKQGhGUJTYrEpJmzEfUFTF0/UHYNG9fha2cYkk7SRlvZuDUYjenOh91w9B
YdBaHabCGUHT4CJFEwshc6emHP+CAXXIpadk+DsirBSi4qBAMtf6/0tbt+w8ixoc
i4ufiCjl40/cNGMlC67IwqzsoRvFo9/2GWNXNd2CyxrJfnAfPwFV2VeLxEWAsBFg
++4UGNbO3DYRU+sha9UZFc4aMMNlnRP4nPM4/iuBFRmzCQpc6enHAs2JsOEAemDz
zuge1Uu+7n3f2aS0+k/bwZl002ZbMZTuxdOQxYVrNTjowXxVUk/zvL5DkYxxkSS8
LdOSliPY0igv2UvgzBqLLvPD1JYZC5aHi/8chRxw866Fl+VeWm/IyLVpLs1js365
iutVQsBEDy7Nf6K73aIAnMUNnEV7q8Rg93TyhwCWI9BbM/ind1AWAmIWAuge8dZ6
hHj53IkkuOLFQjsdu0Asb+t5giratNETOQkRmK1dKDqwTOliq3S0J7Vqiuj30h2b
ScXYJJ1iv1RPoqnWyfh42oPyqfNBbEiSuIR3+9006qD046bJdqdVCtuslhqKx+8w
6HTJ9trj7hnJd5uTl8jO7UdkjCcLzUtoRbVl4UNl+/vEYiHYj8134kOGUuveu9I8
lQZNvYP0+Sq9JfiSs0sbHkFLLcogz3O5xKgzyQ11QYvpPeebHslEvWgh7f/LEinS
lDumcD6EyNfsWnn354qg87TpNKGhQ0/v47Z0EYsQvwv1Xi1lWeIiiufFiHugnsN/
tPPn/ovwlT89pFtRG5KZgkmb1QOSDA1xCHs8dGjfzIm/8YA1AVlybXyqy+ca4ONf
pbvKjYP1IO+Wiq0NmS9L8vN+PW3N0tui+aduSrq6uOOkIukY8H75KxDJG9aEbYTW
9BEjhLLAVqUeg6D8EyyFWBeVcBz4eB1HhL2OZqji0icfvaZ1Dg4h/tT3wh9wVVi4
LS1xxm90w6IaLh1zRGCmp5tEolODojq5h8CEGkq0LRHMuw1DBYTzUPA8EzXsBdyu
ndkINMYuRDLTsB+DjubeJvGKFXUZYhvOW6FGxS1+MQ+7HE1awSiYekBFz6j/lClW
cLrKJjqzVUIVYfMDUjntKQR/1XXB6LdXeFZMal/jrcfYH7Oe2Viq6kQWTnPjgEg2
s8pb7jDPJMiiMDgLN6AyvS5CWTn9u+6L5DgEeGh8Mj/LG4gHVMPLs1zg2pIpL2DG
tQN03lT3ZVzFqgKeHgtFIA8lAxqGlF79EJY0vjnUqguph7pWDW8FeXFMB1s4XDV2
nh7FclfPlV0D5iokke+StNgkZLKGPIzHSab1hvGwLjlmjC5mgcdeviNCy6gERcKc
IBXVmPL5AH1hV8jHjzMe6RCJgFAKf4iX+UhH5DIAbbnc242LtThaLzCU+w+vNbsm
opyYrA19J6tvmhfnDF1gWsx7byvFVNXgNS82JwfITK8wLGBQWGSaoyVoMWOprkhx
tDq4XaVTxuGOxhaQS3ZQbdaNoVEDfUOXVCVg0tTph783TZrZLjgCj8tDrTRb2wdC
QuY4M2+uAKXKTA28u7foEewO3CwgHmodflxwhn509L7rBRTgyXhDbMpabPUnWzvK
f4QTbFfqLRB/bfWbXuut8YQVRsVrEmYgLISGRvIWIfi70GgstwTHxBXDos5MFtMw
fzHB2nhVUG5hvGEx770V786yxkOHGMVX4HiZILftB+pvj9oqoSZC/KhJxEJxmGf6
/EhJAeY6jbJF2NlkKekN3mX7DKTy69YuqHPWOG5HXDkSrpG3qr9/93RFiSJjXzmT
y9W8dCwbXd41fFzPMOe8xhDmfNjcQTvaa3XT7opcKAsAS7VJUhaQ4Ak7rXDRYrsO
HRCKzzxPJ7n/WZ09FOtSKEeCDkJReFp6QzCA/+FmtkAUjCqNJsE6pZJ5m8QxhBeh
2rDgUH2mIWLMFtGXOLEBXrffzP5sD2BFrVPb3C98l0CNkdTiRCn/Fcz8Ks004SCr
1BHfcAcEZExeKKwoB47+yjAqn0RsC28UxGu7WfZiKxqjuJL7nbt35qJGfg9SW9F9
yd8VkJzWocUumhcCnW28fcmBD8JeWbh7qCCGDBzceQq2k32plWf+9eM8rgH4TF0o
DBe6eqNsIUYgv9LfL04Vf+z4tH2z34o1dO8eODDsPTuGdLssMcVEguSGkavCIOTP
Al6DYZMwTq+NRqzJ5GfR04i0yHn2WQcyeTlEia7476v475ioo3Cr8SzXc1tnpwPd
eSsWsJUz4pUTYrA9neud14eNB/SZvVCSv0HoKvAFjHNwyw9Wj4SDYxKNTPVUr0Wk
CPIIXHc/av3ijphNur9ZkTgxi3xUxendHSkA3DtaLtL0ULvSV95rQv9M3aIBj9x4
jzEZcNDUBaYhvbik1SdngczgvJx2C4d1Bot+f6Z3VgrCzJSczGBfWlMKefKK9vZS
Vwe4NOaiqNisR3m+HHzCVKyHp6AW2M9iY2kuqLaPybUo8o0yvpkCIvzvyGkz3uWT
+it1stMmGk8v+1BzrGgOq/lja65ErwrLRarLaupbob8pmT0OFZuC8nyWFwZQFtNV
ZKDejpOqi9oM6DVrxbdgnHIMDkcmFjjQ2UxbN6ngGfLN+lhGlHyrkKWpfGvKSq+K
1Cdx5V2JodbCWkp3CkQ1ODaG0GrtpxkyAYi9AOmdTrpPceVxQOJ3QeNPY9BPwQ0S
aktvwQU8FmXAgVfEWj7+udtZyRJZ4QkKoaSSKLHAn1IZh0jW0dbGqijgO7Z9bRMl
owK7TV+VKFhsB4+AmoQ95HeuDXhMMdI8N5ZZLlWfNS99EptkCUW4bIvRpv0DiAgk
lbIjkNUWkUZ3qK4euS0Yk6OPsw1H1yjhDxl7tFU2n3jT743GoBRonJeY110eNtAr
PgZ9W5IGyErEcl7sY/MlZhyl84hYk4GSQTFYyN1U7WpwFLLQDB1PdiIby5JKG8ph
IN3yB3ntFVUth2m6aj8IrDXEuwwZXWGgIlIL+H+TTABWHL2xLA7Vd6AmIBRIlIle
ZTeuPI5qM/O+MXUlFslKXV2yy8X8y5DOqfX49Yed4Z6oVuLqe4LTxOq1ugA6w6qM
Y8RlpPGKhjueFaozbky3/FmcwFN5Kjt/aXJz3eALmXfgvJOcu4I5Rn414D9Y8OuU
vKYzF96MEPMKiHL29BXsev7+My+05KcwcvuaF3RTl9Ew8f7luZZMX4A6FAu7x/QR
JYI6ywamEe36/HTBME4Z8guGxceL7kun4KHMWjwOf7TQeG5RiQ4B0GffpLKaC8kw
l73zZOt7IWym/rV742rucxJFgkCzI3uhdB2L/k7/Iwkf+9OCwNSNNh0dVQVcwPjg
Q4036s9fUjLkha9NyQTe8P2OmgX/MEqoFz2vxik0ig/+HRimKrlbegMa+mgPAuyb
3uPDn94KKwHibaVXOmz3YYciZYCYJwH7KFkklsqLbNvDYVgUAEEhFkPBkL10ttyM
SQWTxRaNuEjys471BuO+69GRiKq68wT30skOql5CU9L8CTazHgGkRfQjpJ4bfSSa
07iRcE9hLgsKnKo8Zb5KEqjepezdhmRisNBamfZHJGKzVisv80XaBnbH5xhtiSpu
WBHH7oGRsFuukmY3iy3Kgt5H5wjftzSO1JkHe2IgMAZWWidfC1xY6ebmdNV7zCA4
aPeTQo7Kx0ahGya4MT7uuX7YJXV84oCqCm45S7DbLORpPFmMumuVMU7VUlS4bcbe
IGITSxOrB9FISoIR5afnDLBVebR8NUE6S87TkzzrVVEvity9uM25I3t8peY2A1CX
PczfhiXwJdzCXU6jCeYsxJgeq3mb8XRE3qc/YpXGdgCoLSzLtAs3pgF2y0+aeRro
5QLtf9olKpyHUbapZ1R2/N6lo3oF17b3VnTp3vMuA6sIc/B0/m54FFhhT0CMNqMf
5jlGuMHQnQ9k7NDz71kQ3luc5K1oszTP6GJKPqW/49tBaP2bIg8lDpsPGAapBSUE
UEyv95bWmLfiTipMbCy0nXwb7oPY8FxYfPtosY8u4KfddgebpZwrZXexDWThj+R1
vP9774iNBzDhiX3cQnCEIyH6HmqmC7IrHrMB9gOIH2tWc+FL4qxgJgKia4oqehQQ
gL6W8JicIJAZ3SUQGnmPWcj8FlUQ8tgT6OVCsjTBefxRYsKLMdp9oGfnh/dyEU3S
FVZ4BOem5nCr935/xIP++NnO3oDBdKs7d5GRIgbxtGiMUcmnd9dBaoDr7P90nXzh
/mI9gEKdhvqtOVmbjcCM7AuEmPzfFisH9171nOW4huTtT1vkat+kFA0i8n+cNU40
QB5aGgDZWpBJNdfZ/xJRoqQ6lSzEhLfxEj3bdUdJJhZfsyGOeWqB2KiyQQ4O8N2N
ya0apiGDLbrJQGF5tUAd+hNa44dmyWBrFJlaBdAXugsJ/SRFmMCnlZ94d5cpzkHL
DAuc4zfn6GRe3xwDzlY/A8pxH/c+E9ChLRW0QxRHO5sk3v0eUSBlYxmqn3BNbk8D
Q30ILF9yC0IeKeyLwXTn4Lmudr8i4wgNSEDMDobSNh83cPGEVDhJTagbYY9zKdBw
8Rh0HkYaDWcTRqjA8fXL83WJ13xnzOgpkUr59CCeaVkZjPCqzT7UUIB4DhpJxxcc
C9Fu5YpyK6GXF5a0P1XDMUulrOaQUtDY3Ith3BHoZaaVlqV9EX0h/YE+Vynir1Zj
3ZEhUMiQLadg+knfG9PWZIvj5VU0S93CclWjJF+iL5PfSZOYIymaKHGEbJIxjZUM
e7UM1+Ts3fRRQQSaX/l7G2vRbJwsJJknPbGfRpQDckhSMi0pwSKdmkUJrVU7hh+D
sLFZoZPOl7vEEET+Ny5okq43Iu/SL0rwb8JxF2nNB2TudKRnAa6f/nXD2rLnraQK
+9ctC5CI5wqDylD1N7To9zRbxEcZaaYvFpf1d6/ON0Qcft5uy4IawWNpaxF/C5u+
d3GS9zNFQq91tEugkCgFLjhXxBoejlGACeRgYMGPu1P55OIFsSLO6f/luaBrYZG3
CBPkIX7QumMPqmaoVc0ChO2DoxtymTr/0lMVrxmy6MK7BhnaJw3xObgImtbyKMBm
TVeJ/u+saQLdbwmS/6jiPSLKcFraJGMsKTc9DJqjrYDXs/oMiYVXruHP9LJt7QQ9
fdAiqDw7s0s2bnPuGMm+SZ/pG9jvYNnbfhMKbArbNH6hpsviBP22PD1GFTTxTztW
HoN9ICVmDSdpD7oMc3BLiioCuqNey9mqSTUbdH1+y8Zc6i1/yf8+rtzB2m9otDQh
19c85gfnj47T7o4bdQFPUvVqlMXjugjU+DyNogjWTRdeD+Cdmey2CHe0mkk+5CRr
QYIStYn6I4z8eHd6F20FVkbLQmN1SuV77nUypyh2zdwHdL9rLFqDcnN3Sbw2khVJ
VZEHRQJ024SJDOis/nRG+tuxKdTe6Kv/S1hDL7MLcDo0TpeJ+xnr0nEMaIQ5iiuF
e4fJxg5Ll0zvuTQl9ZgvyHkOox2N0rnDkbkGPrldIy4VONtaE/HXM6VxAQRAp/0R
FFlkrCUl0Uaq2VE4wx63QHB+SqtjFt7/FHtiRKAUdk72f/LuBgRze2HuPSUI3bJ3
Bfw6s2hp2BZ8wFGCZeGSD/bMG/2g3Nv9BhlQ5rjLhZ38aKD70yDtsJG90A09Ydc2
o+ig5hFncM4RxwIuN+KQAJgdxYW1S7qH5R1cHpE1ooxXYOh67RaXTV1gWdyML/Aj
mZABB1Ci2Xwy/fhpHOHogBpoPLJOxlVZPfgYeNf0YO7gdiqIA5XNITL4ycx5nTZP
XL0on4U5LoXYjRCtqeqCBQh+hLiAcx2a7rSXnRvUsnf6kPl/eY8PvTiMG+YIOzRN
Xfe8tdkMovxsAIXdWbjGnjgQlb5EhnBCTrRweBkC2JH1TLa8NYB2MNFmTnPQ09Hz
2ZXzGZNjZj1QI+6rkC7Wgub8MoHHRQQVZw7+LXgmc0i4sQQbzGFesc200RJpdxuE
ci8aMIO9czkZw7xc8+llU1Fkm7bWKU/fSw3oWAD1khUeA9znRJ39G2WH5EV7mA5S
eiBlNQ+rSSw8xgD6igpulyd5uyfkLMIQ8OYlVJwxKoNcrUXo5iHTQz52tTxDQ+Vl
MKyRy1WhHKpSocCaTSMQvy9FsCEfRWzxX0yJAWgI02z+KN5MOUvWEXM1ToqUtD9l
b21r9/9hoVXCNpbGGyYSb+sUgiwJ051JvmE66Krn0MWJ8D2DA1Qw+cc9abFQKFfb
BFJJdH/D5TwUIFgpc1Akp5xOloZTNpcIT6Iz4DuuDHBE2hIVRROBQItierxSxO4f
bpplJAgeS2vf+MtDlkvSmLb7Rzms/aWAiK69b7TtUAgfa4/1frIv8d4BDqKPiQUS
N8oxV4DWzwG2RuckmMwLsO5LNLhy0lN0GmZaTGK2XZI+HoUaR9JJZbzwYCmUXDMq
C7W6NA4J4KFjdBljKPvkxUCOjMqPeqBjPKODzhDNNz8o6XT2sC989iqgtzMWhDWF
dPUwYAWLxmSCfVRij2cxSNGLmISlEJlEgvzfCRCEbuycQzq0pxtMl8GtJ6rNV6F9
n/mjYPoM25qg25Gf4YyKtAyriKSi/dkv4nJdHbtz8KI65h/CwWcjJaL49WzjFAdT
JyDpx3ik9FVK/z7U1qonYXHLIZlAQr1xyg33wnJlp+/LVkJjDdGefj6LWO98eOLK
7Hwde0g5kwsI88ga1PatAt4+GnVWOx+5pw4Yu94E/yF9ijOISF4YHKBefspdAufi
hzp9SzdpWKPdcwUHRgzX43jY4wnfXWSloXHzdrTzj2jklUD1yjodN5j+2q7sqjtl
S612njdd2/t5HIRRpocZyGt1SoE8vRQ2pWHKKJJpyGmAt8CMgKwOATJfs4k45vpp
pc6I3l71hv1mb7Rhb7Yi10rK64qp4PTyefZmUm0F8DwrwFYxAALF+Y2h3oC4dKjp
fBziCTpWeB+Q9c6FIEcSooyO33HdC9LKSj0RLutSLAcOVu9yMA5DFXyjoWDtv4df
RPBkt5GwVAV8fp+u0T8r/Edo16M270GFLom8c6YEMNSlGtYWBdv60GXk3os6Rrt4
5dAYRY2EqDtTZerd1yYcqfwE+ImfxExJuV0DLmu6GDMGvC62xup8INwwxTW3z92J
gL1AxtXsojJvVdPtl1YLQkIO7U/SriDkg3cjNu7uCyDW1fXwGk3yfWX+HjeRMHvf
6qsGe1GJnacSzzp9KQQoxMJWbta6J8prziTy/mqR9MVBy+HHOgB2r9duWwHW9GCG
+9Wfy6bPD5M2g3Cxxo5SYEgpEFegs0BAd/Fe0av6KCeOhmSegWr2wY0sfSXbkS1b
uIXoArX+Nq7CusVTNfA1CNet04XJn6yoRILW6nDjW4zkbK7wLStVxpHRONS3oXl/
zB2sf9mxk9wCXH3Jx1mDHzXlwJQ5W0VQGCdT6ZSMillqwTmLf3KkYWUmwWCTkjg9
Ll1pj9tDu0H/nQqpu8vb2517BFPkGECZlQBmwSfcWKW+2HdHi3kGJFm5SEpQNvDz
1Mt2J4wteLYcm3FWdAQDDY85ymLIzcboD+WQnAhjkG9wQCILLO93VbTu2xm3PVZR
jgO06Gd5/mAPR2kxWi16C1WQJRW2j21a2nIlFGuYtKpEDzvVQjGcpunARCS4xwen
z/CcqqmDbJIOGoEEe2AeoNon9Bo6y2/Z/u4iiGuIwzZmo+XDQcawQql5x6Tblx4d
eIgFjFS3C2UUGmH73WNVVTSvk6SiNEzys4W8UJbVe0ql0WBwrlm/fz62vc8JNYDK
7Nak0yv0fiA4fHQJoqS7wsP47f9MZ/anuHbWIKFXSITemUDxisM8RCby0N0C66hP
tr7rxkOxtvFzT8rpBc60/aI15S5HpUqsySAVB8xciEE3b5d0vDPxqViTCIQ0AaYO
wfpRJYAtuI6ogPHTf23poaN/YGM3nNjhTtBDtWLinNZMKWbalqPBzwUZ9z6GAFzf
/W0/r13FxkKXgggh4KbwlYJsc8NjEBSWQt6AEX8M3tNFOo+5+9u7yEPPxahpM5tV
s9/qv/QMZAXrGfxvKkUILsc45jHyrRR7oAGurKTbu10FzCydjIOBuKO7yraanLZr
OPTZP+WlndEN/pc6FNJ4NnXrSItEI7Elhldzu796Z/wkheDI/8GLFbUwDbC9+5mf
wvr1XSLldQsez8Q0vcLBPQ0rc3syS3FCudNenreOOjXO1BsBx860MKiXLOIQXKur
zB0N+qhmHzlhutE1XGOTtLGQjNxy75vsBVY75r+YSyz4HSfDBiRwomVRmSzoHLmi
5q2ig5m/wvId52YlMiFxuzmW4oSK1zkiuDhTwANXglDI9x0aIOqe+xALASXJTtnB
HRH4v7Q3xepamSWp29n0NogzmeZOfqSfJgCjySZnndziasoLUhpkYjmHwNWwaIi5
CQZZDRBRPE6uO7fWGMsgUfn1RGDSzF+ID2OwJKcDn06cDN4rojfSKwkY6HAMiMDF
COYGhmPPKkOFuI5+HwBafFJDUUFh+5Xo/p53crTIxH9NXVY7VX2A+bNuR22HO0Zx
hdB498VHJkJ5TZIhY6zeZQ6old+QK6GJaSUERszH7dYMd8rWGj+0FgawJAk7NUJW
cKo0G0izJiM5pweS5mMAjrWf1Xp/pjxImSHpnRMXo0mdtQQy0sGMqLDhMYEmDhfZ
zXwJN3lGegzH0JiTdzIWnd7mYwvujus5tJx5aeO0VYLwQaWuSkZK5IXQswtX5Y1i
NQTPF0nLbHesiQWyuU23WnTjYqKOE0Fg9Zl21Wa/xRYuVTWeeJqrHg/9EBIlGvDx
7koORbf7h0NHVqnG2oI+FzkUufzFqgSYKfxMo9teIJb2gFKemEpHYqRButvnd5QA
Z3Wxqc4cGO+iEaDGbkSuOYU3LV4flV8EKt07t49qcLRmsZiUHP/Shg8SdC+9Ag+L
flF63pbmw2HjAW8/H4VGtuYWIoEBwAV5s4QWXU6zkoUJnrl1yD8UJ+5pKI2jS/u1
jIas8cTHf7KNDuBm33D7IuT6mDQ8EHxl4Pm3r7m0dwgmHlmdv0fRomf2IifOHZ92
Fmh2ecetRljcRmPy5Eyq/HtkeHsjx2LicLERgGAUuLhuCuSTPoouXsjgjQ/awUga
KXdLOqsW+6JR1dw7oM3GiFY5fhrxYOMxOaJPUfcAo/Mt1RLWRUqDE2L4JsCH4vgq
o96Fv2gdttZIm4lnebx58+J0mUOaPeF+clBENS2jH1ZCqRRlf7cPY4HNTNIVjYZ5
GRYjCppH21Coaqomo9K81Xu5iKRsJjbJsRZ5Phjyb2G5M0ozTTbCw56t3CCrZDI7
C7Y5xV1TdN4DBKt447l+0435hfIoyb2ocbW+9v21meX4HMHpHJziCAnXEKFOjpBf
GYSgZ7AGfCcPtbDZ5JQLDgE2wf8WRWJwUoXmOfjOqEREwap1VNSUq6DzoranBoPz
MR6CdSfo/Walv38uRzUYfY2FKWprHk2dOuQPWKkcbouLtlj5n3hVL2VDv2VLil7P
AfNQ0wOqMD/TTD0VxDDQE0BZoEwUvvHPmTvPYDUppAmNvsjDyz7G93ESlP8BS4R3
aJUbSWaggsvaP+BV0QA8A8hhMVuAmkFpli5yQDnrCMUSnPWG7P7+nIo0mJFyexgY
HNFwSR8jNrvjCE+vu9rSrBY2iyeygZYlBqUhjs+4r0RME2rNMXz5/ilbWrS5EiqD
D0CouJXwlZ27KgXApThvXeM/xS69VzloupNL6ggSe/6zd7ftUUpfCFsxIG5sZBxV
ZRY8QygpbgQHOIQqkFb6ygNux6c3OGM8LF4Vq9bOnpZ5Av+Sn6OQ6dErsCXsw1Zc
XltUxirDR/G8iLB8A2aX3O4Mn+UUga/DSNdVh72gg+YOczeJHmXcWOB4VIktYv5c
kSTU8q/J+Kjqv0YBh4wSGCRLspZiccXG2t27APAplch9yQk8ppcEkR7jgbv2sdD7
AQm+eJHHAtqh15Ogfqv4J6NDM2WFCN+4HW1n39IUGrUDlO90E+OLT3rI4sO0Q8xt
VOz44pbig2mEx+zqvpbfsiUygZWgrsFcj+u3vuTkZIpJTVo7pDE/uUAnsyFzK2Mv
V3gDDLnLc0VyfVNHQEgQcAZQns82vbXV66bdl9QjJ5T1XPdSVvfv2AbI1EoC3Cia
J9FxWNa+qQ5C9akc8uTxj4xy3CuOiYFmwdiwIXiZPh9ZL1eiUDJ+Gq02MQgMnc9y
rn95aY1+L3oov/bX1NwFg+q3aF/+GnrCV75Tj+Bz8nXcIGyDpU7ob6fmKkUGMEOp
WAVuMV7hzRPzsJywjqFqSJsvL7onLOyndFxR7dLHISUzBRRJqlMXPHhfRrfbsoVx
wDdLp44vkI0lz9hEr9UWa8EQlcUdvOT+Dv0T/Ajniy5oKsVWE+uOQN9OhMWOmsaa
ag68WAD11Xt7Tq81RFtADlVfNKKYZDd9cnxTkYcQTprDUosXZFaxX3HIuA5p4JRy
DPF1O85ZMj4ilRElq/B7qp6BSY0isdKq+pdp2XfDQMOS1tLF7vJVG8IDTswSL0+e
b2tWxCF1ycI/3l/VGsv2szSBT039Euf5my0O7qCMfXjrAv1JwfLM4snXBDA6LwoP
Yk5b/A+htozqGUP2Uk1G5tISatbh5rjFFvFCUYRqLXQuy+q7QVHKQ36zbm/XvgTk
EyfCNnWD4aHiQ66GSRmccmIq87xoGZXoNsrn4iXVkawgjlZb22tZ4LXVmPAQCapA
FYIC0Ij3XaevRTHhb/7a1a/vGsZxP8HTyCWYS+irZCoCpF3oOzOL+35ALduDL4x9
vuhaMS1v2v0wfslVv8UOt1pClmGCc5QarRyneApZXxX8I+Rz2uDYCwk1uWILujSi
SkHpcT4l3xdP/QkYE51tWyhMxNbHnRjYYq49VHDCtb4iFC0LEcEsNnnL47WYV76c
kZWFn69dzCAnj2V4IvACsQd7WGrwpLIWlQ6GmknHZVjjhC/V87lxNjsrnGbxL/xe
fYal2qpPXpIjzUZsNeP1b/4wTw74U8DRZsTBxSYAaSkDnExK/qzPa2+5psYYiTbO
bxJ51d0Tz/V5xvuMYKxNZGLnIZ3vxqVclwiWjupionuSQQc2uANrhkK0r6apYeBh
m7lEL7pboBdk4zkveYrsq9j1XmETYwe5fFgZUb3A1omhTBisribVTxauYA+w00nU
uXiSu/9FwxeDXP1rf7Eucs718KvkeeKcy8ijZYmi/Shss/+fRNDjBpQ1M3ICdC5I
qfRyLUcSCanLLQhajNxSvqfAqrUDv5JbtSYw/pIYNjcy4Vmri9wWaraq6vja4Zr8
MSr5vNWolVTNZbD2JB9CMx/oMO+7copIJep2XrefL0mq50hveLv1f2BEaMYQ1cuO
KZpO4ipaJEY7MKbP4eeBxeGaP8V4POPCwsPM+f1OwBgphHDXqhx0KsniQ7r5/Sx3
smOOq9AI62Hva1c9nrPRwhYRgyHgKV6NY2E+GmA9wEBSS4Ct33iYb/pd26RC4kyl
8szVbYvFpCPbFvFvruZ9sSU+W8fT5tDqWF4lye8r3b6VwK2zxWmghsewjR0AYkhH
uajCvi7xBItrMbkVnVZYsYFfDmY6332y3vEAXEH74vlGtUZb/CywMC8WyjBWy0yD
EyfCq5zTJwb2fjbMAt+SoNZBl2bJM0JQOFqJw4AYEtFofEKjEi1xUGlGFVPtY5h8
Y25ft3WToKwCyQ19YWA7TtPZxPBXdcI/xsQ8GZXtA/1SI/k/pA0nbifnV6CtWcaO
Ao47YMFzGy18rsSSVIpi4yk+u4U6aYROpE/XLoSJIONb/sVTtk8zqx7duB+mo1rP
MfniuThOApjmPh5qkL0GZGRAnzu9JlTN8ADEUq8OyzHFoXj+CA8n4WhXrBwAT2kH
0ta1vXPGOMsdr9Yn6MiK61qooL8QeWGPLVefDYutGC4O+dThMAeFXlBnV9maoJkr
j/ZqCiM/XApUvryvVV2XKvA3WYTuU5Lvy156YcBHxtoAEZkYXBrAmHRSmDpnuxTt
D96L/nr1UPxY6NWrY4vVUn4ivwWJLYM9zI8+jGqCO/LnpeNFFNT+PdVx8gt41Gt1
bgD78w1KLwVWOyjkELsFImAIBHJx2D/K1q6z5420QmDEhoPxcJvtiDmYNS00GGbw
Y4HLyutNeVO9XtKqogzJ2J1TlYhgfeoWM8Q+Ud8Db/OK1nBa2tn2qaL1DEoLdakl
QkzW+eqeBWtFVjjRbu02+JDWYf25T3vxCLw/PAJvvb5mWBaKYr409nic0JqFOZNl
tFe2rSuN8Tzn15Oy2eavjxLaP2Ayj9WAunfLY0mArJtSFxq/ytDZnlvLDlgyBecB
uDWG0CzwsprC8f8bU35I3kEkm4V3Kzn1Cccj2u+6BVEt1YykT6crE0HHDYkwFbdM
AlpxUod0VEw3+Z0uYEo2cgiJSdGhODF1WdGuy6XTKrV9eDpNMSis7umpkFDdQY7D
FN7A1Xejs4gYubTCqQOg2S206c0BSSr6RObIOuh2esoZqZnDNa6yYX0S4t1mdNL1
KoRkIoe+eWm4FFeo40R5yQ6HRfoCEfJ0MaTBrBUIqElTicBFTEoRrZs4EcM7mPUU
e3y6TM1++28QzCWEsLrFrgMUkKZF/5Hdzd3ujwRTRVsFsSIaXOQ0rNMA4J5vRI7a
tRUHRJuEgsR5Oh1h5lsBclsRjzUFb50i+hbulbmdHEpAEDq42DRXq+YyxqePDwX/
xYmq4HyCPt+vZXuClr+aXTxPlyhsq+c9IFm26zaa/mkUpf3OSMpDvyDv1J1rH+Gu
CNRs+tM6okVsgZSFx0acZbIfczj7EzGiqnyvH4uAzE0n1NqWoHgkoNoXHCgK7Iqf
06QkbsIZw5mr+bmyzvLaaStHrk8GhLEovzfnekaYlUcvXz+eGsp31kpkMcVk8gYl
4zvl+vvLS4tOrbG5vSW/pSnNlNv2+eL2PMR1WRc4GkPzRxc9aJth4Xqno4Fwr/II
7xdukor+IC2VbpADI5fPST/HAaTXV6AwE0yWbppbJ70Zh+iWNfiRD6dtnOe9CjYZ
l5dOMG5rm0y4X1DbU/BZPXjUJZiYaG04boX31io1ByS1UbDWQI8dy0Izwq0mIVlW
5490DTzy5SIzBrdnSJL/c4TGV0wa92xsxJ8EHNgQGKxqqifz0HgZ1oRhoTmPodMU
+gYFO98BAz/wh6CZMFUastwACAFgczJ96VqWYO3LpfD9Ss8c3/A6Ca7Fpg2lj2/D
jpBB5rNmrYh6jZ0OjOI0h02Bac69RpRXowTVGDd2s/mNP5Ib+AKcA251BUfH7JKD
VIcyK36Yh52dQMWFiXphkfFeSEqaRCu59PizU6eJHek6lmaAbHYhPjhZCnYbu8WK
MEokNdh0lq562C6Z+6g3mtOWSPsc9eN44ZfrG5ydk8vlpv5zN+T0Nmuik6fOjl3P
AnaMDylflwh2HQ5mHjv9df3OvW1IFyiO29t6nD3pLuI+TIRT95NFfv1HX+/VI61H
gzO/tW3muBMwa0cIoPxxW0Dxweq+LdxleRFWs0dKkeEokmCiVF76MH32983Jhl9Z
BKPWMr8R0VsjzqOyQ0MkNYpgi2tIoEmv1ND1+R5cJHuD/ruSrKQSN91g1IEhPhEY
Ew73fD5liqrEWHgAY31eib9Z4I0YvX+SWV/P9Mwp9MVnvEb7sqkvRNPQl7sedfvw
XfivoHf0wrcGtwXanw88ZKokxMIXhl4zoJkoI2w5JZGuuNsgDGEv8WxUYQ7Kl6am
r9ioWgsST++1AAh5FkQtcROB5v/NsoZkl8FQGkaNKqq0hG0IbCLsjBvaImah0KSj
OaxBCPjGicJdd1dmcfxjLKIFszfG5ZIUOsZy5osZq3W02uDnZ9Jgc2e7LC4qG5j9
30+fHusRzq+I4p7yl/HLPjM9vmLfxXP2iQJEeCDnR4IlS5y9g7gL4GOMJf6dAEml
Ogu+3KLSuQODSYAWS9dH/IbCctDrBy67CgI7TgY3jAvCfb2N/J2J/J1MVUhBDTGC
A+AUvqVYy6xtmBPYrY2PvGOI+2MUWLQquwaKVgmJdjCaZrjTzEOjazbbuikaDnUH
xv6v51MMW/GVXacOVWm/4cqMqYXn0sW62cNTEgVZxao14ovi/iUzWwPJ4RsBeACi
I/BpVtolTlh6ODmuWUSa7dt8X9vyZ0fGnRqJcgZI5OEUamkX6/PEp/nR+8EkH73J
7aQtOGjzhRw1ch22JpPVeTaEK1gyWpMu3I8vgoVFhb3RSRcfgWxo1ssCWnsjXfvV
+ZfkoHVfCtbgISLbsBO2k3S7wf5iQmXvOu6HFHJ3B9eln7CUqyuOrM/KeWR3ZzZ9
zUkDR4iDeRB8uwUFgXTy63WWPliwv+uUU0ZV1t28sqYNzO+Awk71W1zecvmzsmRI
1rEhpMJMwfU0mCRqN6aUERlYQrs9S2Lj6decoQMxZjNjcfwTZwsMxE+tQWt7frkl
eiqUOYOXniDhYWoqKyuUV3IZZhQxIWrlYoAmXt+esq8NTPuiEMx1iBvErUpd4XS8
de7R9fzArBZTGCNjWOWzZ/z0aeKoGAmbbGdHOPh6NAkBiQCIoOXobKjFKZTpJSSn
Q3HKhKslJf1BfwqRaV1GOvevU8e3Efo294PbULbBjRmCQNHKt0T0bms6e1RfFcRw
Q48++GKCmfRLRhmYUB9IUDCX3m/XcReh1NrIBGwZorSB6L6dFXh8ilK5VaGnPyRU
Dgd4gTg/4zFJUNQN/G8SP8r0rtK/SDhGmSQhqcNzaiff2xEtzFM04BB/QyMIPKlN
jUAehAN1QV71SLd3KtFPVdlZgevNhJvVmMqvxo5crt5qG7HPII+UG92PjIw+g4Gn
EUBJmDLJwhJeUMwj6oCFRr2WKVGBsGuoZ5EToPdrmHtQU7m9TWPMY9JmArOsxJWj
7i370wom7yB2Db644FIwIuSDjepLBsJbILBxy2xDsj2MkhMkQhQpPfkie9jwhn0F
TnecDuafH6IEdwQvosZ/ckk7iaN/DznV+MzEtLhHIgv5mcE0b2fi+WFgCEqnlEEu
DkQ6dwjmzhV+vMjC3ZdGxhEJBOsFhU0NJYLXaAMSp9u0BTsffzlPdCpbbFLalZ+x
9kE00RHX00eU0CeGOZgb7p3eAeL6LvKtV3YzdNjT9qsetjqSQ6Dgh6zKcKog81sj
Lo1Sbf8SBoSNsxYcNXXx3MaCSpRh9g1iSOO56nZp9SJSLgetRNwjleK/574vun9u
Zf65me5cXvv4YS2x6ub8kAzH6Z6pURPdH1qicHz9j76apnpUplbgJsTOCpsmmgfg
f33MzS74Jd6EtVqv7S8dfpVj8utmlQhWMUQbw8RnZYZPy/zMqPTxVTwR/8XjOjoN
etvhrH5ybcLiGycosx8pJULtSgE4eWPzEs0EZ/FpBGpagMaq2K8VjoWtESnyWSwH
xXB+5IQ7NEOS+2H1rjPnAOq9MXczF67K4in+ytkPh4hl3cNZP2ZqYwHOFPH+b90q
Rzg/bYt3xCT4aESdS2zbTDFKvGdM/VXVAjzdpPHmrr5NSceS+UF6KZyBHBSs7H79
klyS5OaFEmID4q2qQ6jsaTSimjLoykgrUIFULnV+ZWlgl57pViHkFDNNu98VFZfB
LLlMLUDXeoQA7BzNc3NspF8Z2C5AMlYjYe57703YYcRaF71s/2hNmn4g4uRA+PgR
sk+7jr1eQaEMzmynFlhHzcOWfN8OHmIOy6hmC6FFz0HopOZ0wFtp9Jkl3wl8vv5S
CTz9BBPBXVP9sfuZBp4uzzlX6BzBSqWnhRPiECtamMdP1bwVx771iUx6JWvO1Y+i
2CmX2m3Wviu8WKs2l4YIfhEv1BPYK8YP4VGdHCJfSh95DMLt9h76MPxEKYBpS0Bn
q0mVZae6nUDrU6ytpJcNXpRmfJqRSiD5VmNiixP1YHyqfUyCDM39gqg1JmVJkyS4
gs06OvBE+6Fdej4yTGDZ1DNVnYPyM2NyNOUW5z0fXvRos544MeRPfOEx2W4OZSqc
3UjPi6B9qaPJvzUNi6Z7PwpxrdczBCwBMM72ygjLDlPH7xk+CPaasovsUsv24APr
ddagCpdic6Foc0cbv6lzGU1rvDGtiXLln1DPK6phOVrBG2MjFNX4HBW012cOCNHi
+XPX7n+zitQlB/aEuLht7hT+Mp5eENQdshjvZgMvaWi3xdZ8LPD2l9XwTvWxbtBO
7bPdFtd1Tvcl9Fsf70wzPxcDWAFuFztTeGYbdgxjnglqs+3j5/rHPioHxZkcAB/h
z9sAb6ry1RhEPob82mJG73Dpd3JP+L/qqa8amHe2kqtiVtxVmxif+Vjx/FFNo+hS
Gu8ifctNVLiRfhYu9vmD7ZZIMhN9oVDTybnIWZPPj1voPKI9Tece53UTxtnbtwsi
4rTVCf/iLEyQk1DlK5pn2DXJz/ijEmqapxA835mrmJ7Z+QryvNGG2Uc6HOTHGYHr
9p8N0T5speuvGrrogQnjmwq1CoL5fpjeGy8MAVcROhuVqbHkGyxzASwEaJ5j9n+Q
eeoJP8hfR1rA+6npMtr/Voh8ApzM0IiroQRtRf/5dTnY/xcBvuwFmyqTXnWSxf1I
A74AjwGHjZfil9sqfYcpu7cX2/lHpUaUZmaOBoOWOddqPEawzmPIYGBhg0UzoBTS
wuXq+QB1gHQnzQIXOdTy290xL3WxPoYa1eh0I4s13KfGwGQTTDUgnwKf6cFTVhJL
EyL/xxiKmvjx0nCAGT8C6kFIF5rrgIIIMrWDWAEw6Y+gHWAGDK3sPEZ3ZuSA19nM
AM6ieEVvpFlvsBwKjznsqOFgAzODw/fu+/CW4kcliCHkO9DO+7rLRQYRHopfl0kI
N794OoQjcS6YR9xZksALsOyn9F4z3VSBkY1YDu8stpg+MgUICapO1Ve8TJuHvsrd
AtgYdzDPZJgurACq6vT/VPKhX012hdjKTfvlsZxcg8+yfW43hzY91jgMykTuoz30
4mhJBk7GGVUJpvRK6rWqnxUidODMYIgiKboirHbFdZYLgdIbgi246DvHvPL8iBjO
nWlZwCtne2nFraLdmm2eltACU4M1ZhRF5+OF8TCCjsuR6yYzhQV2z9Eu9kSgTmby
bOCrj3sKBvc07D8maLxk2wSt+nEnQFBFKfjyqBlwV6HnSn8XLbVNCPyphltDG8L3
qtoPY9+PLGKmZWqO9u5p1P7nKaeO5wq+cgJFHWjpU4TjWMUfkKcwqOdSdE+rM5A8
1ZgxInUjpKAe0uwtBz67kUvtOsnor+00y9f7lXNqE2DZKUihCK4MqH/e33EKgQhi
C908pv0ulDorb2MUeKWgGWYSefCJRfUTYFTD9IiNH4jtZGrQMDUHKiZh91C0OkaX
DVlmTPprzbrPcF2ckCoJDb46nIcfKgLTKZAs8OvBn+d1HqVQ+YUD5w9yisoaZgQu
JGlh2nLfJX+rm0Q6ZPlHjIkVEMPiE32ElySAYfNJ/FPwmI6v5afFZv5ukMhEgwxv
/mOG6elZn2OzAHGjpwr+yCOkmjkjCA6SXF8YfjkckXwOAUF0d50iZcfeCdVBXgNj
vMpev2eVQrJOOZG5Nlj+LAn5OQU+RWmgOCKzhHB4zFsV4dja9RzIsUn2JGvd9/F0
wZwSC3QKKMmnR1wkPvKp6HavploWNRf1bBYyeFGd6xT5Jy1tT/E1ogGgQJlbB8+h
jYLfOt/llKbBpZp0ms8ay5DPo2R1QG4xI4//FhSRLTEregFho7hTFf620ZClXcQ5
t2zYSKRpGnNTGNoQU8Q0USC/y4MEbpfNPiTccPL/66SIi28ApXZ6vTPTM2+1Dnfk
Ewzl2dMz9OvI1qRY/wBg0oax7X4bjFetXR6AQi6Few6xTV62VoFjED/zGCQEWLeN
lkl+HvS6AENMZJNZTGvZR+3Vkq6iU/5NczJnB/P3wcRwOTqJu1AHHkmRwslgAyNG
NZaGEmA59zppzjUUIpqxNZcZvVXNMCNlivk7RaoQtvcbFq6ZTe2SIWr0ZJdSw4VS
NDidgehaYIiLKzJV5v8JfUl8tXqvoqYfgHWWCbUba2u4tYEUINMkiebC56VaL0FR
8XJXWaDVnI8CQtlOHn71qDLGP/O1TmV7WXhtzn4L5PIN3ESZvVqCU4a7qG5PnDT9
DEhVAOpN1pBBaZ0fWwbWBGWBu6fftHWtHL435Xofo/oy6e0k4mz+DrmSn56F/TPr
C2H6aoY5vMSfrbEmL0FSno4lCv9lRWSpENiUHZxaesZoMuhkSNYwyDrbdAsBuqCX
GLkEg2u4LcIONFJWj2iaOpp9gRyO6cXZxRFH7T35QH2S2ISE9/H4eRjrJ78oPUY0
gQD5bWuL+CX6/eMy34+khqyuGZgv2u9mZ3Vh7PKgX8+AOMI80TMHisUKgKYyB6/f
vS4yPliy3P2sBxXyZ7hahCB3fekd0+s9A373aFRmWqoSrSjeu4jMyAXmL/YPxVpq
pN9Lq7NJmURNjT1qg61ptaDUUBCIcJI5vs/zsNz/IpkF/R3bSPeYH3ep4z4hzV4B
JS4e/ZaM6dWn8jkQEo8hXEjlTdE9TKZyU1Gkr3cz9wgU5V4jWutqUSfuIQ+bgwWC
aQ5+VybyO37FNd5ItRun6CeI7EClCSeQhXPzFU4OUnFryYhzgZG2gkpI47oha4TG
zOvwFu7K7/q3p1/WHUv+bLozEpES5KoMfBRHqvnsGLt2ZJMt81R1nDaHwGZ15Uiy
KrczQo0vofMl1vYXeO3aX2vvrjtKjD95Cn2ZqRR80ik8Lp7tYVP99CLRv0aQbHVF
oKuJhPzBN0PQ8ZXXr9rAzIvx4L2q7O7wmD8kZweCUiTVm0BdmCv37f/KJSeWGK3k
Fx6nT1Bvt/VVWXgRnGuXmYAh4yRPObo/UvRRK5Dd2moXvW2dqSNNzDDGWTIdTnlU
8ltOb328FMAKS0VJcQn8h6uID74pNeAVbqUv21VCP5OkAfJiSWDC5FlbklgQtVFp
KqwuWlz/UkO17QRuFLDaVELHbzes8C1MW7I0hC46Rp721vyaNej1pOEhc2TpSGem
vfc438OUIUZZYOPsUq2nJ78IqqRIpUmZtuhrV9I42/4qdclZ1/M/08yYEUwxwJS/
bRwm738QzX6xqiFBwvjUPxJVp044VKetYztV3XADwFeDTUNg50JqPuqm1EEXhVMZ
CMvhkcBGC9oEEGl6S17qPCj23JiLpCQVY+id1RPUIvWvyvhbhdqGe7rL/jiK6V2R
CwNBSqUePg+pRWQk3bcBfZlgM+fANERKO1g3hqKq2JROGgA+PLafcXNY1zuVNCdm
EQrrwlH5o5loxpO2tgGo/yAM3dsKm7blXIReuwBsYlCThHTmF+5ZcD8QuiJCQfTk
Vb68dz31tz0BrM3r3BPJG9lqTeM65NVyNQjCCSVYnSWy6zXPJ4OQXcEv9hLig7f6
2ezNwLkMLa82lxsxnKPC/9txRFJKWUk0TWM18afXlqhmAZhiYxrEyN7cerpmNQsJ
MV3soNz0kN/0jVKLXSwE3g3VErpzWMPQvTBzsDGTiNWDe0b4h45uhLjif2GwDjll
nUWZIsSx+m83/LwQnK3eD7uojSfJ8C6k50wenFcdsG0RUEiLFeGhXOuy1Jwkm1rJ
w2AN0zd2fAYVODw52PfJBDQPqx3PQkgvSKLueScYL5H9I5N7sRsdKR7lQQxl+Sc3
+votCvo+GTkLUfbaIGYG48C4dZdOWDFbiQFFVrc9huN23iUOhtPA6fXpLtvVfjCv
5oWt5vLgNjjL63J6Q7BTkdclgfmkJFjISpAYqz7137bbCcDeOIMvnZCGmaiHMFWD
Z1N5mNzRahdYV9JZruhh/LwEsXfRRVRbRXq7d7Bp0pX7pMwI1BocCWifkL2Hq3Nf
8Yq4lbM+DVtmE/0eiKieIMDwF7aSZmabIed2uOq5G5o8H6cQf14kgGlI9n6giNI8
DYWV0MzP/qDnjzIihznbTX3YQgJZExuAkRCr7v1jbFLLCV3n8VjyDpJGdDSc0lG6
5R7QF6jtEITM/8Sxa9Jd+g3kuXgJdK8TbTd2QBTYFVzsfMes6GSPhuqVUZ3KGRZI
pnYR3SqXtefCpbiS+FfvTMgvZgxCppLCLU4ZeDFqRWFhaRThfqoi/A/MeWE4UuSh
ZB3BP3nC/yj437DyIFmG9guIJEO83gTPOqBoO7mVG2HYN6ewBkp6BDowIlKrw1GO
kGEaETn4nPjCd2ZqVDb0bWiY6uHQqCIeOXfltBVvYMrmxCeIBhrQnaFeToRplX9Z
OZHDfI5mKaxtKDlf5OdftWNv8/eDAjguyhVoWsuRQ+O2go7i+N+jKCL8MPynLfct
fCgI8aIvDSOrPWkSZJ7/1eWQAOdlW4aNY52jyp4uTMEDxaYmjMdre9wsijZ2XtKn
L20+vGNXRUl5Rld2QQz99OR5T6OR+Ix6KCaGQq7OGtYJPQ9yZun3mlolFWVorQpS
vUCxNwf0AZzNcL4jt82gWiOmdVpc3wiUa9rSSL306FcDCp4RvNvoPlc/sxKsayY0
fbH/1IkY2UeqvdI/tOClGysjRPUSbcX9x39mi9FHAIvPJ3K0DEF1ZRiF5Z+QANOd
i2FiIAh2y0v7I51wuii9mstc7fVCUBxc9o6zDBZfr14JxbzZ/TbIH0OBHpVexlyN
6NlC3l2zoCrPVOTEqcwWQ6IAzpDOqfwzZafOLo/1DRVjBYCATccnteTmjeTmeovW
60jwL5AMo/8r9QdSVIvKXDkEfGUXey+NxJaCklq6iJnTa+PHfbnsl1gkR7JJS8AH
AjK+5Sn0U6ZkdHcMrarVGF8RYG/m9LksJKBUdPu7ehs7CPuH4PU5uwgut7jxtds/
iDeJrBEz7+0e5wxl/JLkd3HfopjJb7QR7SuW8wFdmyTKOl6VITfrsAJfivemJNDc
wQPMVhpRj7J3mJUjpbmAUTyDFQFe/GVQniEJUajpq8xOxh3TnaLByc1NcSIGA5F3
957XXiRZNnwt4Ux/DwfuzByLB4BC2Y37iwPf7o6xShmHWSwrSUDCvWacNoJNnR8E
pxV8KKwIE6LztrMXze5os33hFuoKdc0QO7hA2YBPf0n99b4uOTGydOI9y3ZdYDgi
MECXJvLkGISu+v3Im3jBLIBNow3OM2PN3ODFm6+HlZLrXd2evStmwZx6FEw1E1cm
45rW71S93p8++Sd70m9Q3Rp9NAZVIn/LHu0lDaMUP5cpz75CGUgEI6qpLizL48lM
owU78WgGN0gCVpCIxp4QtAsmXEkn48lh/ul6iEqPDHgKzcuhfUQgQTiV2A9Tqyn8
TpFSZvG+hnia/fdgLg8/3Rfb3VihuKqq1F4tWkGj8mVg6XDkepPevYiOlhAB3rPr
iTSO8QCqvvA0ozgAiamysqdcnxchrdlKNo/ELuC7SJxJplr/F4s3aoLZbsqvJyIq
0UIXmDg5EO0HciKjnD5pLj/UhDzwFpf1JUoHvOOPRvBzP+E+7AnNc1dOangvcXIN
g95ctJsCKRWcYU/lfpLPMnNdYTg9eIfXSzEurRzogmsbjsgAKFj++CoE7wAT0kjZ
7X3DwXAcqlmksuAf613/2OkpkuguocBRrpOKRBfWQ/lDKA7Sqs4so1jBv4st4lEI
NuIrwVfnDSLECccBW1sqJjjcibQIWq+klu6mOJ3v6mjVhEN/vzDeG6OutpEK9Oqo
yL7kLMuY5w1S1p90IbHZBztCK0gZO3Abu9DE2hJz77ETDvsNNi5052LoNa+FnntO
QgQ9PkvaZWBg2vbq+ovUWf96uzuRSYV9f5W/JfXl7Nf96v6pVSziNLSEqZHFodnp
PkaZpkkl/8QH7pNkKoisJsef71cua5gE/1GgZbRYgewCOObPlS/Rk+NrLlpi6nHf
kHTYt+K2gFHMWt6OpRb8hjYmF4jW+Euwkclu+9JiHahTl6idf8/9l/M4lWfT+bFl
WvFunTwSOViz0GxgamVJT1ZnQIRh21karNgxAsT6Ixf4JpYmYw6YAxWv2w7z2EHa
0WR3LBPWURPXI6kh4NhBOOv/VOkI/Y/OpI2cLIbR3HsmJ7G7tsUcJGHuehc1+vEd
xtXx7xznfJgn5qkRdpzFeoEDcsWx6coQJ6KnBDDZzF/ovvCC6s65Y/tVx0wAo2Ih
3LJgaUH9tbQLgLnur38ELQeK/SzeyvIOLq1rJr8ty6AAvq5OlvOVTgj9cOyuQaQL
3HxDVK7lxvcmti7wNKxTCD99JT6PNvmlqPItEE8mEOHJuFa1selo9OSOjN7ov+u6
kvqPOGQmF/4J1EInU0piQe/+xeg8WPPWZezC8RTkBceKvA2pMXtyGTGQpeEZke5b
FNKdW9kxIBc0Z7Rci7uTm0XJW3pw1HkkMPHsA92IEueqRS99gMw3yxBM5Tk0BJ4w
nf7fxNEWTui+vxdmAqWVZ0NRNurV97FT32m+OOPYiL3UWCnn1VUk6OCDrYcX2hZF
xmuxrUwRHBqz8avbn7if5laN5Rwqk894frqgUiwLynonAQEv0paAyt9PHJE1cZ1n
7/0sHYNlHRNcFHfw9b7aEELh4CHRWk2nVpkI864tes0PK3vy533DepVNnn2E4z0t
X+i6TTC0WkYvPn7wCrN60qF2Nb3SIX1Hfp2DGkKj/kQKOmKAaJPQuu7kn4wkgRXC
mqchdjapDJzDM7b3acOuFnqu0BoCAD5otBmXa4bf2CZ2AM9KPoeo/7QK8ltTLxKD
klp1cUbhFR4Ru0JWP5YnDMyjFGtmvNElXwwBr1Dy2FBxbdSJLgR+uPrNlBvW8xtt
4i8L/+fBcxq/zbzcu0wSGzy8EZscoyEzS15X5NYmQNp+AdgIDH/zYTu2ivZbsld+
Ji5V42rtYeuzDMAZsuppnWWje2xL8jGk7AmueDqR6wzErXTy+EYI4aKU1NjE9GOy
zhyvpKyx73Ox80SzXML+OO7oknnq/ULQRP6NGD8NdwtAcsm39he4sVsfPt7sKprx
1fr9QF3PuRZqLWAntSRvhhVIjQXayj23L7E5rU9A5HSA7eCGEsbUzQbbioUZ7Tvv
x4iejuB2JtyDZclbKTzqhc5Hg6DOpoxl5r3qlyBvhieJQMf67jOkapkW69t2SS1y
/thCcg4VkTaE7BWhGcsQOMmuQis0mtPRWIewcaAp3dCMl+fN9klsLIsw1/hRJVfC
vA7zyoXRwszZ3b/u1kTM/Zd9S5CBZ3t4ro1eeXbhycA4muo+CoB44irFlCKTwIxm
AXe3X3+q/qe0pBbnDX8f9SyLdkT30A8Z/yhIt+czlLg2oF+ZuwLkg8ckLYOVB1DW
yzqSVPSGwQ0s9IIrFhmj8uil6XwY1MLS3bW9JVkKjxzodTxCbRRnHxvFXClCKBka
jtQMucyp+ScJahK5WjsyapPdEhbxchJR1U01LsOCleKsmjxbl2gBT3i1+g5grnqv
NjRHrCRPXXAozBpxcorVBolG5/o1HmWENb5M2HH0i9dVwvZMzGHxJ3Dazydc64+T
ehMX9G/Ar829m1X/JenizK89A1SDBm1MH9Xx8M6p7kuOVNK/ZQjHb/L/R5Is0/uz
r/pW6vLxC0avhcc9klow6zGqPuxkO7zE+J8CZP4JKTn7KQog/8weiIQRcg5YEZTq
MEw2Wqfks8Igw4qY+gBhioeH+x6HHywxRmIh8xerW3wTNifWXKyNcij0m1poXs2Z
hJodBY5FmGwpuT4Khk7GmA6ntxuI+R653RoWU4E+USAuLJcDvGtN9/t4K+GrhDbV
T0O+Q0G1CoMkBaq3MLsFbSPyk2J4DxvYuiKKcl4V72EWHeK4HFVeVwewV7poYaV4
Q9MuPm20WiJr305WMr91XZt2DT+5Oy0metWRPxrIlce+X8idetxwk/HMVkLGijzz
/X0Lolc7bCF/SjbmhEVToC/3RHvp6oozDnzgxM+McRJeSPYDdbuUZx0RbsPr1NDa
jRLe7qP//LKZmaKpIRMy1/LtnPvtxPWzugcWeP+zI+6Pu9ChEGYjSxLDQkR2dUL3
DENm1SkRKW7hAsOt73TwyMk2S5S2W3OGemYMS0h2R3nYR6m4wOLlfkEtcmHyqN8I
vrqo0UNzX9tr8AbqfaflVGE/W9w1GBGjmRfaB0J1U2J8t5L26gxsJVh2Pic903EN
qNEfihaN3vCsMuU4TL121yHLPpR0ThT56Tx2J7UGHnj7Z1+Wu1GsEgmsG97HR3Of
gdAO+1gMVgfdm6c8f9+AdsrBMOBVqQzs+mPCDTo5wZPbKsJ00vQrB/xJYU/JyM28
u/aG4rJMc22ugvSM7LdAHEyVrLh55KYBAIjEH9+9s6ykGPy7dPYEi9IS9p8QeLZ3
JZS5atnI20xeopw9ugXkZtObSODtIiC+rLdCkv7SezAfywsBJLTLSpsHl8vqN/Yg
ZHX+NT3jER4lL8QoH4pDDeDE2ZOnXTg/fRLcpQv8fan7tQb7KmKcMg9BE+0Vabe3
68uf0T9CPdaNYhNknwflzdfIRYk2qtEK4L0qL2184gYJALcAUAyAfox73A5NuE7P
gqx43m3/Nn4uAn4xULz1S2xTFISPDjQjTO3RM6QMKMw/JiwW0LGP2CIU+dhWtAk0
GxOTDK5XUASdhWaoPwHI+TX7zrZxoHTt8MnhYrYcp5WoAO6WV12E1MxNUaObG1Ar
1D67NqSboY9q84YlxdcfgIdh/7tP2uFCM0sRGBd7wdFPART7v5v9p3Bsc5lLR7vS
Ke5i0YtG57W8kFTXGYigqE98U0W0w+WoWfRwlkqx5f8hZHWoirjSDnFjAuUQxH9s
cCk8dx7iGJ3D88xTGBSin9H36RpvwFOS30Ni8/CF+sUkNgQZNMqUH6EfrtzIqbtj
lvNm3LPYXh5tfe1eA3gjuEq6Fgjpx/fpOr6t+LyG8+9VzfEzJsERbdkJ3ubSUseZ
hGvUEDqgP3ezZ8+k6RxLIZ2MU1J0iNFuG4HCirsW64hjr51SvzCHHq2xCRR84gg1
b8xTvZQdSG6bQs3umtzCmSN8yZ4vdtSuACAfE7SZELyma9EgwwOkCXHcS2lwBGAv
EYPn0zbrbphbQMSQ8mRjRMwEA0E/a4lUP2bdh8enRqtvxWgf+UbEcskflqrJrtTd
h50VhR1VRYhXdDFY+4G2YYqVOgMKm2G9Z56kKUJZ3qLNdE7UOxrdPdEK3w9P6Iu/
x3lPynqipiYORJOsZF+D9olFjIs/muOcEJ8HvPUBip+u33FP/7/UutcW3j0DPkmg
tRXuR/Yl4zKu1ecS0+63iUcssedCglXl1//SViZ5POOQ4T4s5/uviI9OOdnQN+tb
SHUhE6v3UkqVP8tHX3xaqEHrsyf53AiMRW/ukLfJmRHpVkl4+YwlZtAj6OoMTyFE
UMOC8+kC/5x92i2n6f6cdTEYXyYQ6ZBIbeODrRRdpkJdelfRkjfv8namuXhRdPyA
PNFUuF7g/QaAL49lgpbEciWk2JcLuxoiyb4EX0uJtCDoy5SozTEq8b5wHr7xBg3y
PRoikwzLBCfQpikYIl9F21jpQT5Rteg2Z5mTz4DobBTJwO9wgxXjPcMNg+f2Z/hU
+IoU1KLp3zjH1DUahciyyNggxpPe/vzQaBr/2V8xrPuMUupr2+avbNUS/d45gefn
Ik8l8BLjNSQes1vPIO0aHy1DDoNPH5Z2ZQy1e6SXZ3gNvkdrbLcceZVGPelAynxs
HzPAbNglJzniUVPUeV759Ujmw/HL41A2vKz+11l3PAr1n2k/9YN6eZ1kXTZOTQhe
QnATgQydmckgHIcdGFeaJ3zyR2ENQqoIXpVMLn8WZLo6W25Kdt5XyC/EROXCB6es
crEkwot6OQDtY4g4mWh+Qq/i5N7IotlpRm/OKEJml2i+kumAn4WZ9gZKyOEGIpqG
gfRQvfcqZD15y6AnA0PPtU1en3WJvIDzLvCU0KOo79wc+4tZR/tYFMbC9Wso6q0R
pd2P/DjjoJywxjaZQII8/UuTeWzHDplIW25lmk8bxOmrIuW26m1zxGbA6TNQ13Fw
T9Qu/cKBN7HJ3wMQQ2HEbtRNWnWWac9uFMF4y2h/dSHq+zxZ4eOtLivGZ4AjsRTQ
IcnU/H8yRiC/ZZCti2mnXACzuW5DZAtUQuMz+r7vYA8RVU/eQx+OMwEm+tQoBfPI
Xf4VxQKkQ2QwTY36Mtbm3Nu/ngYAZjyiPOGwVJlwXwG0o/5YvPLWe9V7CSaamukH
Ywd7rBU9pluaERX8TXWlE2dHl3EMqrLhXg3G5X3C9sYhO4YnCVzwnGzZXwTKmb3o
9NxVH1BtEyhM+0F0vz+ULyBrvQCpubWa2fIjaJ5HchksYrXXqBBxsMkCockV5UIL
10SERCpL2CVz+7EFFsqne6lnJo//YGrBvr+axVUMDYCl/EAVpjwic4FJahqUN/19
neIM/GSHPQkWxozrfag/+90vbeK2fhA56zpkU7yUPjHavVB7/Zg5BljjCNc6xXuY
XrA5kLBsho7DiS3m2rc3OZH/Qg+5PaU1+cE9KMGfpgwHd0D7AT7OMIA6RnDiAbVd
gTMXGoBXVYnuq/E/lYgZTUeHxCMG6sIj3CH5ZwCsJCbHgGRfjPX2BhF6pLTIFiNK
g8PSjhvQ7xqyIjNE4OWISN1ymqI48SAvg9NOLQxxnEWGGN3aGHG8RTyVKabl7suQ
7B8gWYmQWfEPyT4wS/RRke1nLJG+1wP4MUHOVxuSbFJKtcmcQxFYyPrCzjMNHUEL
8vWBLZAN3/ILaGN0C107x2KHYY+jAh/ebeN3c/l5LLDWqndpTjuhfeKPF/A9V39b
9I3TY8B/lYwXJpA1pmHTC4MzDmWEBEJnahEfx4fmkpJiLunUuWr9VA0N3fzRVFaZ
xWoQmuczpDsN4/dTFqHrp2u7Y2nvlOpOnTSF2vEBpBCMgSRBxTNLVxhkms22hIZn
HKbT4UmnqPG05vuaAtadGDznDPWCCUC5NFM4CxKlXwaUZ/69ItjpTs3VlgJPhsZ/
yB6cRsxJZTQBS+1qYgcsPECCKf0EZ5i4dYpBXnGfYIIpwZVW120YMIPedD4uXRos
vnwr/d8z9KjI3Lu0VFKoRqVw0duRy7PTnXMcvJdR9o2h+DZPN6r6y0jENdd1/QOW
W6GdYXrhrAD2xTf8kM9EJZQ0aioeSNPNvmsk5fEb+gBy/Z+1xcI/7U6Tkqgq5qSX
HeuMg7ezLsnWKA2hQfQlGlVep/4/Q77/siNwb83LkAQdqH7Wnw718pb+ZZGPLjdQ
0jt528FQJ0TAcwYs7koSKodki2msb3osozkXb0a/XKGmtyXSnH+wDc5xpORYmlZC
uOlxo1ZP0vLy/hdxC8TguM5O0lf1/HNiM0tBg3+oPwBjk4xvk+nVkt4OPPKPkfhV
8PECKlvOHmRpohPTh1AAFkU3HDsfeAbYsPHK2jQBhkLZtjDedrnj8JriJwCE/EP2
GpR3BytSnhgl7UXeDBQicCKLNkEVrPohZGJU2vUfMERSNoj4UVRw2LMmHeNi6AJ9
h5oHfTKzyP11FydxYC2ual2ZTRrzwSo7RODNZeJ9a8GBQCGuOK0jiokY9RFV96nN
z3oHghYsqGoORaQr3TUS0Em4x62kyzzxZDwXcogPhcs9EYdIV5XR6rdyToyYr9Uf
CnA8djQtiDXvdU2Ca7F4x3SqqlyMCFgMWHHVY+V0GHw6b7ctjOdoeCC6PcO4G3OK
WQM9tJE5HLmU928xbsRI9egPyqCdoH6tV/5gVJ+byxDoOC7EzP0NOMt4Qea3qdeT
hVbPwNlt8p9w3YKhFRXX9KR4yg9VuQU9LXoBWT7t7r2NHFJKjVE+g12XlsOut4zA
z/gHneSq3H4Vqxxldd0OYa/LX8EGYjD2rvSJjArEn9ch2iswIQ4vGG3wJAu8GmNr
HYM94kNlxmrt4wEbpJDwf1XCtJhUZuG2gLdvejUWiU2QmK3uuzexvBspdtXv/LhV
mcplE45zzfdNt1LoeQ9q4ZIfgnK97rKEp8oJFIwYHzbGTxWa5npWpP+4sQfvu7kn
7YVpgZ8GANCKP/4mmQC9o87x6BdiJW2WQOVhcWc1HzZmtRd9hYMqgrCiq3HwfiUa
o2B5o0gDLshgFcDr9vNq9wggtbi8Q4eK3VPwCJwTZz+KwbfVyg3/J2lInfdxoOWY
WM9XjIctzQx5Gv9O+0y9Bms89Uj8DbgRY1eysMg/Wwq2hCYiSEABFxtI6KoMAj/f
QKRCOgiGZLbTlhq09QI/qoaTiQTzT42cb7KtOXcMJMBE33tUXv1tyletnuKmuBHh
xFGGn0nbkdXTc1VHnMljUM6qLdcNwLU2Bbys0uGRJ/Z14geiMCcxzpgzVtB4rgmC
iN4+LrdyZE4/9ZWGTqhoIsH97Oupv761HAfW4I2TZUU7cN696TMPhbUM7/XfGIit
clOQSrmTwhgVxZboPk5uom4x6LHbcbtld6Tvj+Qd6LMfEwzBtgsRQWwt9Mpu1mgu
I9r0DNtOX7k5UWlC10D01j10LjABM3mdPT3Lo8Pgj4SYHrMy1D7Lfrth82qB9pzW
8i0CJgY3qWGvKtyaWGAxyDSf1Nhhl4NQC4zjqqz5UQ5aoffPDfJMsoffDP89Eqvn
Ftof9JfbdRV3GYRNRcweH6ClT7tM4qb6LJsM99kzTGvwMYUTHIu7j+yEFPQ8ZNrI
BG0pqvChFWFbpxIPWc61kv9duHZZm3mN8ErgQipEmxGUqUQamKLG5t03+WNnuiAL
Od30bmGozD5RGhWc7EMdbb9rN7i69JhcryVSaHm1SeHCZ0DoeecBeqMjvsdWcfyq
/525izM+KXPxdMrLqTShCKk2j7GpLX6DpGHzipRVFvTn/KTaqETqOf59fOfNAwmI
5ILYENPVWdaMiOggPMH2EVSQ8LqTEmANZA6pB2+xl1IWns33QVmOSsHEW50lzBYp
Nlz6xiQruulmOHMMvi53ZIRGdua/MMs0o5W0dmV8/zypMO01iHy8F6qqBYt1ijDt
usA6A2pcR67fX6wC+wY3gNGvxtd1s5GXmM9gP55avWtOch+n4ylg8ovygOiIDRAS
3+c3jacGUSV7gS3HimSRTiKKQwt7W4aetbar4ULad0CVrUYIUUtINqbHn+t2rk/f
asGQQYlFt7upzyEub9h0wkphwlbv+GJ8ir2gQS9OfHTykpzglYWg6/sSCSb09OeI
N4+gJMS6qH1s6cNUMFZClGje5edowdK8Nvy/PUdI29+wcy9FtT6npVy8ytbjhafk
YV8uG2zH3ST8UWWXW5Ab0bo2SwQoraXq1bF8goQT39ELQLqCKBTMdqf6Z7jt9drp
nxfFEzl4McZ43gIz608FuJw20blQiWr6I6RqLpbV6FhgcE+YUI5/9OX9TIdv+VGA
tsGll+PaXeoLtV+k8ugH0m72SB41itC8NCOMo1ruDn6A1SYdSpNw5yoVvspJJybh
zYxUzEzG4tpUl0LGcHLzyzGDnbWFh393wWCU06wCaQdtG+tZBtEkZTJTdwAV3wl6
D8aHaDTVUFgEORl1GFS5OcTQH/CnIQrqVU5YUgjn5cecPQhPCaYkuEOh62sHsv3c
EF5nGfH+Asr7jBw1a5CzK2DMvyknak/36Ucdldw4Tnx4mSJY2IKn+C6ELfU/7DQb
F3Wfx757zYCIbIJXHEHA5yhTCyxZgFhLUwekVszxYXLeFfG2l8KRvg8ot1wouGYx
iLdv8lAVL25A3nYg1i6rJ7w0WTswN4sM/YafCdayUhzrBJctYFVKGWudmpyTNL0b
xLK2IPdfb5uwMitR33aaYrCPWCZWfJSV/HapEnOBgmvxjLbO18hTg8Z4akd9l3ap
SgbFYpndL9yH5/QUPr2oAxE5Mr15GBH7u+L1EhdHV4f5TayOjNV2DpTXmS5Yw9cj
LOZS8H855hdP9K3gkmnsabIg4UYQ3EtYV0a3997ve9VYljde0WKFCg8XiOUTpW+P
fflFt5BaGLSugguF4wK7QyuTh9K6fpMf31Ltn3sX6PBmu02Ss54UUBB47qhUsFM+
eJboWWgq0rUY+Vcvb7L61atGEbih9NdR3R3GD+do+apZL28V9qqDcKNEVrma98Cx
vr1QEQ20x/RIkJfeZkVazF9WTY+bZEMKLg9EwdSYLU/kG04mbLBhCWB39wilfDwn
uCvtmiUevrBZhNaiCd+paJubzFvUuwtoB6v/ESAjCFYQg6KzoOy/bUyvGBaWrCuH
kwlXMVKeutOf1E8k7p6CubKXsjLSbvvImdh7qr5LnFjdUazcmrbLL77XtFo4xX1b
IdrFMR93LgYoq/rr/kPemFT4S3jdFTMwKZDjTJC4qSACdsLnSDAB3l0zSZE4wpAp
1VCHIXEE7f1k+tHIHPo9sOhkwQ/YYTo0ME+tLFRGNws8BfZRqpv2R9wnDA8L9doF
9/fts4JFZHOpblGwndeCA9gNAz1Wn0FcImByKtq7N1Hcg/aFDsH6ieKCyCmQUzym
rju0dtMy0rnmRD3ZmspyyWp6U91vSik8Xf9VRRKLa8Y78AXsvpwYIQyWP2VvBgm7
7kdPX0fgXjq76r91dSdVJ0QDWzai9QlJkJPfBLkYBvxXp4R1Id3GCzCadngrQg//
G0eVQboA46HiHfd7mURR6yU5SXYru1mRcrx2nK7HcSN4iHSDIg7BElvi7hkVomgb
0A8yHfvFqAKvm+zRYy+mUL0qcZJYI+qI7G6hvx9fbjk/DDOyIO906cG9OGefKhdD
DpcJ4R3S7Yh/zVIbRVPirNSSaLSCpi+02iJ+IVEirePyHg7yWTfLgv2VMCaiuYAt
onOSjvBCCIzR6MYkuHeV7RxaUqeTTW0unSuTmbCPfld/Fb+kQeIL5LMQcaonpOFC
TAl37ezLkjIzbHLWUI9DhPegAz8oJ0Pu39L/qWTWPELPEmUWSYSFF2e3mLoFNvMY
MhLQaxxJb7mHj2z51gG/GtrAXQO9yAXFQoor1MfjwilekzvNC0qJDPEP9zpxqdB1
GEbXJqkTTPaRp3AAiP2dI9FhLFzPm9THF2tf5S0jeY8kGX9w3r7gam4gwSEZnCcg
lppda9LRqiNy4ZTSU52rc8nickLVQhaVSzXTKUx2GgMDCiBN43HwYbyhdSh2CCeJ
gc82yC/KLcyn5AezzZj14GoNTTxm1UGI/JfjIsT7y2kkmA0ohkONfnD+RtNaL99C
cbJovT/GgpmomCJj0EAku9n2wCY8FlvqbRvHYW4+yPVACekUcEDiIQ6EwiWT29VI
hxZSzqh5ol5ZHbndxWCCKXMNDYXgxtSBIMCzQOKyoic/qLZjo7emcX1bgRsTOCHu
R4gd86jxGrSOaMmX9aa50XbwF2PI+CBRmqxgS8SY7MThapAAGs5PnUeKZTAmXhNz
DPwJf4gfakxtZbE3mJZk0CCjyYRLIInSAwRAqY0TBCBl/Kj2q5nOi6xkZMRo7fn5
CjzUBegefDKznFDVA0fDHDMn7Ipvs2fck4y/7WtmyVPN67qci9YeO9ONigk/7RTi
JOBxxPp7m27VBvkD3VeBlTn/cwrvnzXgTAmnHHtgDHGqvkiVWtceIy0zluz0t0jT
GfdLyKP6XfibLWOFIAZ1L3/n8vsDfdm/rYkhuA0TcXhqVYmx9XzCbxl8f7ux30ig
zeoEIBdiuPipIjYn5OXWxmfQlygXIKYx5n886uh6EgRDOfqjFpasMX04IhQuLVNi
z4P3xglApbIm4omH5CbpQqfZmNb9I0q8n69F7dmo0HwO97BPyVfWIOcbDkRgsk/9
1VybYbBcKK/c3feGYp4VNSZOYfwXr/RcItoMl2GufAJsBMse7/wRYS55IDcMDlPe
eXcyb/2kTCLFkY2F7xBIbYH+d6qZZfUQ8NpT5jvPRPYnPgVqaTyJBaVPM5ZyYp6l
r7uX+V5ZJilH093KkdyIt3dE8xjsvdGO8mzDhLVIEvIoiO9JcgtqN0bYBKKBqSXI
5sQihHgJfFVRX+X8zJDEOhJinao6mfp51d7sSzoPES66Sm7pqMnSHVg4GsoWAQ7A
4ErPq/PCSlYA+n/o9q4G/jA6DlHm5HWSrjt2vhFb0zCbmJ52n+KY1kaj2GNzVngQ
qAYl3m+K1aJkrO+SxMnU2TRS3xBVyG1P1K8DvoWiYpIAhVlLjZc06wQBK0RjbJb3
SG4eq3H/wCoOIqxt6U5A1WhDXcLlRz/twVy8UlkPPbRlVQGSbWy5IFjr7WypM1P7
jddbjiqynC1kfasmGME763wynAOWQGNw8WQX7UegrmPH/6qeFHfULswV45TEwlHY
UIc81Rzmv5tpkZy+Cj28K+VdbYTX0wFziYH181XfdQW52KsMRCi3HXU76jcot0U8
PxaTztrtTN78QITEtsDBCNsS0Bb8iIP5tztFH9kkSMsP2WjbnA8JEq0GnmPqHH3h
sSo29awGE1Ay9/rKblHbPUoumq6/Mv245OL3KtKpzutYEAMc+4IDTtuDMsup24Ih
VJvd0lTvBUIEkGV2l7hjDtS7WCVyIUfAVyzl+BHtntA8/VQ/elfBhnmD5Fx8RRYk
GP2+h9TopMtPKI189OYX5aalRTrmXnXDi48gaLLY6DfXo5GF+5AjJ36JoIQ4coXS
iWTW3yD7hj5xKLEGGCHzh652ro2poV/1N1bP3AFQGZEyIeYiLuIJ9vkJsv8BE6FH
C7hGr5bK/gAot7lv0+sFmRsArV2sE6WyrLSLiQF9C4cviNtxokPr7nkb1fUCzrx8
B7AVwD2ppSG7UZU0Rv6QE4sOiPciEKiA7jZObgN1x/7/wglxOhH3UF+WkAmCNClq
Qoyrx8Hnf3zgD35gj1qISrMpcNGOthXWNL+9gI63vWVAQbb+V9NWQfaTAsZM0V1h
fcQmioB0GkIH6cRagN2Jx20SRCPvwbxggsN4yToN9OYt0p9WtiYcFQqnKZlJ7Moa
shIqJphCImg+FI45M4pruBg+Zv/A7I39Qw85wURXB7eO73h5VJWuwCvej5DLOebh
Dbs4WErDD8aO+qOOMgczM7PyVELkHXjJs7MhIubxTzz3lwbCRI4IR02v1V0twipz
NieQbG12KrpTzTht5BuhZSTk11N00HoQE7IyLdndjSIYFWPIwW9+Sr7Q2GfEU6GB
9r/VaqjyZg6wyVTO8c9Ww3awqinWiYKB2/2F2a4dsxgwD8qubZns6iLyDp9OoFi2
ab9iydL/bkGhLyJ6S/+AFmuIJjkHIp8bgYh6LHXoOYBj7SHfprsMKfnrtKW3IyZT
dtpfR++PRDAL0suAcSbVR0iEEqJ60ulKAXNyTqB0iOWSE6bh7g3dklR7jOKERvbV
gcmKJgudom+lBKAPFEeT84FjSeiVjRgQf3eCsWdLsp/K8oDsQlc3bLP6FzC3D2/7
6GEtI0aswUxgkFwc0yRYlDXkvT6A12brbL9LjmfTzZKqUvFs834ppRg7POOgl+2U
VGIEpD7AP0jzFfdlzmCvfZVR6iF1VGi+iTCc9FOP4xVxExSzmDhiyMa3V0uoLbku
FHJ52tl8ooSgDBScOuJPBAEg8doDRpfGMk1UdlCNJA24eQja7248Bgz0DHBO7Gc6
WAuc5SQ9XkUMdqDl8ujulsG4XorNo3PES10NBESkyLIX8m+wgw+5CY4H8kVLh1PG
NZUGnk9msgQhXKR21ZKEZuPjXnn3Mk9DIdQyG/acAw6bVZPPWYX2Fda8XYp3UZnx
iRHVviwWcY2Jpef9alrmcmO/F8erdr6FdHCfRHEORHM1CaUBboCdydQtY8tIDq0T
+oqGndQXf8bKBy5xE0PcmEoKJ7BhVUl3J8OKeq26gyV/wqP8KUo0mzO/K3Rqyds8
v4ZlU97fjHMUX9LoLjxRec/1y7MS3LgbkogX/5cA2CQJauGd3pNL4vWDOc6oCuk7
gdS/y0aWIu6QhksVo95IvKY+ClPVyLFlKGGU0hTwDYX+Gv5dRChj3OwO8Ia8Oz5P
i2Hbjlu9qTzcKoIAzkzuJN7RgurmByQg3i+xw8m6KHLJZy7Yj0p8CrAt5vvs48Yf
s7IuHo1BlW+8cpoGNK6h/0FM90cyMBeVkcHl5MEg8G8K9GYAc0Ow/dUFPXnXVU0q
HMmkUyJZqROGXun06zZ0hYQ7UG999YK60gWeRCPi2E4IHiXXqeWm0TSFrgainbkI
eM2KdEGCk4Z6tDFFxGaDF8TwXRFA0n+p3BEpZI7NvZVADGAxduHOajCZINyHY0uJ
nuFlTMnVlV6sJf10tQ1T1OGRfjyqcJv/WmSEty0Jm2ubq8b2HwjuKrHp+SV4eQFG
Or+UyTGM0MKnFK9VmOon0EXyOwU+NRaha8k8lzYCxBCKs8/UBluyAsa7ICV8nkKY
KhS3SbUYHBI1KcfEMqzi/nUxPchUgEEzCb/WfNkr/jsii+xNauYh5B08ONMBi23J
A6AJhC7dpT4danPNBdvsMjQr09EBoWbjFIWhNka+GiFbGoWWyShFwF70sPFisheA
i7qXVG/lUaFnOIixzbwdfT1Rppzf4DfgkPlwxOy8UieoF/uRmNpNTj9CIIAKvltk
zeB5Y0n/7xRVRSRhUjF7ni/wERnD+u60bqUcI4D8CqAJqaiHhVPR+4j9G1IrZD/e
pm89NY7hBtrksBklYFw8trAGT7WhWOpKXwqYeW35aXFSCcrKfvNpNu/N2eLHvhmN
HPcgMle+WqA5wXg/ouriVy6hEwBHcaPiwOFcU0T3bt0AT2VBJLM7oy7tJpm2rVJ4
U/VKw1qrgHs3h54olAM0OkBkcuJPdbB/Ci5vkZNF4KscsKOHViFc1QaisB/Dq80I
+z0WkPz1L51VNJUZFF18HCkGwAPYGGuVTqWFxcDlsbKtSEI+pMrEiU2uppz9KPC7
zq35ZWOf1LynhM/JIpnML5m09JBteR9Zpoe1YUoMuk8Crj1KydyolItaHD2MXHuZ
rdyn/1ev6bRWJEH0QzxN/YFpWYalYwyfKWpngE79WDi8jixugEQpe8QGrtnRDLEd
2SQ/FpyAZqqV+mrOCzy0+91S3hd/5pCpmzbm4bGS5y6iTs5sddpPXtDQWw59f8Yv
MYKFpoTBR+OpFfmLmY1DaIGgcoLQBFStxtPDIod6fqSI/Ck1/BIQTx91rsjnZeR0
FJynghjVvJUi3q44IGTfFAiDXVD7f1PEEzKFQAoh75aIcKonX+4VbZzolWM68P30
q98ZRXi59f9TmSEFVEua9JCpU4HmP2efNOi34hJdg/7jthW3+cbS+eLlR2GIb1TB
RvA0ICXO8re5PFYZSzqPBsYvRvczbNq/bOnoz5ad8a0YKodzp3kutTyh7DKFofU6
o9s/B69Ux3ZbbbTTPAOHYz3BEIPhuxN0MLTFAy9+qgKMY5pqZiey28V3WDMwL+0g
ee9x7Iat8w15qx1aAgJOQ/dnXx+b973CPV1/ckWerpAboUjwjFxC9TdgEdzlgIod
DVGGHh5fASI/AS3WJX7UKUL7/oU8tcaL0IMooPtYXcH8rvmmrxYeNerrH56efWKd
rKtFeAfYilOZA5BkIR06wlPDhc6xXLNiARMu4GowAEux8+1L6tyJMhq03Ap8k6i1
2H8onZHIw0lqdv9B9c2K6uwlyoefOCcpCYPdJYOCmG8orqvu5txZUpgvyuYRdgGr
6yGJ5sAuVrUG3JAaLgtHrUzp6959q11PM4E33+JofCHstbYkVFrWFsNmqQcbqLOV
pmJlaI4XYpehc8911MqtJhSRGGwy+bFEylIq7p4R9diL4zT/N/W34KcHVqjRyV74
6F66m1Rr+Gc3G6os5kjr+yOw3SlUWtttUB/X+tsA6V5Bvt1x9saM+VdhyXQW5vTA
bbJqc9g86cvXdT+t224f5cJ5Da0kI9GjjPZ2p4d2ClR+b5ilE41QQwIZcnS1UilU
jpAbI7FiTQ066w2lPtXjoWJkodtyW8zOlkrr5D3SvyOPXoOYtQR2U6YGV3pQ0zRv
xcF2pkGvGk9kRDLCcAtSPOISABtnhOYEVK0Dy0IDvQQ/A69tgVTNhrXWdSRoWgiN
4Kr3/oCtk7PEyFNJPtF5PVh+mn3Yi1y4ktV6SFsDTzyaFHWn+mEsx/vMNa8QFthq
k+xRS8/DsHmc6npBIOS2eyQtXNbYD1xMjRbW0Xsi9TIefFoKQz9yiyJsy85p5D9Q
1UgwNqUihcqmMlJGtautBHnSUQwAUu0FRBgqOVVlLbOXzkMa8F3AEQMS4oSMSn7O
I+Wr2G+wJmIIFpTJon5+99ocqEtQw5tZt6KNmogpDFtpNwhtfT6CJ5eLSVwiIh82
U+v+bvXlCM6ZDVjO/xORnrXZWUdVextCwXJDQUksjWxqmmMbCUxgLzycMqb0gZI/
lHmmGfZ7eERod0ZZlg2J1AHJXRzGZjzStl7gNaUWQlMAXMN59TJPEICJAP/1Nhn0
UYs7F7U4Oazxq8u/ykYCOv0bbK234tGGNN4Ex71ZAQSPYNHK0YDGJWHA88fSAUUo
1t61+UeFNJpZtyblNz//JlBYv9sszdmvyg8hxLji4j6kVYKg8c+KkduXB0w6LXMq
3FxomSUuMT5CFDyMrrDh/UBwxecCPacNZsyto9dKCl8mUwjkIB1b8/VeuQpO+jZ6
+GWW40RFo/U1EyoBY+/Vk+HJx07Y/EFizzzT5MjeeoAA2yPeucmXAwsn6iDheKq0
NFSnFtNJD3/vAiF2zjhxzLFZB9wHrfT67Ld+KbHYfx5QaMAzAs/RNXoeLl+iDUna
8xnnvsJi+7xf2F4mHyBbtgbPBL/JtTwUdY0Lr3H8xi9oVD7h+ghDNvEP6ucrAxZq
5YvLoCq4MHq3M+AKetYeT1JeAyeG9cLDsoeD/kzAfzXzxsJH/Mev5g0IviaReLZA
dURtIemCQm/Ln0rgVaHhGQgXOs8sZgaAbkDsxJVSMkoBICj/Zacic8gKBqfF+5ul
XZRFJ2AjNTNOfcOAVCh1SBus5/0jgX/2cQXfZsU45ux1yrnXYFC6rCI20gvUJKdm
c+qQi7sWZgR3XzBXp/wfx0NbO/ufBl5kr5imtysQp/pKLbkFddD+HJxQhu/QTSeW
0fHhqTT2p+O5ur+m/uCCf4aT8QX3RaL7y2uD9CVKtD0PhqRhxoZ+jgIV6c+SMlMx
FHIoAidvyIUDVDG9rSRqgokKUiTDahR67RbsLXT0XMoJ2l0ZkwE90yQSLefmLL2h
zabXjaxE4uP5ASYHZ+RZSNGJ+QXQK2u3RALOkQx1pNsowCfbXSt6nYdiwXN9UYDT
nJrHxZurqvsFnWCf9sJT5RENawZ0KA8DVswUb1WejrsoPGtXp1csWnW8qEBvodsy
BY0YP/q9JsHCYbOKI8U7302rdyIfNad40JFzbxBU6CyXt1bnQgrNdykjWovs7GUI
EQFTTpLwRl0vXSPZjuA9BIt27TDOjYOmidsTNKzIJ0HG2TNdUASsrnhdrinHYjHR
pFKaT07SwxD1WctV8iK6S4ihmLwWXhyhUwEvRu6pgIKt+B9bOEjQ+X/06OiUa/Qh
kM1R+QtSBPIPwsQHS30TsApB6TQoClB5wYQmENJWQk8WjnJOD+Wuaf9KVf636ACm
62Le4ryvpMRgPXE3iu2bSC6roQcK7eLps2pcWCeAYA2bH6rHmIv/sVcYnWQhLSVD
fC3gw8bfuXwplD8x/vOd7F3Z8FUzG2WSywJ73dJ2CfQGKx4gNtbcLXl6ctXschA4
Ka/3gJllRgAlb5kvPc5b5O4uWHzPoSPHxQu3MGtV5NWUrnbQK9PkuZ5af2c9nTwM
EQEM6Wnd7O/fNKMCUztsYFq8WARfP+wLQ+wt9YGUy0BOXEVSC1sTFW25ianfqjb4
AMvKyJqAzijFeVJheopwWnzF2pNusFBbU6cqMs6p1q46wLttBzGMug3XwOpPFlA0
n2Ge3+BcqORMa0+JgfTtCrYzaXEnKB363wouZGZxQzWrar2f7vQVImrPy2PBS2aY
wXIxsLKT/GdVYkRrUJXMS3rAjFRavjuDguUr6vUJ9PL1iF8wAyiYqsNEFqUKDap1
w6rhGlCyCG9G8n2IGOqjXKB7aULlm9SdJ49ytYIZg9C+f7ePylBeq4Us1tcOL26f
5iAUWTKf0mmEd8bP2Sa4VqQC0Y5mNG8AqTEqCQOCM6ULMh9gcNXWfIXH+N2RujBY
Tusc5pWvABhr4m+J/MTdk/NjU9peY1gFBUlHv85nLSf0NIgqpo4bVUHnmtcRqgwE
ezPoTd+m8hzXCuISzS1WNri00xslvGUeY/Oh9pIiby4S61/mmjamjJuwO+7gmVs1
vq3la0Trk5lL/cXKpEgFtnTpIqvdU4iVx3CDLHf4o6pWTxyMYgovT71x+6Sn0LyI
wYc7pHJg6ZBkMKGIEsXoC+bh5yLBV6tbfhqssC8rOHr5mlzyyY2mLytYD+ta+YrV
XmFfMOK5mfT9jW7VuPOeuq8E+6m/OTPmtbSy4NwC8BwWVwbexKRo/u/Hllt5xFio
eHDFSxZKk8z3l4ylZetyDPVYhJPtW+1izTkZWLTvldbQCbL4AIHOHGPflDhBXxNN
+05yl3eiFWDlYe9oCCQnNLqMLTZgjddh6ni2Sa8CSBhkYYJPK14xsaenPbdyk7QL
D0lh+9kuEN6LcpSzJxFTrvb2SLnqJgX2m2yglvYGhNPV4J8wAP+RxYZ0UPqitoF+
Z78k2+urDAxaYx+s6SphfPbT3RgUQU8+r+sDRwqLKKa7H1wx7gDOkMVnGrHldAv/
5hhw7qwAbC+lZUBRAaKhBjPtsK/5kQ4nTr8N6C1xOdxcLDdORmRxIQKNiE8/yVb6
sSOG97CobzmT0WSLylCyqivlHZCfdbmzKzXdK4dlIzrKvgo4d6VqiOmojEs4HIPa
h/XUSXLUonPRDMmu7zmTjz0T/Sd+xNPL3JsGe6P33R5X/eg5s8/TwBKMrIpZpl7n
1h6wCb6xoP362pZT8Vz4x+KvSj7gm5td+TMXEtZsBV0rjavCVwE2mHDgfv22Lpq4
pk3r27gWZbIrcs8Px2Hux3kuy3h+Ttx7+9pG1BQUCctubJBh+EQHRksjbQE+dwdN
j1BkyyI6vqkndlHx0UYUpvyTSXRIHSxeltHOW9iB33gUOxWI6u7AEWHEguiQVL+m
ea15BDtfMLkxxzvneRCUYDuTOK4ao5hTRLGi16G7m6acSdwRNVTHL+QQRBbSlHeE
XbdDe6VK6dxNmP1Alt8G32/km/eUnzTJJ8Pk2JTUtf1PdMDRSPCwcgFVfbPJvgrt
HrwLW2E1EFZdU9+ErhwqBuhbxzrzITrEF3JarwNVED2raIGRAZxpluHqfJXEHzLu
AEIWEbQ7sZ4o7tTbu3LGNjIvPhaSVaNl0FQUO/UaYnQZwc8bBHgILLvu8qqTHvbR
t85RNXoOFa2zeFCJMtXL9QoQeETkNzoNP1ipypMjtC58IyQWGqcBb7j4i+56XawH
+CpKaujkANLabzGLK8+AHe8JM7rPWnu8O8/TCss7Jbnd/v5I2rjnoK+YAvFcWA2T
A0RmNuhOSU4PjKOd9A2ENXAbsW0xk9g5MjfcmPNBIfx/ZVgG4CuIvZkFfIEpT1MM
K8uxwL7MKoe7XyK1y7E4uEZUz75Kvcizw4YutH9xnkOrMKVZmBxTCa44jF4ircHr
NptutsS+IKoQpHeTFKFig/w4LuSvNIFARPfWv8zfNEk2cHEmgPNnlClYrt4rMFPo
kN7rV3HQJQfvYwOKM6UlFrap/sdynLceKWqr6dhhkDtUR1L2K1hqUAcWQRh3xxai
sndJRKOGsUGIh/gV0r+mppifm1kjLnp7IuKI5zMC/R9yONdjWKxN9pbx5yqvX9eA
nB/x2c0YVVTAeN1lIXkrs4BeXC5XdR9d7VQBhijWikr4gZRxxWH6Fl031xfFqpAX
wQBFb++OMUQne43nESgeaelr1qF067KZH4jhKGHxVtn2KYEKawAmwQnJ4rYTcP5U
+mi7xYTG05kJfdjdh5OIld0O+vE4SfnwZSPztJGoyfUCbHFsIxX40ZFDU4ejSy3s
+AkXJ8AT/wmSmE66K0NccTv5zuTF016wHAYrD6ish1nYey8XhKvkAwj5KF/4eru/
pEiv6xrqMiDsV0nmR0ryQ8MT13J8Y12VubcOFVZI1wvb5AhgfUKmtmXGZ7zGWjp/
O9VVEksHj4XMSUukkZdISRk/wQqnP0FBPeruJGBb801RcV3BMlbycyV2l5tTVIce
D8hoNe0Xd0R36szXS2bw7jD58CN7HLSXmT0njP0wvjJiMhgoDln9m/khySRXdMtE
txK/ieKHO0dFg7M2lNHfB6e8ySVrSJBUINdb0ykO6gDEskEszFfA8ecQqVnu7meT
ZhDfAEqJCXXNH60CrkTUUwBCN/N7WhIl9qAxhJPAc8zEg41olZVBNsVq7TjYF1BB
T9hmYe+8+8OYnGkkvKMqhtKn6s7GvnvWExMOQYl5cCnBLMBvxg8gjNfONU+kD4aO
OqdAkDd2aRNO2VEPzN6a6A8SAjSPmjQAoPXqcqXk6ywAR3u9nMFsv9SyGUZVE9i2
lSN1H+JUu+ITOlymwP1bdx7BtHdPSQ34zp996IzG7Wf99eLLRB5p+jll8KUC7qtK
AazJ7724O2ZxduWuYD7g+4X1ppxHKrOHiCGuO0aiMVjvVCLlJgkG8NcypXPRGCbe
1/zMj72SGVcDVwIcGY+F4lk3zc2c+v2HFjK9132I9edciH/yre0qgGoxMj9EPy0n
ZVeXK9oHGI81fwByzeuiWiHcj8+fFqDqcv0mOZDA+iX7g8s9u3Et068KbhrCoH/e
o3IuYe7W34vmZfSZuBO16yEIB5drECouDrDEp/Ir/MDselTtqxs0r/8PumCEx8ii
cPPKXQIMav6fNTWZn17/YFqupfPa8tyG/Son9B5jZSRjQ04n+meiGBrSVoqidtaN
0rqMuofx1uOk+w5kZDNMRSrK1egSlVV0B2oCZA0XYMEAiJp+PMD7j8Ic1RoNhtXR
8DdxwKdnG7H3PFITCIog1eTmjeC41eUTeYEr3XZiNAnYUQ46AOZ8Az55WU5zSXA7
1xBmUrg5Ya3Dbt+Tx547VD2Dy5FR5GlGIy7aZsx1q+ghaf819uRaWR4h25NosQQr
CritE1UXL2Lt8loXmymyVH289sluxSRnt8FvHgpSyR1zWylHwKcT7Wgt7LCHcaQ5
iI0T0uTwoWFXvNJ4dDK8DmYuniteXTF7PLdW+VFgGY+Mo9byZbLBlky1wpmPTsB6
3EaC8v/7OG7tsHC/zCa/Jh/V0eOYzc17fAM8K59Si+spOhC3jcdwZUZ/VTgRP+TP
r1ox1HaiqSyORHpYchUs2/unb2m22dgWxIH/IAeJmpkotHTjhk1armQ7U7pat/kw
rRURXleC2EiHIiGpwGyN2Tv7IICc0V+jdxXC10FXCkniK0J6cDn4T4x3q15JiAxe
TubzQK1bmESht1batNNldvskgzeJAOEFxfnshgw7CafOyLbLPSDNupfJC+wHGSTT
PDQRMPjqd/KqML55koimErOd3kgpxLThUNfTtdXsK7pWCv7o6dOekDdHdRXqW85A
bECZpqCNoVUE7qo6D9I2BqIN3BXYc+fFldNBYjsg+bT+A6a/eRau7V4PcxbLbvDW
Z77DPGWG3jq3NI+cJae/2N4W+srcve8XdJzIqN8kQHMHsEyE/vyjol6UsPUYfub1
bUXECwBAvwL5IubOiZvC1K7BIdybqHAMbvKh5nqglH9JBSuAYwVxX1Ype7jbau+K
zrImTvNQpGWeOtAZWtqhJyi1DzWax/2T9rXkkRDkpvCEEe5v5GLWwvAeolOuvLc1
zPfyitcf7L6+3BPu34MejMv0y0LKFSMoAND3v7hxTJEoQlXSWESUJQY/IRi9vUHT
gIDo7XubadOm8/GmgNesbDLG7F6Ir6/GQzLvpzM5ceUN6m2/82mMRzCMWPoHMWlt
E0HW4g6DrUuNV94tgMa3eL3HmTgMZUZtHKqwPzDXDq5NtMHOyZ69O7Jsqpw/z7Ei
Hq+r60k0AQ5iIXCQd8xlSjR8cjE32JeKmp+aKtQTz1M7U6LpVoa6t1QdiwmboYu1
jCHeNJxrxYyLLae6mObjp7YCgO21u2ZhpbftabiL3I7uJH5lDPb/EP4+Zahd2CMS
AbbH9avBy92kM0zNodOtXc3/BxC6Xr3/HyG4NRmjknZv62lDzKhCT+U1DCS30anG
7yKeiYQjZsxBpgpXfyGG38/qKpqJk4fiiVMSQbqI7RRNHjXIyOuAOrEaQ6ryMnaW
fhZC7+0G2r41quS4Kn9pyiEqWBz/prOZgvaSNErshe/63U7ij+ooFIw60gYDl9Gp
g2nfKUysy/k2QKLfFLy1/Uy9xSCxbeu77J54xjdNzlfcrcl/WMurWVG69VPuAu/u
BfBatGpFmntZqApQ+Yf75Dnr+aKrCzTifH3ZlaZk9vVOW1ne5RTFsKA8wg+iDIu2
gecd3IiftTzVjxz9Y6lM5fYmDf5kQ+3E4uwCUYNToGIgYuVXvgnYuCiu4LlBhlIm
XJIjch36J9Y1Q6Ht+UVXJ0OaIw0By84YxrVz5O0wBhQVubgDuKCjXq+xsOqWu/D0
T8sGTjoZk+rQy/O/0bq+XLxUgcPELNv+Ff1a/jZInhNeKQiypg7hQdjwRurcqhul
8/VoL2YDm3D42d7WogKVT4L+e3KS7csd3np8Jx94z3Ow2lXx+ki6TjjMSRio133b
HnKAbCGGsMw1kykZoofdDRCh2xe+ZkRVPSUAfE0T0eO6DIz7ZQj98pFna+jR/cDf
FRO8tX3A78gIoI+gSf+vVt95M/fQREqg0AgHUxeU8JvcWJulG23Iv1NXdESGBuOg
oV7SAdzxFqbdD4o6BRJIkxPePOB+H2OZdlQD7NeWAvYFNa00aCeZaUZuzFUMM5kH
rnew+G+fIri6q4l4pNw2cXkO/aakC0VcZXhfFKuMF3Vd7gNFi5y62bK+dk+9DYxA
NfSwMVtFd+s2V23KFZjxfxpx2JLZfwY0JF4AOzF4JwZStJX9ro9BYpp1K7UyEZB0
5/yuzkOgr9RaeKAIZY3jcArq24PS/TiBrX8nTYgpc/oh3LBd3+E4pXZyfhOZWMqu
X4MsodlEnrRfljtL+Vri2VHz+f6y7SBQIRdjCXJhKpdke8kMqz2VNW76cjUm4Tns
TFMCEX0XagwYhL5oXhpZ2BJHu+e8xPd4JItrOBafZuVycC2Uq9n/hywzIR/mq6nL
XpHHbowRQCu6+0d0hNCRd/orfd+lkWBupfxaes9QVCoJtgrmA8GAa8hsDAZGHIJf
b2XPX96M5Qj+F5rWr7zpRv6nDHwMqBv8Ff0nWZjy0s9q+X8Nc4CUNDtf7s5IrKzS
P74DNTsIxiTdRPhF8GJPkKFzwqHwGRQtzTo2YQpM7XUiRNXg6YaxSFx+bAvoxxJs
lhn+RNzsa1Yn4jztsYj3D7EsUVLBZPWNJVWMH6lllXPufGk5Sn/PZFSzce3FYSTo
rqbEvAz+o28Izs+B2soe7E2JHqMl69xneWayNE4KTiPY1aT4O0FxM5PC5RezTCbU
rpMmaKQ3VNTZ5ImmMBBrS9YtxQtL6Otcfy2KjyssK/Aafv/fXv81mak18zZgZxgx
UCobqr0nIAKuPRj6SWMVxt2DsaaxWcHclFlvHXx3s+g5Jv1w2KqEnhn9FeVn6eMd
FoWNbeAaTm+HZzGSxqMaY7xpev/uR6XVGw5IIuHaAFfyP3RKEYhNnCIBzdFjccdX
rLBMnPAl/Dwm3QUpObJknYZpdrDKzvdo3dKC/+tdoYOMhLebmNuIuioKBAqij+K8
qzIEoqWsPFV9+EeuU4l3WNdqiOAIwNl2WDQzBFeyJiKjKt/ayvkso0ox0Yc0Hq0Z
txT5ooRBeyW6cACw+2mVXqcULpr8fU4SoU+YN76pWkVUCD4JUhQq+cqGjJ/P4rPX
zqhZfpPvgqHSKa/Q0QC01vNtd/Tj3tWvKdq7LxeNbFSXsNmpJSxmiv8PR9yxyNq8
84xXf6/IVP2kDRLfmPfnwRBbm0mlglauhXAWeir+ztBcYpzG79il3p3bEuFjgnRG
KWQldpx2lqLxf8bBfX+kZ8lUVyhLaChDgG+kb3JGmx4TKdCtJHXsxlIPPRydhKfK
aLkdb6rFmAHBiPe0iWxidkKG3ClQLo5jyvaWAN13W1Fs3iahMw0YKllP7BFCs8KO
J4xYlb60RVmnMLrmiFviWydKgqVeEg+KI30ksVu9Uq2pC+M4gPPRKhsqrJZmura6
+XFQxn5yGFR/WqwB81TUnQbmp9bqdkbNYVKqGv72sf0oNheTN4rvzc/KYA0PZik+
ATbgrt3WWEqlvIGhyJKtqY4jE07jwEHGFTkLxkYLL1xOBeWXUNAcLLabIEOO1tbG
xY3cFSI6HnXQiB3ZrjP0bWqJz1FfCRA8xankxg3466lyrv23DNvblUBGzCYeyul+
8myJ0/AWfX4K4pk/I/5fqklVW71CHWkqsvInvyEFn8Hz0RwG+idUguRv5D3i40qR
G2RJAAh7BeuLN8ND6crPYT7l4GsJ4RJM0RvxVvSCJ8XtyA3qdzrwjotVZIYoQZBq
bs+OHG4fElZIgP7+8OesK0D1maq8c8tUa0KSIM0af0El0SCH7Zl0ph/zA/VrrGzd
UmaOD60YZv3J61kWsX9znlDckyrqOVGkuhAdNxjR24KSbGrC8xHVsI01yem9EPqx
kjgEMHZLzKfJYK4IGe67g/tlBimBjHJa4kgezQnQAfLtT/KsTdpMIjkH8wE978We
oQ+hOObeXRvY/jqeQxw2XBeQJbm8/JzZrLjUQsA+E3rCZLiGBQM5WZlrkgD9uasX
klMSjf6rwbf1G8+CkOTDqbEFcwo5XwqOjNuefmfpnHFdfvSacJ0jDEOrxNtmodyA
ToMyRU8LTNhbmYqJN2lfwc1CdDSa6iXOdCvIxQ8N9pfIIUgUK5bXRvK9VmFPnxok
B07Bgo0G1m/8zDZ45+rndtfoIQqdpz/Eqk/fp9Y8PuMC2WsYuj5gBXje1uTLkh40
R7lgnl/YYFk3nnhbX3H10AFp71vG4XoNO2vaakGXME4M10znjUqVvfFYsT175ib6
txlLxIjF5XizPmkU6nvkUW36JZwxzVyUuAzzSU6tQlMMCOM/LIsF+sexiMxDmmXb
XDn5i3ZSLyZx6Iht8hXx4EKCzedLnf9XYDsZU41NW6dxKzjYjPAC8hKj6IXpChVN
hz0k2nD7WkXIN66s2Z02fvxVq/QLzP1SQVk3vOdm3iOlRQy5jGtcgRPCkNtxd6y7
8bEKg3MHvXVde0h9svLIqfEl+xrEiIN2YfqKyouxBRwlN1kuJZ3REqVlOn0OUMUu
WX1Mi8TaRkT8KKxdKQZUMHk+Tnc+3P/TIE++iNy8xCc3o5xQKVcRq6v59VewsAku
MUnXUgHHCjzALRaCmvZEvPI6j8ZvN+UXmfJjZyUFtS4/lPYnW+6sUcZjgARmnLUE
dvkLJlEbQvidbpFysTgxtaJkkt66IdyNnjBxGz+MoBfkaf3IBuhLF28pDx8h0HL5
/APBq+oHmvP4VXZVhvmgKGhVqOTNofo0tqb0B324YV0AcObiM2mcS3v0QcqoV0Cl
Kio0eWaL+qHpGV94tbi6JG8lUnlXOIsf2vJHDzsq/SvYvneyED6428ZYzGaGBzkG
iu0N8dU3KSg856KVnLCTtaJjYX6KxLr4hXjFPPjs3wCX3w2mgKUKfp7zusoI1+vg
hjXjI8KAvaXfX3eo+H6jRHHrsrwDSuMUUt/Fb3MilukuZFCECpV+ycor+e82xgk1
np+Mc8yIBQVKQUpYJvL4gUG8cd8uYRFEjS30uToK+/mgLQLibgKF13EvNiBWlIXH
ZkQqR6Ryq44V8oiZVJGaQ+QcLkA/IMGRv88ouSmgNp7PmkKsiz6SBZk5W7hdxKiv
NPXbcW/1WhB5DuvV9ZzrRwDdmxjV7yD/Aes3aEiDbAfo5dO0kG6DZN/r2R6ts++A
2bjOACryykIfeeK+pZaz4n+B10NqSdSEao1W3DPU0TtLGnyDhjrHp3NoBVBtEbG9
RCpshnqNdM7axSULArhYryHOuW5RBK4uA/DvhXUTvytVxYdwXrvbd/iQusY3PYpD
vZA9/jMN3rmk/siaGWgPhrVGhP8mjKBzu13ZC9xKhjva/s26Vqr/6Ie4FH98nGtU
YF66fWRTKwNUf+YTsmOyi2HbRm6x/87FyJ/D684gal4LypaNikke8eR5ZiiU2m2w
Op74VGfho6nJG2LyqW72gr0c83SUjTi2/5T/ORhTQQJN5CjTgrR6QwWAFuQTC9c5
IsV9iUWTmN14yVSkv2CE1x2fbVGP5tHq1eQYx9RIMh8/up4CGXl6IuRrrsJzIhFf
uvZEh0gvWC6a9y77rdEZ+eR8GqRaQD0t5PAHfN96kM3hA4Y+nPlaBJT7ATedpnv5
+zlITBvc1BuYOja1zt25ktbLFO7+Cmgkr6flk8YC71WZEo0O0od1D8xUWhkKiTpn
0WttPm+WN1FIRCtPFjCzgUB4shersOqEh8xcWW5dVrNybPxpm0GWKFVFijF71dPR
ahRjX0Zgs1kGjlk83j0jtOC6iADcj0aoSLHxKz5nctk8Bv83+q2w7D3VcX+VSMcA
Ei3SQcc997wJWA4MmLJADXMdUTT1Fbnrc1GriPHjoJlLxfGCdaujVlA5KXQ3Z8P9
Re2kl1vuhajqkvh/WXJHbqYS8R640jb0acXDv9nUy3t9vchyaBX9Fnb+jFZBJ/2+
hHRrp4b4qvI9AmwRMn2tPABshMxyhtXOW5/ZddfOlKqHZpmj+XjUZ2IclyxmHZMF
p8PhldsXDfpFac5aeeM7wZr1DmsGnIf4iZsgWXQ5pPgeTdf9M4ZJn6kOVHWnAOk1
Q07aTeSYRxFLczSxRpGLH/W4EeIEVWbks4ephFVxXCRznkyfrPRjCSjTtZ70Ilb1
8oj/FE5mPVYfIaI8cF25JQ6NSZuNSuIu75Dzgx4nmw0sAz346mV11U/gzkhZ8tFk
VrX3HAsU770bETmPDD0XUxO2CmxRwovUJ7CS8LNJy/27DFRsMfayfTIO8ggYn7Qz
SBX02eVkSI+2HMNcXX6hd+ToL98wI1ZcfukT+HpOTQ7M1CxIFva+s3yzKiDQsr+p
/wgfz0QjPcShAgbjDYrhQDRIp3RuBh7j6a43yZx9vFZPImu9hHrDXmN7DXE+DOs6
yyUOkokow+i4F52w4MZPAL8uS2tNYKW/ePRjXu/OlobkEKNQCTLI8oxLf1lD6Gw6
+tGDKzK/Smm5HRqKue+Nv55Gxc1zSmivb13CEgp+xIKS/48ey+z2/1auXUdsiCrh
vvHwKEnDrstKP1E38EH06cyhS170706sj5HnubiRqarvp1tvtEA5BplK3eYXxMWr
SjlKExL5LzasNw+GQMQ7K/BwIf6jgzGeZx2MOU5/9kdCxzl+QwhjU9CJCrAZboUY
K5ma9vRHUzY20V2o7SyCsoNF4M393ubIkc8vQQjzMeIkYKZlBzxJQFznrmgYV+nK
fGHzkOE1EwHGep7aBfeKjZ9c0Cty+kUy8YcNBQBQs/9FjEsTmg3Qaxajnk8lSsA4
rw9iAOlvHwLQuKswhelPlpYg7xpYJbQi/TdXVSXsQivVw5kTEc0ISNRshDP7zDFa
ILeQzrSch6R6e8VulrrGrJX3Yo8YhCxNVihHkaaULIX3MLYtPhwG+1BCDGCH9OBo
C2i+LN3cYVVcjdNmE1QluwuPI9PAkxEqRudepYee7x6JxNwERp5rhgXr0oVvcFdE
XC767USkc7ne0hWqqG5/d1tbsQkm9fJrGpOi0WBkQA1a4ky34lDHivGG95jeP04G
SX/3+cpojMfNLuWRv7iQy7Gyhb9zvVkmvLKqYGsCIe7/S/fiX7HcbcMrriT2aeom
1JHY5iMumraNN8vbAjtYEH+aOsvDmHcQFsCcpFR77M7ZW9RTz9wTWK/OtFDWxfU4
rSH8wev3kcVcoJiKkPBS05vRYxV+Ss3Fyi7qMbzQlOkHG85DZRa6ACaFq/brp3Xg
41q+EhpWPl1FLFa/mMo2Qq98ZWxFB7Cd6iEunLbZ9mrAU/YX+tj5tG80drIBSw21
nRnI6B3PpVkj+zGYvsSMjB8xK1gwsSyF2a4nGOYPRQiQMoBeIgjaESsSz2hAjqPw
dPbwheY4y5J9OVBkALAhUogt5PdFA9Gzfd9EbpGaRo+rqybuDq+epVAR2AhYEEpW
6lkXfeHb7D57KHNF6tQiabZvXxvyOMd7HCQYKjwV7N4kz8iB8lA8K1TKFTkIGlSq
+6IrD5+VIljWWl8KaCdemr11Cg34LvHtXfFqLADLjGqVAB2t4Vv42Bp+mSjeK5YH
ER0IN0su6296yNF6JXBXCBQWOZV/oQ7/Co4dluwxATT3vg/YTPGrlepK61uoICCU
3DgZLhTV3XsZ9P0xx9b/9GGTWHost+yOABOai0BuWJYf36trFOoNKxrPzrX7Mfd+
0JaGSYZLHHA4xUzpB+FstZeA6Egnisu6OXVuJHn/nROTIIaL5PffIj4IzyL05yd4
qApNE+MNin42BlpZ3RCIFEIVLhzkRKmG1sSkfI9XKKvoTPDe9eoTEUxdwqGadBvR
WQXKZbajGH88Y3FMpa4SLWVomxC+eFW3JSL7chD5hbTZhLthbK+YnkmJ+nKlZ/cO
8UZp2pp1BBD7ILY5snCHFgOeOvY5VfqMMHjDn0pFxDlD3NDRu0dhhntALQ21RNYo
5Zz0eim9iyZ0Si1AstSyLF0fBNi0ujNzDNXseIjfMA8tvVKVdsZ7JXfw6IcSX7lX
mu3YgkFceFKsonH0OOlWwgUMcgnLK6rHCHNOU76z5MJWnzDkzWY/jiR/0MLfZlQd
1PXlw3yYn0F/UTnvsPkI3NujLc/wgSsH78yVOFwiIse49xJVAsXg8rhBoURgZdBm
DvNQ8jc0jzvd6utE/PbvcHnGsjLSJRJcWvZtxxEHhGhr1zZ/0KXAvEe4fouxxgIR
W/fzg8NluQQOzMLcnb/1ZStQ5O6X4lm379Tm+bVAITWNTteNxm7Ezwo0H2IkenSm
vdr2g8RoXRx7m0YS943zbiHeRmSlTdkiPI2IvzzGudHJ9pQ1/rieRSQbA4MTi33w
2QdhtYesy1ua7QOPfD7268EU+5cT1FBXDBlDRh94cyxwrbro/lxJf5itQ4C9w/qg
0RtdLw0qx8thLbqgPDOYPB+3aJCZmJ1WibzqDwXt9P+1CWRp/HwQwTTORALa7I9o
X+vP8Q9pVb6T4FguwQr8iPp8CMCnxgECdCx21VJr+oltE2sJowGHTEheTKYCR3sJ
k/w+Won7+a78EAkxcAPpONFKaEsJvCtsgIgwTgz1NwiaHSXN1wE8DASPMWc4dhZI
806ccaFKil8P4KnQ3H+5ysM9yVrakqm5IKvTvZXdDbApLRXaftuxx6ws2gJxOQ+d
n+0Il80YZpOE4adrA9b/95MsnjsJTd5xHjz/XvD7yEfSDKL72plgXzFRFK8sGIC0
iAlD8f5SJIaVXmdOImYAEMTXaYD9l/ncGfdljXn8enzdoR3s+CRIfc8wZUCet8XF
F0vXKDGj1AUi/lTDerQb4LEFFj0h+egzsGjqJWE+o6uanOgIbiNRk/EECZ2vWdYV
QE98mqSt+bHwYftROau3Y8vei6R5julMVpHOtrC/zG/+lzKU/Q+11RfJTDw+sgyx
1TtScEcTqiVtzfmHtYDY6t/h2CGplRVkajb3/0ntL/DtQtXzuebWSq1yZoozW8Bm
w4xqkKsPjUqO95Oxuvt7CQpp+DWt2xz5FPQHsxvLDWXD3XTvVksBSMGNCqeWMY3s
FDFih3graklLH6Vx/gEHzjd1oFZhoL9Iev1cijzQDQMfTZA3xMR7NQw0Xst0A/YL
PsY5u4vPb+696TfaftD3aiIYtgNnEgWdSDRDC8QSLc9EN8zI/qzZUD2jkBOk9o26
FO7bSIYHJGfRei6+DIyxQMzY8pqqthlzt7rgAVCEf9jtP6OPDyMoGkS5Z0HvmDsk
Vi/GX/xlz132OkQQeGxniogILFLoxwOK/7WV4PPsr4trLflqIUQp+5/sIN13XpAr
2/PxeuefJSadfp5u2a6MTHrl7rBBVpihaZMORXfByhZqINC8TgJgR3aCsczY8xbn
LZnTDtcntUMKuHpwogyQ2MwQ63CS15BOoi7ZiKcy4GsEGZh81qsTlbsVvS6sl9Vk
6doK8IQkC4E1KlKXjDYKLBVaBTHT+2oO7pafDJClMm76BdyFN9PNCaHx6KAtwsBa
FKN+SEZj7LCXht5NtSBt5c77NAxeuLJuhJuZcPbhPhUI6xqrNji+60gMg28HF75v
HSHW859ulUzHvl8J4G39JB3hTQLP+ZVwe8GJvVInTmJ3aYpCHBm6YhxXyWHRzYs7
1INC0WiaEZWGX+VL/DN8u7HPlVRkOWAjjsIH3NvweQNz90g+0NGX3Gq9UbyhXu4G
1UpX1HCnhegfp808TV0Tl6EZXUm8jcB7dQAdrFN2SbVHnBhd+xiKDL/vj/jZYX2U
gJK8uahKLXKPSLSBz5lNHqLVgcw8ql2t+/iDdMg42T7wEoGxLCwnoUAM3XPgzFDP
YQEDXOlifA+0L+babBzBCPjFfSNrV8rm6xjd4GU14dN+W3VwYTL0SbILi12JvQeC
6Pifce1kgv8Cnw946Yd9OQYDAqXuWZF5O2T45UQZNS+EudM5TzJfAV0xE1qGr6xz
kdfml9mgHDr5oQgq7KtxsgsBKOTqypMwI3XKjPzfQvVZCUvkr9wFjFi6/xPSuVss
yLvLuCEJNUCkAWWDWmRA2d2d6bT6IO8kXhMDShNV0bXpQDQqQBmsIAJ/twjEM8k0
yZNUgLLzp2sm4IAard7IV8lGXRn3/LZ6+iuozdRLOd/wMyjN696HX0KH2nWDWhTL
mDhfhp+dP5EzTEB/sUIFdziOaMfyKaZWKK221PuS9Zb1NMUdljj4X8Y1dT1XRNkV
jlqwXOFCTLITpcphrMYibAO5WyYsfR0D8xDtQyLdAWx7xbfYBUyTxK6tfszZIiGT
/qacZxH974ifGUdbjuYTOt4HLvGTQGjCpYs7Ht/hcMWfFXvPwB56q5wN7yYRdq1s
ig0NV6k7xxCK9utmKfq0p8l3pZyax5/dilWi3IyIF50r5QD7YkifJNPRMDhldcbg
/2gIArr/AoARYVQK6mjVyRP/JDrqchosDbfFM68pELd4fYTbyeJl2vTT0nvbsJSP
ECrBDtZgTKpG43mrQ4ZaWB5x/SBby8zftHdy6gls8iKdDeeZ/nc9cmVIGV9sRAd7
WZnvI1VhuFIC/zg0Mwf5OVyGAW3VOGlAYc099hT/axkt8cvZOmH3Ijt+Zrtc0ER1
I/WVvNYbE+1RO3AQLzASCMk/rLiw0Z0jBXgh4Eu9EMvROnX/2Qqpc9+xJ5z2LXeY
nt433X2ZD+Vve/Ntu2vSYZpCLjSXyzgWHWjR+g2Kmp+SyCc1xTc/7nuuD1ME146s
NaZFfn7jU0Tz6TaPXkxTIiO0g7EdR+LIR0DyE7+Y0uVzfMHzo7mjpj02nzbL/Bdw
BXPprfKkku1LYABQL8QUddB40yvbKrw2LL6C0HSYSKMv7UH8UuNwhRu+IlLNa/tm
d0u16OvtMGPxZoosgPmGByqkjQc+/8DiWFIgy1lw/8kUV8f8/fyvsv0VuQa4Da5v
GoGDdOzx1aJDTWA1IJuJtw6JPiOt6PGy5GbiJlhDq9IJmjyL53mkzjgQ+oW5ZGhY
aiAx89awINbV5yvjhvixzSPgQkEfkFfb6yHBGmO7QOrVIfdfMmHYDAclPU8sGj3e
Zgh+gHHyEVhZwqqmljwfjcKgX9zOIrV1bxYYV4v8+UnRvqhWMZq3gpBBAP5nIgNF
iSRa6J+rScOVuf+C2M+GFHm3WESEeCANqDm4oiCftWjOT/QdpXE2jYE/3Elrwarb
bhmBUWPVQbKyTHxmNGLhT0EvV2EnYHZ9IhOKXSWzq/ffkzJqNgNDz3WxoBqiZkug
0xDYoWxjC6QLVKibEO3C/Iaw9ReAbrtS4VEqIobR+YVaaaoPAgdoNXyTeBpIYOu2
t2my8r/iIZflVSQXEVVhNMyd1F7AUsxOS6vqMaWY0znoZ3xmeYHhDon37gWVfek6
DAIkSIzTg7TTs1FlWbXZSqeLGkW1K6K7Jxr5IttlB1lbHud6yQBBmMPwCN6nfSYb
VxppNZwJVDTtYmt008QGwMMChUAyYRNbEWqTUHASmEwh3F+IbfAJMtR+W7mtpbEz
aNoKQc/DzbCmco1GX2kw9XWR2ADUXdFrlW8iM1bl7yrCQ2EgRun6mTqXWN/J3MPc
QXs/U0vREw9G6XFb38LHa3qLVWqjWSfyVMK0U5ZMJhy1TCXgn3vwlG4obqaIIeNI
kyTbvXr8VyMU/CGGQ6TKj8LtMtCfBIvylQ5TX7wF1vOgOfTIOr5hGdYNepnU4z7q
1ZRUp0y6JJiQR195M5U6CfO4xdO0I47AgTt2d4qdvz5EJ6r/SwYTB2NrD8OH7UfT
sTfY8HOr12fiqkJjZdoUAyIHEPOQf/sahrt3/4mX57yvFIrslXOozqW0AxG07kZX
LwkENuH6efgEno9Gwtp1VoH3x6qKzR1xpWTfVuLP9oLa/JvBaWB+FCPNgS2qOSYC
W9fzCCTHJMtKq9HcrWo3m3mzYePHjZv+dfszWtEUDwdAQ5fv3VBF3L6CKE0q9oZ6
bidIZzlHIxizSeLnSfvYfB9Qlj8xRreeZSjtzCCMoS8LgYqCkz3TaC/yRLP6Js6l
SeAAieaLoVY0IcAYIvWnq4EM6fvmjlAGF0h2kUPZADHAyX4fed/zlUwSrF/jmrBU
jVtc/aEIT9iUbpWflapLYs7wpaUYnRHjEk6qVWZK+jXOe3oOn7a7DFLJerW/aOSv
+m6YUjlMG3fj0e+QNLGudyap+Cf47XgQcnHwn/0YwmWEYujGIQdRb3xfVLoTdhgd
VjBxT+U5dSvum6egRuS6RowqvFv2g2qvB646IIb5BnDrgERrE2GstLZbJXAdQMPo
opjuTfTZitZZCLW+hyfretQ9zy+FPvRb0UypOttGKO8OBMuNb6aJyao4Zg+ccoOI
BD8i4IZWvH3jXJNuNqelzVALK7rkQv6TffiHPO78AAL4Eehs1qdPNVKIohfhjAOH
iKod1gjrvGdvj6S4C47FcSZ1jVwKgvfdDF2YBZdQjESvNTSTwcPl/kZAdbJT5Zdo
u60ZYgLVd7efHxw3onQPmMFmLt6muWu/GGxG/dL9JTpRST7FMnTcNzMFMLjM6tz+
PNycWEXrOnuhZJ5SUp8brjkqdHD3akuOKghrGsnn2rNVWOimc2v6YdBL599hBqnp
bhMAp/W+W72YeOQQ8QjZBQjsm4QmL2UgjL4kaKaRajhvQdDLkYcZ9O0W/SuK3j6J
KdXHijL30/8zMnqqB20iJ05redNRLD7aw8KfjjLHiKPfpPFXVOE+Onnl1BXIIPI0
S+fjLJcp+pQx1c+aYVpThU8/Ene6Iu5pMekZrnb5jSeunDwkGucF2ryFRzWulKH4
it5YJVX+PnUnXTgCMJyTCF3N/X++fmjgbT8UO+475O2CmxtQfoxXB8zMq+BT7aCK
3YFVFJjqkib1Jqdw+cCplxDj49ffBT2JM39i+/ftKi4vZTrMf0uDcvCO+muq/ZHi
xG5Ox7XmM9/WhzWQ73ifNPr5qKPe9ODaUm8jAKKxFxjfl1Ncvqi4NvgCYqCQY/gu
fauqOzYN+mxsts9Wyw+9gVig0cCr9EfQvt6DbZJCGzw8qBorvOBeb4YDW2TBLgfs
xogQIi4ZHaGF6826rmTaGYADlVM3zVwAu547OPPNf6cWiQa9pPlTMwk18x844uCV
+07Gv0beCnh5T8RzQCTvrCdTcYOoI8dDNt/VI+n5429ctNavf5G7KNFEGJJWOgBo
wIDzToVu6715ICAvibv1GsF+yAgOciHAZy7QlGvS584rTfCudFt6CCcKIRnH4ana
aEGS3Vi471OB0gXeL2lHgITv02sRwuFzXVFMbORgqMAm8h2Ua/5t6i59duV34V1u
QPNk7ctVjEau7O01QLj+MLDOc5CjXYJ9ArlpRBA6Z5FfH9CzfGormKJH7x0RFuP2
5hZup4dZP8ZnjcghGJgoo/MTHsiNgNrZuvySsVnOgohd7CKlcGOhDz2Na/8h0frT
yWP5jcIktiXIBFgLgXphBQK1tWlLSp6jtmllbRLmG1RfQP8BCyH1MlZTT+Ps0tvM
dHA/965jn6TY2m/uY4SPyPHM3I2kYu1a3wdeWWhcMg2hXkEdYC8e0qJtYKpVIglN
jKR+cBpJkEKjIFpScpgE1JXrmCtkFc4hu9KnnBJmEwyxWR8NPw/8hw0clJJKpcvr
szKCnvsHqs+2hIOUSKatmfPpf9Hdsh+v/cMbykf3N9Y3BPt5zSQfnHi4kmn/ywG3
A/oTfhGSuWzjHml9oEGq6uzyX7VFxHy/z1okzAFFVwTZTiYgY6LSRa4YCh0S6iSv
OCpEPgSiubGWuOYDdcmvmJDTUbLKb7NzqEsFfe048Eq0z9Ky8nWrvGhDZNLkE96V
C3vPBDeIKuFhxIVeWjvrHN6CDDIDHEFAev+PHImETJyEsBo4gwDVSceRtpJkif1E
RF6zAdEClTOV7hy/F508+/QP6fRmzMxYDoLFm562ZFmvdneHcoF+a6cPdzQLXDDY
0Xe693w/3OiP111A54fZe4K/fsTlWl+yPur6dLwUw/STDSE2k4Qb8ZWGBlYaasKa
Oaq7OABX9+PK0ibDSBpl6KAWPLTS1KG6aOc5V3XgqEy+aGx0GJ87svbvkuIqATD2
9q5CDGsM/qLYHCvHNeuVUe7NYFRzHWKOWXeIC5add8j0i+5Cnz39SrgxbhZ6dJFg
d6pvH5AWgnlwupsJU7L6JKXF3WUWoliUlFfXqpnPClwpt2xJepuNMk2LRwF2E1lM
TnhskLp3S4mwVK/qbbx8SmX6N+HskWVcoZCXfwKr2KDGmmuZeHgzAh6Hy8eP+1DW
b4XyqEdK1HfMyfCE6teAQcFrVAMEY2Z0R+9T2Dq8jaahHr9AO2i7BkfMxkajJmbN
5TKJptCDocSCFnbbHhzSO8/PnJ6uqhADShp9BneYtysrIarypVtdYiH6fS/9XmT7
7JYJ7OipcSjCxW93GbM/j+LusrRPblsJwB78b/QrtPFhZsrHjhjY+MfTTCrfclri
/2qWuv9dVGdwEnhRmPZsCIkZfgR/a5KTum3amDlcF1Ed3GM4ecY6t+chPRhTuiln
35ZuxbyVdT/BQpszjaUSAjvBIDnmNJMlFpJamlItxfbFRU1PvFE6X9kUOQi2+Ap6
xQHoTW7/0UbMPMKzvOyOaBYn4clLKAYop0NHbHLIsqOlht/I6EgdAZkT1msRidWE
/1/wfAsd9mQPn9isW/q57WkMA8uMNxhNaj+a+klJ4CcD6cVikYG5ETUaPzesUR8u
mxQy7g/4YgwFvyF6XtX4vSewLuzc00s0DReszpT6iDqTM5PgT8vB60PybQCf0/d5
ftXjJej0IzaLaeJRW77QforcCpAsYLRalJKHh5o5JNrqHeHYdwfcAFUl111YZoMg
svuHDNObL4Wz5JVCdFRFYpR4QgDwkewwaLc+Lp55EkHG5R33svhcQhm1UlG6/2QO
nQtchlCZi8v+zoYUi5AG+RATzCLDrMlefFtSgw5rZuQ6+JuHzmd8+GGqJR2gBU3U
u21gtujUn4C/2JitjmjhCTm0SXYHGNwolS7wJjhBP+13SqoAc0ldc+JYy5S+JPwh
iARKcKdcMMMQPkehhxDKMyHE1chzQMUr35/NMG8BM+mKKkNX5ZNbjNsPQzCneVy0
sx2uHGQCjJMl2BbLw8IcY4q6dJgbQGMn3TUVQXHcDdSQTHv+pROaUe8OleObLfjh
6npPiM+TzqZe0eUvspZ2TSGy+R+n8QttmsZ9VxFmhaSFgyBBcsYL8QX4V4DljcmM
bYbvuXyaHY7iu6a10ZCMt2YVJ8ffODcJKy2QHW2jZnHMrJnIdvdeW9ejrRRB718C
WYhPhY0ajUqADw7e5DPzPLzsgpKvISU+4IBRsIQ+/Xm/FrsCjV64HfT0Q0Bm1Sdx
lOH/rZlUikbp7OmPo9pEI1PzCIIpT9odxk9fmttDcrvKurPUi28NFYYhbPOwcS9L
A539RS81AH9Qlfj0y1CwB+n/s41BqiZhqmtqacLqTQkDELn5wm4p1+cgm+rl4ffN
v1TFvxgeXDRAkmbYq0MaVl6iQHo8dv6dcyloNVY+EpTjjiY8mC3a4g4dGVUA8Kng
dhvz8qVPjtaNqVlr/6ol0cDiXzM1DDzNPZaY+brw4AeNZEZJrs9FwqDGU5JEZByg
Q0/gGRLla5TjUKgr8lOmIn6CTyHz9OU7X4ZkiI7+WCplHU4wU+aKhho59F0cRf9T
DhY00c6hOShCVV9dkLqDEVcYVRdG4amieMpUIu0clWCWuA8/Q0UZjGYFShmlBb5s
MiZCMciznKF1o2dDbgX4Bk8ZZnuhPvx9IfHLg6XGnSQr91WcRquNbYvf8RlStCGq
Gm+pJg3e47Zxi+OxBQSuk7JXkz510v8kcFVQhVXpQuFFCKY9dUbJk2dlsYhZddM1
nOSf6MmH3kh2JxB05K5d5WhS6trprxISR1pvgsrS78vXtxvzHvLwZIJN00yJ/0fa
9sNhyVp3ovmE4lXNZQtkKz5tyV/r3/MDKOEDQdwJgW9uERbq5Xs4oDHcLdFNJrf0
QI38G+8fCluRZrGehufM0V9tuVFumaszsTgpLlB19c1irrCAQvPXowUM820zcWGw
LnYvbvCpicmeNyTuPtCn+6b6r4Nd5/LJ+bpw4KLx+VTK63Nac9lTm0qIy/qVkaco
ecEr1rDaDIB25iS98mB+akr8wZVM5eiZl7WNwgqFoKb0JPmc2SCYCzIBsimdAYOV
x2UtNDTGDu8btX1+3iddza/Wjy2sTlMDC5uhCf0soFfGuax8Nk51qOYgeKdF41UQ
LB1s06Y3sRKk5hbID8RPN6BcUqYgNC4NuAB5JafIftZq5hDsejy124gkAcKSZEf2
sQwJ3/+0XAwX7VCtaYFV6rr94xaFm8nxpnBPi5C+3bH6KhoYiORBbToWnpGdG8HE
27eGwjthOpRjnjHxcP/QTOp+1sXCEsc4N7YxmRns+fP/w2sN4sZ1evCQG8L4nUo3
64eOxkC2ukANwveZP8UPL2rR7g6pJh1yUjXZmOj9JhPVhnWXjC1ZbUS/v512zDkH
r4dCTETPHVtYAbxp3Qy781pX7pmWPyBl8vfKH+pOkiqHc4pEj9TaDYtXVaD9kf3O
BKPyoUFfw934rMCGuMLsiGbzdgC3FNP9XhQh3d4K5KHPuwNz9znRRY/CDrwYtInH
ob2JqgW2ToD2ATrHQ9rZB8moY9nAy8szTfNtfLzcUVGd/bixNBA2hut659jkf8TQ
UA8e4GV4V3YCH7DFPGUOBI9BabR6vXkr+8KbZmQAECl+TgSRWKgppT+b4a3Ktm4H
GTD56HREIBDHt+OKSkhpY6mjw+fq3YFLAoIwlvy7nQuAFwn/OYTq7YPyBTMDAcVj
rULkiY3ovbKCKDh1M09n51fOArASmIMnJSby8Cs5vPNASafP5K2b4whMCIZYEnsn
6dzRVUSV+OGpmMuWydeG9ygKS7BWYG6zSqeFXKaQ++9sPOWFiZtBOpIoyJ8RGGBD
+3ywH431Rr9NJo2h7jmMBgOW3lzYYW3i2aBJybW7w4HLdxJ8d1ugHtXy2fg/Bnwk
gYH4rsc9Cxz9zNaqiuLyuU8xVEHvHF9rNdB9UaZx4JSMxdXiFuAyiXtgwHuwTYgj
Wrk52+r5+qb/Q7wrzkStm79z6h3sZKb7k31MMnnT1V/f/YJ/ftUcGlBs6FLShcLK
0VcVHlXgNeiBG6CDgAjJVKvqw6D/syBYEt+LFomTtWLPTtU8T6GUnkjdiQR9ZGJT
7Hbq0WYJ6dnLVdIeXFnKuB6gxkXEiEvPcWEuuapN3Tbc90BwZv/zHDMH5HAUXmvj
8/DhA/WZPGrFXCjw/ZVJlN6mBHarQQa48GNSK2/f+eihSt7WeVdPVnP9kcLXyunb
zrAYxisi9gHfAAKoUAxJtsNIPIWo8WW/hiSYqe5d2dtfQGaoDrWKsNvruwdo0iPe
5mcj19WYyrzZTOrxWseOMXZaw1QkLB9sZhMBg64hTVIFi5zF7rg5dY6NzO5OLzKC
+Z7vZTULBUP2wlPn/U/bdjHgP9t0NuTrZ4VlSkw64fqTcPsJlk94YlrO8158c2yS
GAVvt5ae4ERaqZhGHNYOp62AlYWmbPPCReMPwOpMihz1GdYPLjM/CSkWWfkvqi3j
mns/cKUG0K5RzCe2EzCEei0LN0SO9urGA+tRzEhebhnJR/RVVzJoaPkV36MgJl3g
qg87pWHPPTSfJ/mi8mPRnsfh36iDlcsIfDxEMczh/WNQ1eBXGvsjAj6Xsvu6QBq7
ZJD7hauor3BzC9nTmtOoG1tmA2VAPdJAGTBfMduXSG+h2CkcPHM2YxYAHocNTMl4
SiALmfYgwKYONB4XbFDjqjP3h9QPElBMsj7i7HuW+XXekyeMF7H9qeczvp6No0WL
d1UQLiT9N8mCjyn8bXy87BkD84s5cIRYXizJnOvyrxey4tu7i0GhAD2Sj90iIHsm
YwT1V1ajoxAio45BkoDOeMUltHcWRF4ovv3asto/9zV4TcUEfo6GPoD23wLPb8gG
DyUYRo1S8lUe/HbjNEjYGZqUNwgtIFezAmK9Wu/CbigXwHnx/0pVsAab5k9g5Ctb
69W6tfFyQdUbnVGdDHF1nu4v8Bd96q0gro7eZyv0tqXx8GJbipH1JxB/gt7U8mtb
kT2mRLG3yHEFpV500zApcB+9EvPujCU/Taufv93lO5MeKQRAvZoMD5YSpSyaorGp
IWC0ufTdQnldd8yRKSr9tumbwtiq0sqtVbGqKsucpw0XRqFDkRD9qbaXJISqQ+7q
HOVrBFZbB8GP7RBu82LPPpvfZ1ThdCoNomt6Gug5gQKChF6VH3rNGgRXL/XkREH5
M4BCviCEV5VyT55vkyaCu8V+ZCPdw0nEHo5yeYd+ZmeqieeLhkR1vbkJ/n7/Iu/8
auZjMEiUGzZvXSIB+q1fMEngG15MCTuhYnPMCwHy4sPfJGw69IqnUuR+1SKIBGVx
TecYXK5JxEtQQ1Kgtph3nAAbqwlDFkxb03oa2lLbrLYRrnXLSZSzmeZUHZ2vq22l
4ZbnvuynYy2sArnZsAaot0AjplAFCFfrafeYUhPrgBv+OOqjuvgIUOUEu/q8Hyfk
83t2rLowgptiFFDRWxQSNLRjeTjpGZQ0eF8QGdHohxPu8qJ/8eCRPNM1Tf7OzFJy
564d8TEaRnOC5/qSpktfqila9S1+5Qfb0xs42KtrgKBY24ftm2ilJq/pvp3LO52b
oVg7TUtlDa5LBuUHsajq37K2Fub6wyJ9Ff2zEFUh6XVSjgTD/u/bBf86R97hG6LR
L2I5H3dAQh++3RcVmKM+4PMgEj4+HYKegnQGbeQG+cLPs69z0m00kKvd6pla6B/K
D2mEsj00CfOcFhW6L9hc3kTqns2Hf15/Og7nX3rg3cQcfZLvJRJTCmgoTFk3bMcj
pOSdO+d/03FbbsUhYEi/OER/Pe711hLwtsc9ZRmANjypZO5vMGhGorzD4VvPCkbV
SqxCmA6YGfE2JMc94ucGyd8Z60tFRzyJrXqyGDhG1Ebm2KHgs7AUZrq5G47SHXAI
yGOXPsczmT/wqwxlHZLob7GaSdmQeG5TJ+LZmzAvs+Xn504Q4UqoZsID49iFbHw1
3ftSoVmxMbYxkibR0X4s2ZDUmkO6iUl/J0ayaAqBzW1FAHqELs1oltz5aE7+PKg3
Itz+Gses0zdxahoShJtmYoAHCQlKp3MgqofV6d9lFyh0clHWGJcUPkZuhTSQVwbU
d2HoRK9n/8C837ejfZI9fSVWdTU+1hwCzkNqu/lw0kXlozSIHsk4SEwaQO+48iyS
ETkQU2N3WFJIjQ4drK9nME6KVt/4/NXWrOx9JVE6dvXBC8rrbhHnm9Rqew9MPPWm
C5JC2uQMvilSIrMhvmgy5Opfk9gtHX9Zj+h0+ZyUZTQxp4FX+T64aggsp5h79usZ
TfvNMo0P/GySw1suRp0XUJA3mEtsAUKc8VhBkrjEdLC8p+hO+m8dsCRKSRQQgQyp
nuEFC5goVDxyrFJvFTpdCep6xIdB0ebDU32QVTHXOU9QYLM/vXGbPGOCNiU58MEY
OCjfeqROU1xfbypihs0XB7iUaKr+Vt7rrF8joFfFTSqv9ecxSm4qcPMPdOeD8cfm
XDKFW3fiI0d7XZQPimYEBaVeXfY6fAES5X5t7qbRhMh1B+LJMeMIne2WJb57ynkc
6bx6BSdOYjL4IyRudpolou3ZfCrKqu2sFaOZbP3cmbSu+umvGlnRvYwlr5TEdKum
XZIdkUGSXpjRCZG+vAB185Uiw6ETvAVrjkHJLJh0ii3B8vhoRZXhVqa3aSdTrrvJ
ij8Z0g/GAPT6X7WXlkt6pzOZFesaI5PPgjLaT+8jAt0nJvo4AJXdQgV28KRai63Q
2Sxv35tCA5P76e3rs4Upttnj+BUiYt2BGOgJBpsyeTJSy1jkDQZe3LZK2i3G9Pbs
9+zSuFqMEPf6mUvjqiA3G0NXdz10gW8LBLvgfXecxYFjV7YW8bDo2oURXP+5mpFX
+hCC+r+9UO3hMHUYAUjTizLCs2JtELAwnfUBK5i36L7g9EmrAPdEwOVIAmNvDd4E
Q/eTZxSiNh9+WSfkYRwnX7fMBJuTCWLwxKfvNt0mhMH/xqW2rSenxmaDQcHilqAv
Y8wmYbk/i8eA2iL34giPzN/6PWPlk9ItUiPxdNbTFeIpIK+cVav6MchK7L/QrHNb
Xx5ic2jg+ln9nrPcGPh4Q88PyTt9C0H1HGdwmop9z4dkqns9sQ9E+u8UegY0BqCe
cRlQDUBYE3GFz3uBN0kCAQY+GUt+DZVtRyBVRJjmRbSkUt4Jt/eTXa6zH6+2LO5k
+rGpf3GBBNu8JK48qJzj8sH7q5B6iyK7qs9YECqZ0/UIh2PyCsUfIPDWkflonp95
xHx9XzZOQGqZMDeAV9xL+0tcGG227kXnAmBZg5rc0q3pHp16JB3SB+f6kBi42VkD
D397u4NldiFr/tRkIm42CHVwGx4rErdvd9M5unHNtM+Zqv6+xbE/v48Mrgct2gCp
l/ID5gQS4eYpshT22mU5Tfkni7guTVuh4K7FKc/0/CXIdiN+zdG/gLutsvZrkc+F
/vIaKVWq0AmhAGUfuTuCdamuV5s8z6iJS35j09pRTUc90GJEaGHRkLvaf6pY4Blv
xo+p80Ywr/zrPo7ifx4ZRHp+sjoj7neqEucB38JLaN1JFZHZ85WpYSPlcnX2HnwP
70eaQ0haXK+9h14/6zed8ErztzH4VEuozkJmd0Wct6qZT2NbG4EVF7wPZnKJx/FL
HY0xy6SWQbXGcIDJLEhWf1Od1j5j5kLZd8gdJhSoFrcVsm2y87I0M+X4rhFIyZcs
OY3DFQYr0fNYDwG+FG6COZzFKvlsETWeNBTA0dXVSrNck6fOOHMsFjzr3yQQsg0n
QRiln7YGbBQBIcPuoo69MoIk8B7mepFytMcgyF+BZY/mNZswTadx4jobSF8LmD3h
ps3gly/x0kGSTa509nxfwCI4IqDm4xERC7Qbp3/ZSXsPVWnXqpFVSjxXH5hXFmXE
ZEP/mx6S8eU8YKI6mhoAGf4axtChEwyqtO2XpqhijMCLat6EonGAVjMFskOg3nHt
gFstfXnrTacky1IUm1NL2EM3CxuFgHO+b1YsPmjPfIvPzM6AJeI4uwTmORA6qzeG
/dU1mybQ44746UNcw8LBTRvKBfUqrQOKdXU5VrAM3b6zar8cb0fILJOB/3lfAvG3
J4r5ynUXQ46csqUQIKr8gi3NsggXdyJ0QU+Q0H1tnsym7pBZTeLqA2BLl+io2+PL
sgJ5U/NQALYT985HoupHFElSxWrXtuX0bSSxf+IoH7jCVXDRaQQVp9Pk7DY1FaLg
OnctpBUTECNze1AqGPKbrC8GH+bZO05g6ftjKmTCnjfVR0MKncsj0U4foIFiG0uF
gPQVrcbXhqL3hVD9LxDWVFTIJ/iW9OGZtIhD/N9nthn5VaiYYybKACwgzRsFtVCt
WZEHSvEn4gjbg4OQXOFejQ6cB5N+wiK5yHIbb5PgdXSZuVN0sQ0RWIh4MB6eGuym
FffHMK1xdw/r0n/qx4F6Rwv2jUgywCmvxk2rnGTYsgwWl3I2tQnyqohcZSARr8vo
H5Q0bXG2nnvcb7H0tLOSqFpVY6Xnqi1cQldDkLz+9/YrVpRmF+ed4yf229PGEOWd
T1uWP9LYieeAr7HugTXJ/408tWR9Y1yozzAlBf8LS7or7e9VijQYbkoQB9uugj35
kvuZc1scEsM9sWnm4IgB9TsFoY5YvrmvpE7LGuUhi/srUQV0aTGEczMBj+ctfTaE
j0W5tfBSr+Cj6njJoSXpSfhB0UVXX/nM5xV9buypZ9Jgu/yUuTCTwNHNSPY8AERe
MCLhV2HQq1QKkuVA6qclIThCtrtEm/FFxpdUIpYGUo09hRnPUs5BlhklttPI7yR0
YJbl24Q9MXJuPP2PlCIEOKufrMOSW9llirdzINS+tr3WSMipGV4eLWMmvxv9pl6f
8kbhM7IVo3dr69H28bqicl/4TI5q7GVkEGSNarN2sgzVtdEHIf+7x2JXDe+22e23
+SvmVQh1CMmjxrjMvgHxqDmzmCyMBbV7fzL4cEokQohZqRUSlJEcygYvt3gcBjBS
Y7IPc2d5nqo7s87T5B5CAYajbIcZLZew7/ZSISeY9a4ut11AfgojoNeakHIlfioh
dfBAjTvYdlJ53rEJBRrNFif4r8GcGzFqnm1RP4bUqEb87Lok8EXtyARFU4GAZz7i
L6bmY5eyjnVdihjaL2fWLGqdP6SBImlkK8CvIG+8IkxOe+aXRJGXBaPvKJ1V8yfB
//6fF1KfPxl9kAxj9dH06mLlnakx81SpT0QX1+5sED0ZacBsgDZ8ja6Xdw6PIyeT
Kp7UoUkwMeibTc0psXb49d5fmgTIGV4JCI/DrxhuZ9FxfFDHDMgGc8KIQXZywkgb
KlKAg040vDmw6y69yrKBP/2aUyn+ZndekFn895cL1fi2YJsB+joPztLjAikoxxR6
3doxWOXlcAOHMQipQ3DGf3xIBE5+t/4P02JTcowO+F6ZWj2oVod5927Gb8m9D7jE
mLqDwoqh/omfGXHS4rq3NDIsjsEtnm8w51207vRR0aKMOzkFUCxta2KdkJVkdjGO
H1w+wNCejVd/lQ8FYHhQad3gq5AL5xebJX2h8rmT54iqzM4r4Lj429UUuaeB2izj
xvC3FsSEXPlUckK83US+kqDSLOmsd3j3R/rFYNs42v3lXuVbNtBmp7ivncfOSktI
se+xxpL5jmYO28XL+OLvj2xox0EYYL76SA0Oj8mhFjNRYh/3KE1BV3kUPZxWnnVV
A2WJoI2w3LsYXoeBBE+uJn/qF7G3WCDYOHyr1JK1PqMqPyVg5rSB4HsP56q8WadN
2ipQwqAmRHpguGHfcBo6lCPjEtZM3OQK0xVgDH82BVkRpiiwP4Vud3zBnkNcs6iS
L+TA92MjKO31+7rcOKwrqFYCNnjyJIMpD46DvBF6xsJrZt2lCXcItbJNvUEA5DvR
XJ5tgCD9PnifswEjhUr0wAFhCRmMA7Ma1AyI3bfQk4GCduNopDlsqXgYuhMhNKAm
HvjNmiBL7PTvcZfks8tA4aVqOp0vRsfMakv6DjXmDUDSCDXhO/vxq6LNoa5b3oPW
oMvlEt4xejz+cEtl3tp6Q45wXey2Dfoh9dRRwX6SuKqfkK0gZQO917YuUsS1fOLm
Vh3M4M0mmh4LJRIdpCd9FHx1RYiRMIW+fwIVoKHj4To87p53b9/FHsP1W3G3BzJ6
Za2cNeBWYox9Tg0ghZf/Rnj3CieNQE5tX3Gs+ijpx9L+pQG9ETz/v4+JVnR7GHtp
I/0fVg3vscDrMHsuH2Lc7MiUUWU7yu7H3Xr61aTuuPBsLIWOc+cl3DGVRcdRSBY7
kH8OQaabgk9YyTko+atb9ysZDa30qC/pm+9OMgwg6VbWmtHleRrfB23YVfbhkVdY
OqwyhNYWMDfpKPHKMK8Rnm/YQFfqlpqcyQbYVHXfcYFNneMHwZggItOtQi6TSsFy
Jp0WZH0WRcVHinwZpQYr++KWswMDmRQJvEf9+8/OSvZYTqaQrwQ36haYgc+cZjsi
9Il+szpAyvy+66ZSkZcfeabPumquFfm47NJ1TNpH7hdsWzPBpHnJCqh1N1h/Buvt
XZKJvz/TMwQBDq+1EkKKsGpAI0TQAj2ImLCsMFbRdy6AtlelUvhBYHdoSMbs+ytc
72kEsM9v6f2A/OuIEZTKDnP45Wx2s7gbNxS7PDVmtkwO1zq2AIY55edek4x3Uae/
SLcRiQNqGHS/Z7XEDnRPhLojY14PRmT8tws+OfkIaaRj+UES5c5ieAOj53UYZXfv
1Z/fxUTaEMkeU6L8sSyw7+CRoxQQ8V87gPhncSUOz451pb93SLES90P4Ze3L7uhd
wxqOR/Np+GDVOOEgkKyIHrLVGeEK3YXv3lPyKrZq1n3FaW3t+i5jlDMGTHNudxsm
0mi9Ua4/nu7GbacytFnOaMQVLordhbsqPqftYSzx1GoNZI4zXXCA2rf1yJNINGOX
2vBsRJFr61VdB3MMA0kLVPJJLuKE9qSRUdMbLa/WMf2bpCNse65oNgf+M7TCZwJC
uvxSOSxxWnXaR0E2s4F08Nb45vUV+el+uRtNKEI8bV7891ZKwXvEbkKS2Gj8m4Cw
e8JInj+RlhcCZfE6oy5km8jEZuE5Pm2RmWoogjgH3BMCDyBNQm20g5SEsgV7RR6t
GYr5EOjAqOmRJcRCrwl/Zi9XbMej+7rkHeLTJ1GJCKMcD0lhQsbWHJngToGTnx8X
LV1AR+6MgE+/bbaVZiT1XmUCEzl/LedfC6TVHYnvI4bA/7s4a3upmjjox1I2NVFu
o+bKGiYy18HklkerWJOpDwQV+9ZGwabHQ1G5AU1YElC8yUY3+qy9cu8VLnn+14T3
OPn0C1+95Lt1xniwOuriyfWQ9zvX+6q6HiGie8umb3hu00Z4XhOVCjLlbpZvZPQe
Gqxd7TnQwhgmKSAKJJpuyDYpVi2Krnxc1zq7faHq3cfdVE5M7FsM19xj+kli8Nv4
ZxUCoCQJA3bjw0CX8SESUPs3YbKANNpyUXSwM1B31DWLXWoWswGloXPjO3/tOVxA
kZoCQAvO26kRonq5rOlHxXZpbBagHnK94wnTg0Ij/PYnSuD+7J7VUUFQkyb2P3Ci
shu2fBIt58fKpMO5lR71xTmyO1AC+pfECYM5SkT3LazhUhoT1zL1Nuq4RKWiZbmA
QkMyoX1GnZM5vz1oPNr7711LUnO2v6RuAv0wL229hYLF2cC38OG5kUX8m44jnOSE
lcvNjpfo9DYV9/ckgXCEH08i543IwrA17oEvPD+P98WEXH6gS9bK0nucRnuhyvY2
Do0P62delfWXTN5JQW+oAks1xN4LwdO8ZJW+y5/ZAEIzSpzLKqRoyvTvDoPuwO8V
l6Rak3Onq3WpuEZt+3VLx5r8Qm4YA/lroDNLz9EJxujeddtvLt7Iy5hj55zmMLuJ
Sd/2Z7drOCHkf13i9YZnyYy3DEgZOXOUtAfVNK4Oy6Wc4gEsl66v43h1aBECn5ji
rphk0SbAx/NAWAHelkMEwGvjB6T7m2lCD07AlC3T1X2ro6ZCdBCG4RQvxofAHiXq
uPXRF2Awn+HbCmpxRsvv31x1hSj6/dVKp8fmgaBERenamx6CyWY2dCmsZUsNmL+8
+gsfX33VTd/8Y4LdM1zXOjYX4eEtz2e23CniDjpDosP1KN0J01Jha1VSa6P0U3KN
tm+T1NoWjeidslVIN3h/Nl48iktatuzwHAxEX+V5ZjXOIBODhz+vm1UCUZuW1DuE
jY+AiAfzCxGERi/peVG58GOlXKjZNERQ+xfTHi8hWmSC29x/BtmWG+KztUKO/wd/
9R4hCphEneihNZm8UbJutqEp1RJo+eqW767fgc9tY8VxQsTGO8Y6sOrL6aEELyeq
WJhGlHfsNZqvVyiVQ+YCM9WZ8xtSJLtwYhuzAx65b/fAMuM5pExD7NPhpQUQLPdC
l0+5jJq1j6jDK/kNmlO8I5Q0SqEv5xaMUAcvszCDYujZ/s9NYrUeH3LWpALM4JPE
gx5RtBtMRjCPoJz761SxgHQaXy3yAqVn9U1Ag5w0OKdhoMSuFkAr3jTZFoohHV4t
IJDCI+SXJ+koyjzKunkdVRhkdRBH/077zjCKa3AZcDrhRATXbbqF7a20v8yLFpjy
zYl4XvWc4C2zgd/UDRvVTc2dHYt9wD/8ZDzFqR2uriYupGtdOQA8HXH472E6WZmQ
uWx46jG/rCFKlEDML9EGtOP0o6faYB7RoTfBoCZUvfk6fsNbiZLZa5Sn3v3gogJ1
Cpa/7OylgoQmALQQ98pt308fN7S8ddwQOJweNBQmkr5XMg5NjV81jlnRNU/OWCn9
MGIn5FHtKv/wkg+KyXC1/IRBOFzojwO3QH03Xj7pEQ12HmTEG4fMVM/p+9MyoixX
wc5KTLVOAej7gdlf3a9vw7PDOoqE1j1XT22HoU+XPMFbiGjSbvR7YDfuDqLYeRsV
/DCP7Sjb2lfa67T/wLVS+AvmI8wy+HwA5UwMO5uGpivlHXSVEZ79oYuC7SVab4UY
l3smbc/iQG4nE5F3wJOGCSNj75ZjwPXbqS2B8Jj1jw4iSKDFGXTiYjRRMKUQhKHI
y44YkVnRDCJk2p1RCf++Dr6cvvTngSCSEQHyijdmDYj0bO+oZk1UlKLXrcw0KRDr
XKVrNikdfKbGXlYCLs+wbidU5YVBtYmeFE+2QI8GEaqwhgBRYvrJYakfUpJWP901
55fR7p9cZ3QSceJzXBieOIQqyh58qLfNVkesIcgTZ0r+QtS/FNdfCfQXKkYDaNh5
pH71u6dL30osXFmAkcbvpiWI3hdg/3HRbF4hQgVCxXNgRs3kwdldzUY5JE+Wnti+
OglzMLhmPVQYrpQgV5pIeo1dg1ACdrIesRFPv87WO6qEIAsnxfeotJ8hzon6J4sk
eByE912c4N9rJoHgYIqzZ2ZREB6eZZc9O5hf6ihSjx/ZyqlAccoK/Oe06tnKky0S
GJ+zUrzc6pBQ4xowAgWQYEta2LnBtN4jjd7l/NFV8xgedmWDqN5YcziXCoYjbMaK
T+4cSnmyZLTZ5L7LqiYn5b+IehhdlEv5tm3s5dyFFwVJeU04iEF9Dt/shIli+6gV
cSq9ofpXPbDqO3/MfcH9vRgGrSsuT8TC92RbYU5rkNL8CKty1BYqpeE3Sqh86ve/
TtkBytdmD5MKj1rFxprEb+v4y7vfJ7jrE7IZ4nOz53PlERYyvDbAJbS/ul8uTOaQ
xOA9C0lzECdIFvt04QeIik3E0SDpm0HGl7jGlB6sxgqhZCWH6AiqQN9lV4JS6uTb
teA6OQcTt7DPtA8F4Y2A4h+RxNqbKet/0RXkslbZNLuVwZIqXRyLuGoCwnJY8ADU
KKihuRuLxdNXAigEuFRGLYrZjSKeFe6hYR0tZ53SDs1siX5fMaHF2FmUlUVbTNJr
ULBC8+sq7IK9VrgjOqnwXBenjF9Gnc5uYX5Oz8lyITh1JYQm21eShu0uQoo/HQmR
ijTnsFBwHzHsSFBusqQw5oXa28e7r7bOlUkR4l+N8/IbsDHf6QSxB7ACYhUlbkqS
7viZHgM6F9/v89n4yh+rfcjREvsSpGw3YcrRqIVP3Ic90CbB8iIxj4pEXwA9sA2F
9pT45dWfdConEdIcVHvYEgg6As46zxCXnSmLH88ugj5a48NqkZnMO4n5WsI+US8c
AXKQOI4aweXFKC6X5EDaHqKQJri5omjtLX8r85tl8/WV+VE1EC28tclcCPu91Ro0
FXNGxtGLGDbjI5d267d3kE4lxRyp+lqwgPgAqFva4SKwkeQ0xe0jvwjEi4B2/YnN
S3Uf/aFbZQ2i4L/J4VB+Mvm0qianHjt5iZeq7m1CLSENTV2BdqKefxHYPBcauZKU
2JliWRG4qfQujYov9MIDaWA1WA9m0wp44bGjdxiKeCM8hmEZ1WY5DyFxe2Q5oW7f
VY/D8XLa5Gk43IOzy3hphfs0e3+UYTrO/1oPNkTKXsZO1RnU1ULyE2TF1+gtP21I
neNAknikXfqWa/iXf6jOg716tU4rXtZWKgpZ0xnhuLueQhH+mtR7MqxIyXI88WyD
Df7vxoLBFli8Mmq/RXAt15Zg6JKgGQyPkq0FOK6w9KPN8fRG8IasraVxXhTWVZBp
bvTXr0mlgs9F7zbn244L7+tbtgRuUONtS65sE3HoWt42ov/lKYhKZ9ykppFFJi6D
vAy3xEYmcAEKyP88OsluDtQCSbIMHXqpvYml9MN0vxgeQgMDF6ox7LGl0Yzzou+M
vGQQWT9Y3mU4ZV11kVt92heD3Pp6XFj7yawVy72F2lDVW0rNz0Tb1tVrSP/rP6Oo
bkSj2GqhXDIN3CUd/V4sYMjAWe3X3I7p0J9iRhyj0VB1zumWG0zSYfyCeBFU1XeQ
yJOS3IMjferZ0yUyXRET1MtNmddqMOJPHf8U936d35UdgPfLjZtWtrXriu/TwyiY
8jxVuGfyxzI9HZKNKkcyM14mxUCvNOf+QZC+EZnib3L/mHAR0l3MWBf1nyC7VO0L
2y8RZCO2SnsxFMushr4oSyaQVz5ykTjcs6wW32+/kgUaG7VfLEsc4wIv+I0UGvZL
9Uh6HAebgPTgfVGqpNBHgqJ33wxaaZc2v41iyVWnVZZe7gMBiWkzeHCRQao1BeRq
gXmaDUXPap6ktFGgiL5hFB9P4/uOgSTgGxyJpVjGAQyN6tGwh0Q+DRrmBrlVTU3k
wYEq0Qm+Mwf+Lb8Uy7DzUaIzoNmMLMzuDfxJGBd+BX3bVFPdgsFJ+dBe3UWzQh6+
s9olood5BO97wunOKAybQmx0nXri3DS4oyP6gOvSeg8P1pIdBbL4JV98bUBosQJG
AKMKBbUqCDtgNgp8LTkrU6jbQjXUVsvsqHhdGEdtyjpikl28F45c5zvQ6OIrG0e3
5WCGQXOCaskrVvMp7gOIDf38qNiQ/aoJJw1Fr94QWuQOXZspGnjdBqJvDM25oR26
Y5XnSnezcRHrw2gVGqbT8VPRsA/F9wBmnrT18o6Q4Syu2F9gDAxSEIbyC6m0WRa4
lZ9CV2JqyOaf+24AeGRZIk5jn9OUhlnRGeGeYQTcqS1vmSVUXsvFfsh31yvVx2IB
VN6BWHGiQR/MvFv5bgXziBfHxsJ/hsfoO4BdihkbvmUWl6GGvu7/5IMwRSXqVIz2
nDZU2RH/9s7MXVLNKYXuhdmVl6a/s5YCQ8n28XnP0k2+cpJ0AqVvUjoce3yo96Tx
ZF2ydmc7tuiQm4CH+dNUpgQY5/qyZKQR1NrVCEdsiZVYTibFp62nsYSO+FCid/wN
GDukCf/ZPgDnBWGBtDMfKxhGE+rfnzJhrflTc2Js9xGvTeIeUkdLxIao9Z36AsVe
cusQyV2+c15BXWzAas5BfRX1ZYd8HSa9vAomk5JRVsFB1S3SiEYmvXZqoI310pwH
8gsax+XcVfyj25lY+2oywWZLUarOtD7TE8u4Nk3VPfOmBnZrfIWKGfphk/CnusIG
wyGO/NAGPSBq7d6WR31pXpxELDkuTKZIPEPg+kwoEUaClzhnk28jcxXFAWWSyePB
qq19ck2H973Xk1Uf5XFo1+9GC29fGlRa6mgSWl1Bs8xvOJYFGObfzchx3njMXu/O
3/y+QPZ8YqoYIUZqhTrrHE0noXG3h1E9w5PGAPqvC5iqb2Jgk++J62zqO9hriE6d
XezYmh3Micfh86AmMVzE6SivSvgIhxD3aP3UCZWJ8q7NRxwLGT1hwdBFnr1XI7/0
PPJFUcMbQwLOT0N1rWlaf8uMftX9k1klMpP7r7jVzF3O/2cnSzDlBqQ+DHSmajue
KmeLjqQlKk0bLGhivjSrDTnP/BSsI6xRw6GPYpghS7m+D3Y/52jvvm9RXcenTQf6
BKuJffD37zxYcMlItVKkP3DbJjodSTQ0l9Ay8pxigMexy/qUgIzPKP8CJX5a1cCh
fykJ46Wn7S3ZjfnEEYZunVEWTiGqF5UsuZJnVTrc1hRclHOeBQks3Pn7GMvuXM1e
hFHWmsyrjw6x8Oz0eTp/wXgb7bj+6NfutHUNQY5h1UjHHmcp8/NWVZFB4+jiAUAO
u49elBosalvp3+PEhKz7DklVqXO0A6ys+YeLB1xnOohTgjP3F9hBmuWDOrM6gahc
aKiIfl2c4HR0Ub2nsFWBiB8Iy0/XzQsI9RxKFFL0eOiGklKZgDcG+Ij+lDBP6nEQ
/OQmvczFW+WybCwW90jrVYiQ1XuwV05Spp4K4VIohlfc/hZvFd5tOSeD4xBV5x59
lKz4qJpJMoIpoqrOwQKc+wmN2VTQH57Pvs17dbQuv0BRfmYW80PWGPCuuPVux54h
LTpTJ7607Q3Ks9K7PEG1s4NImUMhba9ndy+Q7R6eNHg3OxBpgaMz/6q08nCWNT4H
z1JBlalk1Cr1npJWdlfqlP9zAJgx830KmPcAGHaoKvKwV+f3oXA832ugngVvPWB2
R4LQ63wXigpJkD9jMJ3SHal+7pDOHYJjsgXFeytFgk1QNbgImP9ufkocdOzyVkwr
KgPAhBlsK3rqUjY2Q5NWWOVPUhdxhm3yDzR1/HxJZCJ5zT/Jtefr+FDxGYRolelJ
3pkmp4gB8OLNgjIA4cVf0rzkGxnVjxAhMEV+LC6dXX5fwrDUGnCUsDScWYSvMN9v
MzW0ZhcdoXfAbk3srFGLZKFsevsbcfIaMojLBvG4/xk+esdPcHzmvJ7sox6m2kyT
thN9sl+tpgW8O9hsFGhBAW5sH6RQrfV+URlVRljiteQ/btvKvg99N119+5hmZS5z
HVTU+jW6Qbh2fuHiicKMUz6dPxnsS2sxeUy2mxPb3P6/R00UUFkOc0wb9WGVMmT3
gWKMZLeYgmiizOlLXR/UgzPuJLRxdn6Q5ly98tT6hV4yZVVG5q5XVAHxIjfj4SWf
hSGTPcfQ8w5EHv5T9UsVLHaM5yzzOjyX/ehB7xQZOX60vK+WiiAw/rhnAvU+VMNF
KOQJQiu9VwcTbGdT+yDJEkp8x9tj05qeaofSgl3BgRVBWMt/3EDb3rbIozSHyGkb
TBdOhevpqCBWsGJZupYKHzaG78gglZEG/XH8KnnN6aGJ9K4gGBOIDIN6C+sqgp2A
YPPvSOy3SIu19bQvuLmD2visNm5JBHOilWvlwocYyQhA090lqs4Cd9jnSyY4W6RB
TfBHT5yUuDYbBDyWdTpWel8zZA2E/KYogq8N5qDxnmnSlsXuJ/K7IsAdSVCCvzhh
1vcEWyJ9Alf7YPhvZIudpMBDxkGLsAXmcWpIf/rtFB73qBk1m3XNUm9RnQCJpua3
BTE135POYtMmfmK6K5xir6ETTZEJZcTrHLtBJT0io9KHNYyXUWSgl2x/cx/cpeIB
+sjfxSSAuybPgoXmXrb2uMCYjrCRlOLJHbeT01YRraoKwIcjBX2sGtqVo0gn76Cw
pNqP/gemu4SicJ6TfM3JATxr3hwhOaowixZlwL0KH8NYzYVgFZJezPLm8EA0FS4I
8TP/ao+OPvgSwwxvHrAU++7bJSr67hmi6BBqlYY9NZIH1MOVFTXfOsD8tRHiW9GN
RT9h4Jz16KuVOSS1rhzqSptQdcqqvwyWUXA1Qkj4CPqZO7KRhWEk99LmdIlvR3T6
qk/t8BK08aGPEnmCpxtmyzt4BZt03IPuirnkskt0SUPb54ybFh7bonORLKreQ78A
EJRCpVXNiu13ZD3O4XUilHGUonOju93n/3xcwqZ5gjMwAp3fF0+bROMIBBjPQmef
XUdp5TYWCJma6kjeoNEsiCbdsmXiAqO2ldFZ7E7Tfyo28PWlR4+uvYX5XnuUzhC6
eU/2SF6n+A5ViBIEj2VUbkHOqHxyGPhHYP+rnUX402wWHb73O6uvGd/WipDfeSKy
HI+hpyQa12fjeyckJA40+II3tiy+rZrfZPKjCrZKCof87lSwhGb6JMsdWYH14ZtB
sb2842XcExsKDXtuxzdXwjIb2939rueqehB4UqAsbjT8lB99M58bjseiVgcNC7f1
S7z1EN8QKQ+gkzdRM15/FL2knQ6ejfGy96rXxfZevlI3Wkm0EqNcEPFpd1ZFzdqv
SkVCx54EfWBYOs0uNmTUrWP4RZrJbDPN6noeObn1hIFtc540RuCfJ+2GDn/+Bvyj
XtP+jxRymxQnOOyrSHdJopdZ5RXCD8ezszPLb7e/nfsjq2tagoo8kfO3gjUZsiXb
p/JlR40XothnVy6tOx+0eT69plP0mJ1niJcMi9l/Jm5mM1s+9CmijvYauaDVZHXA
mdC5KdF3XRI/W+tmi1LdF/unSkQOp0mmY473Cqovn9miwBSurnYKuwLe9UcEz+AW
IfvRf08ryOE7xV6IkUCJ5paO0FPcgAJQxnDP9xPKcWNhExfOUiLFKyh9PSnZRzlq
61AD+STWK34HTayCZ7HzgoGiLqOeOXYnliD42qn58Mgj05T2+Yg6amk14JyOwcq4
+6GDOGQ2C8H+Ej62G+o+SwKj2WROpM+v+skBK5YXmC+ABNaq//NIeapm6rLrNMbJ
XPN3zKhbz5Cob7P4imLHnc0c0DH/RIyDf9t4sJAxHXIosG/KSvNMje1cHEyTqXqQ
uLTgHhNGpXHiKyCnbCGMdoyWSVuWXdKD/HTgtqRnZRHfQn3IZAiuI8coloQqlya5
Y1eDMuKBX1cz+AUbsIDcw3VuxzVvr4vi26bNQEY1NqnNxAtZcTa+vVDefNWgTjTM
TOHuLtbZpMmidtmPWK/ulFVyp1rGwF/4S3k8v1/xUIM4K0QrK00R+oBc65e+UjDz
Np84g4Y1V8rcJEDCSQnsogRwadZzwAbUlg8fErkDHxiXHjV+hEBoP0xsxTBensSA
IquRleBSiLR7EftRHUxjtzI3jCR+jojT3xHqdwt3TqGoRlAjVawW9C8Hiqovvw17
Xy6O6VqOnj/0SJQHWUFrrWmOAd54oZtqX1MhDNhdMvwjv0jXH+hhBXf9trnkdUpY
jwLjkbf/gOt/5ogNjAsudohKIBL2u81nHL8GamZYGxLVzJFdJlnBKxgMXfVh7PHm
SVRuPHB45EaADRSSo60Y0a8DAwAuNKBsErLJErWO6gGgQpN3plFQ6Mgvq5eBvT2g
KmT5o+gV7NaNSblp53nrx4qA9cba+qnTIaShBtk3y3tjMcRfdwb1/NtUWTkrhQvi
AIjNpAN3aHlsK66m7xsx6LY2ayhmXosjob50EklDp19rMsH7xylQR1BHt8aDHivd
2+vTR4rbbsLaoSTXno9GujHTJAMF4YFxNHEKoIkFEtf1dMnZsKFquxyZtcrnkt4i
Wu3+geDdbQ9Wmn5+1hJxp7tGeN5HVlNXo+hulo9LPiO8+k0eC132XO/82eaiVvAt
0500EXebjcbv7SZtGB8TKQL3w+27q1U3p3FC4j9uqm0pLXFi31g2xZDIwtBBsORG
+j6CG0idQVzfa5a3ti7UtCl+kWlCP2/YAbjGMhKg8mRkA5aRMfuksOpo/JiZYp5r
AQk297mEFDF3BZU2zgDVUDqhhi/BSz/M9Wr8hScvWaypGXwmQqAtoib6FKqgVwt3
j9zAWYjLaziiJXQtPJREfqzEdxZbuK8x8ERbRYA1p99DUCDyWUsuCIJoB8VSgxtD
+8gV8KMVOJPpgdN3L/vYNkuVVfGd+Dc/9SVXfV7wu6gFSsSNfG7ekULwH1yeNzEQ
dKWNoQ4FVEnnYsIFwcYT4BcEltHOi07PW2VvSDLavT0LabTTz/uNajn/PSUEktyz
MwrB5ykizmVIYb2oTA5TBKAwdGbsdbLmFb/Xz42BSeiq625T4JLPhF2VuVREozDt
EY3YmAoKW/zXKQoLns9dsc6jp3aoYaeRUtRbvN9rMlSjKlG6mqj9T0oRy9ISVwBT
m6i0+hl3d6xynneMBB64D/Gj7ffZQq/cD0lIfZULdiwepUR7/1RchkoUG8ebPOu+
BwHex30PIJXxe5vx61qaZ+FO07t0EJmaAn2BZvi9l81uElxn8rYkglS4C7xq1FE4
QifkCoKM2Y1R9oOo1OK2aXhzDNfcOx+deoPJunI8kHSTCEWTS2ZR3zWl82q1WBLP
cTdqxBhkZHgbchA9C7Al0tMwom5qe/G1IQp0dnz+tr6hM77WnEtuXw3mZd5ySdJW
RJ9C+P1kAM7ZzhShlBpsz1A82CI0N2i6/9WhSN3ee5bNhcB6ZtMuAOTp6wTz9h+Z
0iDRUasRaE+MOk2NAIs6cQkClOu50UV9iR/DBCvXCQ81dxYTQ+N0PH1CNRMJVLOc
owIBP434dXi4pdZUvSDPMYWl7hyol2i7s9R3UToASpuZ3SADO23mcAlqVV2tjRnK
12IdO8VwYC98l3dTVmwl9hcKtKJ7ZqiEi7Ade6F04LRaOI/ZbUzUg8w52XzbmPHT
QArmUo3IJUmCJHyuINwTPmcDMY0/beQYlXtlM4+/gsFnumd0vJp84trGxb0ht4Dt
eqHIMMd4hnCFB0uAoVFq7BuSNcHCPmg8Gu9itnKlpnBGkdZFsHlCBVd4fsvmC63i
FNDfpxHHtXbJhBFigppXkjftHhFLTop+W6doSepID29cNce8gZ94+HozT6WeKll4
5sxiMHNFV5kMZ+ry9e8aBdQImC0JqDhAb4E1F/dVu9THcGbqfotILRLlPgUpblej
h+ci5pCodVVRoRRVcxD/qAlbcBXQOnPYrviBeClY7yL8Q2FQkhSd7pQNojY+pcy1
opOTI7jGJUKeoJtEMzpMDEPIAYtl/1DNfMfIl65mqLCRB4azxmAvaVyV2o63jZUu
KOlx1jud11OvmyLjE/hWmJCMHQwk2Y+iptAOtA4/2zTvy5TD0GfNNEoIgg2poTDi
J8GE7CEX+uBMBeOLPNwPc3hxJd5fdTLjMi9xPxz2Q4XD7vw8q5pUeb1UREKCLGU+
qpdJOFPG17c2jBNiBEgXB7enCqlvttDWgh7w8+D5jIwnY9eMeyoIwcZUvQ5RCO8G
ygttLJZpO4S6C2izqVcDC1kvUaGCcVzt+jG/XU1sD+M+8X0k3VCJ1G0V3d7Bo9B1
5THrBtoz0T5NynsNpvyvJl04WSzIaFsnRjlTK3HdsQEGKp6/vEmzM3tlJlL1uiek
qLGyufeMYcgwIQRxlrm5r2UD6/MqOy/iHNrXtNFC4QW4D2JH4CTTFtFTKJcREKm5
9VBI3ZbgwAPtFvMn1zODZ0qbBpVit7eNFMQTtL40sthid0tS/BNflZyI2aTmdBAe
vj/fB6M277OCTOFRLBUPU10L4Bxu+gTA59o5v19eQZQU67xJ1lI9FbjJzu4cWj3U
//Y5cjgP47Skq6RwjuuT9jyNOoUFPG4BHSVTWbc79RE0/03OWE0htEzZUgYj7UF8
556Gudosd4JoU4X696xJ5iAo6qxCS+4YZQMgyK7dAB0hcdR3Gz6JyDNVPhAzLrJC
QmVub6wZOOYJhmenN6G+zVqarWSF85fVZhzPVTYOZaLoMTlJUzf2d48VvqvTM+IH
M6r+sKid7s35WzV0w03hf2sFrsz0NU5nJzIiinom9RJzrslPe2Bb9N6AZ6ysa1aO
feX9pgIh/Um0G1cbz/p86hgZNVopwG/RcMMc0y/7yt/rJJ8KIy3nU16uyucyX5tv
QPhrYNaJdD8pPdMQFWLBf12g2/9W8gZTbJb04FRhgxIDxYvSKwpMre7dcA0r/WR5
0vAdBMT4yRWJs/eKJ8kXnXZ1DhhYSYBw2bBxhaK3cSaRv1ne+iWi45r/NuVUMJYH
PkQ258ABakn84BZPVKWxiLFmtE6ty8H5drxdbbAjIxh25176ck5lFrzssu4BoctD
zZxhXUp1LKVPU0gHNnmlEr+u6xL6FbFm164j7iA5bImFvHM4R7Xknoi814jk4g4Q
iTE2XpcS7D9pc3Oaofg1fO2PEGeGfCr7/RrvbZbmaADPYO/sUVQ//B60SZSLeAwn
b70dyw0aigUxOlzZjSEdp5F3IGVQgcfVO6t6rYCqxb8EWpcKpAppIeP797MMkyqD
KUEQGNlWtdMR4lz26blskuDKKtt+0hu86DCQtTzpYu50NXAnGu1Ku1f7BccoqxtN
R+GO/Oqgg6UgPpp0PLxMSg1GJdA4qNcHT/dVy8m9wcl1kPIMTw/VkxfWgPjrPh7M
KfAAawOJTyLSJ1XpgMfI8Ew42oa5xv/QxCYqQi0FfJ+LvrLyY7P7+2Gd+E5aHSHH
pn+xSt6CZ8ObSowZRzukJXkXL955HtqudiEND2g05b37KkLQ0fBPre+GSpQggMua
Xb11H2Io3+ODuGUnnrf53yYCFspIM1ElTjoD7eH8cY95xj7wBjesjTO+AQO6thEE
PCKg74ENlT4cWVHW44cr2z7jHaAmNwRhRxAS+CHDLbdN7YJGKU2LD9p3g/oBvC0e
m4+bL+HeXvsdVsu1EvTEFqPUhCQenX6m6gstghrAMc0dCIwsroDn970SPS+M8g0N
g1P4lH05oHtDoCA4FklkqEKWgu/7/g0KnD8fk6NMwgDRMkKpJHmAu5sIDJVoQOl1
F0mhjr/9bb/A8zJdTM3bzAHG4xd0pEITcpqc8lVc44qXBJDHoNuq51RrYeAwCl84
YCigWf0qfgu1qpXYwKRBqL7ew3253qBSrXWLSLqO9AbI+VkwyoFBXXqa+dIQkR9x
/zj8w1LKflQx6cZY7WeJpupLpGDGEaqgEjJrpGvy6nlozhX6JZzhEB6o9pZNPlwC
lDr1hYr4Ve2pQywWeQkVciZEt0WXP1wZeY8qB2MIXM9mOWdLhgJqhXfFJDPUV83r
DM9lgOxI7TpegHqJtf5DUNC+ySqcl7ZHb1NM+Wd0ZuSAjPkHpU+rgrbR0yFIN/sx
p+XZeysZs1iw4+sMEBIkyDjAGYHlTniSclMjZ+IVSGRSrhZ78bU7KSt9lIeoBL9m
32t8DHEp6cPhaOB202Gx/pZPg3t5YQG55D01oFS3NuxZe6mYsWtPXoLGaeyXYO+H
/Lj63D0Th9pKOZ1xTC64J4inDOzS6Q+Q0CikJQ9wXeYD+JV/EH+ZmXvv3LGvBDAs
ETOS4VgZ/bZurNQuornfD+ke9zy+x29zV7P5SizEesNm6SfLwoy+2HH+dnknBhLJ
bODYT68oiD/lTKa+S0TzWEeS1HRO1E/jjQAd55gysZ+tC28NH52kWvXE/Jz63Nnc
RNMyFexgMLHyIj4ugF2la50FjhISeD8ywXiy/Z2JGMBZdfAMXDCIfEM4Jnhbp3LT
oUiuUtxGN8xFGU4v7i9GOcU2X2DlqzdvHVd/+Q37u9/tpu624WfZVlN6mOUzWI4I
bVGbowmVL+c/hc58aO/6CfFbZZ0yE+gW1TwO/WX3M8yJ1Hh5b+ISTtyW+/jaDHb6
18dUCPjeWmHjghENPSQEN7LhXdikycVA3Ap+AehipLopzV4qme4/4k10DRkMt7r6
Ox+ostkQY9SRXUVlVczgpikbZUdAY0wjVROcr9JHeQU2Xkb1o6J77twJk5RX6qUM
l4T45s6yyDxRJjz5WqJvWlEbr6Zpj7AD9rfDV4vrR/4Y+o8rgk++zBUX1gVkG5s3
9PkxUspC3lgxv8nbvLkZjyt/1HQ3NIQTrPglFnxRrIrYKlS6g5Sl2vj4GpfZ33fu
sxcbZheaYu+IvZB+90GAJcjkwcpQGVwsCd6grCxlPigVEXluDyopNRPGS9ZCkj5R
DpGP0KGAzNNGREH4TfC0l2ovaJ+YF4U1L4hEIFMT+PgWvycCbQ9UHdkZC8kTcRVW
MjeS/l/1ZDKc6jfoGUlG0ixVYi5SOHNg74NMTj8f4pZGbbkOAfyRT+Von+M7TDoi
0CBIqSmdNZqeDp7ZWRcZlGaV33HZ7WnnvnIVeVL2p6pi19f4w79VAvm/1GIV5+OD
Po+1cbL7rozWhCKAXM3Q+rJLqehXjKPPSpA+JGDIhT8YEE8cGq2dONF1l4fdpnAW
iwFj72VLPp4hjNiUqM3QVx4c8DC5Ze7NzaT60vXN2pRZvUv8YVoNBa5BS8FPOPpy
2BSqEunp+xDqXtSnsnt7JX1WCMYxFv71xOiPVY6jQtho4+ykYbs3SMJ5aAxuUi0n
SSDPpk2cnWrtrhL4108F7uVzUbN/T5eeerfNmBTqh84grw07GUMSkvJbsGH6Y45l
tP9SvKXMTU9q7zAj5V3UFZXk+XRQN01W3ZbfE/rQZXKwT0XTqBcqP64GBLSfm7Au
w++rqdfXA9xXOUFyd0qf/tYeEmKi4NVjL8YaZwLCESu99CkxkbZXDFgd5g+Jygig
U1JgZfpRf6ug7JtiYS78UEBp1JJo8MUalvkPuS2fNtbDGHvSfOi385zQY7LtMDt3
Q1nt+ucgZECfhIRJIKW+W4Jik7qkN6h8RnVa1TBQEwOUgOmz+tFSkaam6lZVD05W
/d9YKSLGmVJXKPWWBvcwhnvPuGmF02H3Mm5Blt1e2Wb7luJG+aAUMMnGJQgbRHRi
0W9RV561hAqD/JlyphcYl9yHZ3lvwY//1qEMdDPeohZguNJpB3+YZ4D6S67DfgEs
J5A+4rIzZeOt0VDlEKM71K86CXTyw4IoTDYihFrMQ325+9E8bLXNEp6icglrcn00
EorvKBOM4p3ZyRjc06xBDVQ3BYg7rtU8nLcHO7wJWekeOma5Sufs/q1NfIcMV2FY
Bkkevns6A6gQ7qVkJHLPLHaDZ+X8hl6zuYPwmtKNe0EcuG1SRT8rPpKOkMdTDupj
iJhJtKyqcBaS5watZ/R0yybnrmWK4sMRKIHSb/+tS/11VEzr0SrHrjNhxVIOkYBo
et44RoPQIy+cMwY/C4E10NkkvP3QYMmhywqcIpKCGMgUlJ/FVUlMboTZQeDBI1Vn
Z7o2+pYRZNqSz0n9o6c64w0YvDL/qh3HSWY4jiwcrVweARmXwOXAn4Q8+TVjF8Qi
yr5mPVqBAUskD8DrANQgexcRmKgXJOLzknh+/yCVHgtOtp6xrdFDG1uURulYd+eR
I6rH9EWUEPE7cU/Sp/qfrw794N43drFXJjwPzVVhJGWH4mpux2eSiGLwgZuKTqJh
x1+p7wxw9c+IWCxjotFdjGpBkvAGnIQfQ7m207V5puPOyGo/2q5ylMHGOutvMJ2a
6nkBD8aOeeRz80qb3lX3Yg+G56rc6X3E3gyvcqBlc3MCu9+FujkAEN6LUwJRLrdd
tRfpPurDqVSz67IoV3wKobyJXpQtQKkHlQv/hveCjpxpPgzaBPaqtkjLFw6KzMqy
cvEsxBn5UkiMl3wMKqq7CDjIzxYw9Dny52/byvK/TCtgPhgm6wBLVONwQulyHMEq
7vp4rx6dOV6nPzDvdHwpj+o/ZnORMMvXHkjtaAU+be/UgEGt5qwkFXg0qSy/ovxz
EQczhuiqW8bn604Q1+eJHjSitjdPp6WCeIyhsYWVWsEEeCvUIBI7QnZEC0PNVvhV
dZo67LggcVYBAXkvvl4FS9Q55JRzlZxuwCt0JyTOK7k7vqc9D8N+IWz5sTTLNpUv
QqgY9ZrqZnFCdYF8D6Q6b7LzERtuLUdGEOHuijrF/eyVLvnpHtX4Y+77A4lIcmdU
o6bTAxqoeLz/8zuj0tFOCD0lTpuy8i9ztBqxMuug1212RBOTeFKiAVhRX1bUUTMj
e/MQzWQDNtACX5finU60D57a5UG5nLfszb3rLzDV4EiSh1eG3GuH34/6JaCbtFPC
EgesH5hD5ii7dGjACqv1tAFgQN05dfrIZgepsz7CAnH+VpeJLyUr4HMuzCwixmU6
PRyztGzwL88qEdv6S8WyDla4uEmn6dkIbcUodWf7xFfsgpADthB0MHLD2Bx2yvA7
tyu38KiD2aJx1DV0pz1+2qeYK6bgMoN7LdxRNyj3AqximwNTKRcprkaGFS3B9m6/
p6Ew/dQTuFNVfCZxqLjscPyIMZR7U9VAsucL0sKNBQkn47wdyCxmPtXv7lEDE8UH
6hWnT2fD6/g5Nyr2+yQ4qHzYERbJ6y3DZN+nQ3KkmvNTPEvTtUMMNjFogLn23oY9
1THyDWgDBO5gJrUsVj1ZAqxkkdr9ZiViH+wY7ojoUJviiqT/cwXl8K7Oum8mRcgK
Vp9sOzrfury4NjQKuIyTAr8Bf9LbrdyVHZfVndkN0K9swzEJk69rOtg8MqUDgi/Q
rXU9c1ikH58nvstdAfx6NKXFFxoTIejYO8odRstZjMpB2VSEgBJPrU7hBWrO3k5W
uGvR2iHA475jitUHiqO3PfIqXS9xJcQrwHQfQP987bMnPSFsaERoClnMsEyjUYVu
LLaqHhPRLa3RyQ3IN8xQ8aS2GA3hpi3dXedPZ8uDxJmeFghlav3l6ktsxKvYm6eW
ZvUW+ZNc3nSmnOpL2oh02t3HmWQIM6sZlEBsfEsvR415ssQoc5plMqVPL5qaYIJg
NXg6du5I1r9ElDLrvn/XDlb4XzK1ST9bU3p5h1r0bNfiW/jWvR9FGs7QLpGOUPtP
Wb8CHt/UvkYfmF7Stk68/ngqvCvnX+oS4iS2NCGQWr4CXlkiqh3Zbk2G+pTfkUeD
UeG6Rn/RYm4LlS6HHmC/qE3n8mXzcMzbyOLJTvEuSt+IZ6yNaDnjsQpHHQCjl8/S
+Gb619O0hxgwVQ5aAxpB6Sb5hbRdF1BDdHj7DrWqdsFsCLNmb0X5wz4WRMWJ1F/5
DfkC8aWaF1ltu2a7T0OeSX15hKYxdLLWJOm+h+Xwce2JqL5YQtOIgY0w8uq6I3VB
8fi1+ibqMF8prPFcszwShDqieJ5+2Iw+ZfRGu658iINh9trv20b1PtXaTaa1X78s
qr9eORsRu6CopeOFtzl4+XsvtGXxPr7Pjc1Q7Gz3bTMoOoacuuIIcfwsfFKGYw1A
7+u+nl1CBiEPgZQnDRkz3fjD2QpCMvPiRd3Zxn0NhRKMu9Q40QK1s4g7wHCq3+dt
UpbJIihFx3WR6KZYjQ4gEMa9bHvrKzBX5Q9jrVhNGWHNXELehZqsiRr8AZCrZU+9
X41USu4gM/tZTIehBOQNUOayrekpxPalCTkYyjFVQPtdLr0DxvKbf42Fc/+6TI5S
hTF5CdZmOvmUhuW+zyWbbXcL1MrzgHb0idLTV2BRXJ25zSTgSAUpo7+xqqhn/2tc
LTcQvF6+fXQyror0aPBk3PjUIZlKb3Bs+G3mOq7sUoWgfZ7/n4qjDLgtCWGfeKcs
zqfJ31zkpUKcP1vBiMFUleLvZwAZM60cslESguSJUo7W3NWDW9Rr9ZD2bFr6FPI/
yD03/NOszfOGwDaUz0FS51gNrF9VxE3BIEF1Yscr+Ps2PIqw4ikVSin8MpiGAtyn
/naUmaZKqyBtkDzxT/5rlRmjNuB9+Df8VJbRjPt92J40x4yoLG7wq8ykjjJjrEyr
A7AHsYyWJJqwVrIhQfTbHT2/AcT/YdSyT/IXdUkOKjhk3Yvfi3NE4vfEsgDgod1H
HFnGPjOBDDF81IaDaowAfuXjsXxMmXazQyE5Wema1bgLhK8/Drf9VusMwdXwrNqm
SyRptjr82ts1ZoBV4RuW9lD+iS6YUu+WSd2gvtSW3JVeaAQW5SLW4xWvsrMSlUnK
rWUcFYaaLAGpfLPe2kcpuUIDde3kb3d5YOVUDkz1gfPSyVkUvlb/TOomdjOKAfZC
DvULkB1Gb6x1CFaopMg7k1sEs+nZQEc5j/y+dUqtQBMUNHyeKM7UBnGw1EZnFBP7
MAumalLFMTzf2DcPS8xjbM5KAAZO0fqqacCvEzab1i2Jkg/p9aF2u29K+Dhd+TlZ
6iFwVkYzKqicD/KxUCcdoA+drzykV8xZUpHLXmkkIiFQikHw9wVqYspBxMI5NmGp
5iWVsDExPsp2SmmHN7M4nYrCVWLi/96/GDSz03sr8uutBbVHfqBEPnjsYEV5NoMx
HhfP3a9T4AA6xYTSg8kdLAtZvWH6/fDmnsLCcLtsVD8N5ip8YFksPiq80kSrYKpA
2UUl+JoB5TJZv7QEgyBgQMB41FR+KNN32Nbq5TVu10VT2rOtEonzzBbLA2QFlhRV
nngN3A5WlNw8V6v+nsxu0PZEJEzBaUtK3GzH62JS6hZ3rEqqcW0wU0seBPX9d8VS
3+FXVmQTHdCHymdb6+78+eYz1F8jNUhscLiaDrY1dOBN9KSNj7z0D09pDfLCaPDT
V9OYayT1xax9vIjkoWUkgcWVyu8vb+cmjEcbhdUcCuCYElZX9JESqOc3SXp5RQ0K
zhYL2RsT5MV48P6hagYBKP26TdgQ9Ose2BrNNN36uql8hmTRnypylhNVKk2GYxdx
XquwNKz8X3CErDCT+2y6iDfKm3DAvQwqvd7ZSZ3XVWYy6K9Gtcjlku+oRCv3GOHH
yGMynf8ZMI05Jb8nZPhhgFL77UYjevHoSSfwLPAKthC0epP+KUCRECp3dvuXyiz6
/4qY+EyI0+ZZgOTQ3xsmv6+/CUsSMZxNrm5JqQGolTzCfk9AgwhVl8KsBU1DrhnW
v9qB9gJPsKzD3RQLu8hHOmlUJqa311i5d33VH/H/DF/YQgwzGN9JD0icgGuCIED4
sBKe7cVU0zq/Yk+n+8q+T/uZ0IAC6MgViC3Av4lICp2qcejYfVxVKHxUhOA+8laD
zQdUI/CuYn0nuRu9V+jzSLlKjYoqut+wPfr/QWjNNEQbVlJMo6kKUEdlWpWtHIJD
223Bes7xdyrQ7p8RaS8rnM6bL09syuKzPxLHyNgCklbrcqI+82NXABeYX/U/calA
wGAivUW+SICCdJ6L3tJwCnXq53NUzi+uj3qLefOTIofI3wabu3GQw1a5NcSL/gmD
rdhyN8YNMWEWmLObSS9qqu5MGQ3YtzbXjOr2GI/oKDBt6s97EQ/lYV1vXC3elEWx
GfWzVLes6NU+blG4VhU6RAwG+4WkFJUqvK5oLwzfJfX4J9e1R6hHfq1iE2oT4J/4
c/+vCWOeA37PFiAubiKi1TSyfKO59O/srwXpHVUpGcThZqTfGOp0BIo5tZxkA2Vp
hP3kP6Zj+YGnsTErZPYt/u1DdYt2dcWdbjx6EvAQ9UrAElrKxrDUMA8atafS86my
u2Md04M75SUUcgOMkz3VBsEC/RVzzq5/+RSKALxE2ltfzTuBZDrPy+Q5Kl8mJ7XQ
5FdLK4ohKG3sXT3PLXxDHmM+0gl3T+aKo2KPzY1Q2gxIKSLSAsy4tsHFRAGmB+c0
1JrZ0L4PNykn6CyUGcQFA5QL1vrOFs3TVSca6SXBQomnBsYkcW9NHQ7G7iJS9geL
ml/dSDWQcPQdLSDVJB6zOuH0eOTrXFHlvwvkM9iqF+FEjVGOdDmVtcF816adpW6M
eH5fksuLYFOCK6ogHsbhjG9OgBY25KJtr9BKCHWri2USCI74RWKruOgk4yTtZiYB
MkSMTgF3zIdghSM+J3MG0FC0oCA2RoRwwKMC/2gNX2E+f2hrqIf1cj7hoMbA09Di
ljTEU51XFtgxGyu7SevHem138A1CFhC7q/QJmlceCZe4SBABW3ztkL98pwTuFJXf
zzpR+W0QWU/FHTkM+rlIGWQGGmspm7jKcCzed+4nh2r63PZlOruXvmNpntMRCRdS
3TX9hmxrUeZ9cMA3NKb4cHpkaXXeadFOrRsMCk0vJIh6lTu1fA71P/xpNCsIBjri
rlrhzg6kVxBnUGOQM4XfJ6shlIZXyHeY3IAIxilYqKjW5/g2TYNwOffu1cx1xxq4
/NScok8NlfZY6VEyBFcZ4wimLbaowlwTxb2C/b9MyZcYA6ZtMMh3FEcFMG4XWwVy
htbaXJBSsJKU/uqj9zJINfe+J9WMHGrdPaLRrpf/vlsUru244nGL5DOj9mmKd3T4
jlvV1spxG62dLafnVKKBgntLVtv4r/mt3u2YQckye4ruUyYakbjqZ8OzJ7iyb98O
vSCKECXibN9y0H4U6QG4mRvxulUhiop5+axZIDKXGjaHBhsWTOUrbuBjcjVY/AeV
h4+FVgmMQQiT4G/PRIzXxSkCrFJgmRXEu/heG9ZsENo8oRm2sHrUWP5YEi3obZd8
7QpJBMBtAs2nmS+bfAZSPaw7MkYQmUUHyIjffxXjGUJJ32dp+TYcBxKJzuOZXCXR
hhH0+VT2u8N/PiWzY4utLupnRD4Xn166S4A99NJHCpBoFTz/wOxJPynKtkPzp2/N
99tS2C2c50f/yc3S6zVwI2d9yIJ+27TVrStIgkkJTlQNU33mXoV0XjMhNiPwBpAa
LsPqtWk1R6+KJadlgphSAHVazL6YpNbwMAPdmm9Of9f9SRpaRWCaXHtXkTEmM18q
gx5FULCG05cxj+be/4rJU3/70Gc5yiEZIL6PCLYxt6SHTNRQ2d0ERmXuDHZA52qp
8k4AYc9v1SWJV3ZolSpy/epghtmFyqxt6dPtiSr0utDcOIC4ob7PMtS8HVHAv4aO
8NVRTEXQT+SrZWFkqMoYum3R7wChChqeLLRXRGiV/OPwvR/Qb4hqFkDBf6/5R3l6
aemvpD9NN+8ARH3F90/1W0a2mwsO5IaJL0ZOBOFwMj2d8LPzRe6pPcbSUlJSDGCp
vBhvbIIaC1IFa+3scYKYapKYDsRpxifUNk4V6nZpOx6DPcLMraGl1MjaF5TM4fYp
qremAE0y9ghLhMSekmEwlSdSehzIUgF+Sa/BbiTjPyDrG5xMDmaoBqRu0i7m6Cmb
xszkMl+MjM9z4rLo69QcOdX74T9V7LBIJcfbX6CmtZhbI56XwMM0A0OLxohPn0FG
yG7Ykyy9W6AZ4fjsxFkcODytL/UnYpBcZ9bIIhywP6i8GocVL5vdJ+FMo4srMYHC
tBggfRiUM3chGYvJYQ+4YysYBkg1mtOGBptvBGM2i2VDMMlergeITh+8/Vc+k4+s
tZvulExWbY9L+1u4N3CnqdyLn1oVljfeNxf3N6ohMI7rNMqciHpJYyK3AkXp62DN
njE4WkLc2fmwfGW1wEpZGzbP/mglII/cO0Q9QJyOo1pGzyI8gNSa+QUx3Jn6roec
jcJrk5Zh9/8ujOnqMAGZvnI/DBumDqnIwA12yZ+P0EVA02ekd2JIzrc+LUMAjhB5
U0j+eQ5Q0EPAmY28JXImyQd3ASu7x9NmP04gozOs5iPxcZxv0YxdwDVU4N6ufhXR
D++WOCMGux3Gb24Q2Rma7JSqQSDpXDyT7tl1NBBTnX4xnxXt8OU4vBqBGMxV7JFZ
j45StXx0YtfrmY88G5ZSgniy0IznJ7Zm1CcfbKJGlYdDtJN/9VASyyc7VZqYT8PZ
InlsM2r5EH0lrvVXdIrxrcYFtUJSrqkyGwofJ49KgWtnNsVJKmbroiYCNl9HebQ2
2X7yrgyarsGKiQgvh72xJphXniG+1RB7GWpQOFGfY1Xp7gDmyEteSveY4XUztVMC
Z4Stdax/ZbYmDQSDnolyDXejCicQOYjr5ySJCrszPWvGxbZ0x/99EBN7eU6AeZPF
czbUfNLa/yJnUg+UZJFhPlOBL0Mrn4UtorzxalmGbx2RQl/iwQBlmcC82mJTe4//
RpTmXe0QokUop0Pmsu7bbGu3BpPTacnt8SkoTXIpDY1GrgLMN0jzx1BR1+DPIKoX
YvhypAmaHAXalzgXRAu+/wo62jjAASXJyc/X20DnDBDMkRpmCXfsTbnh3FEnPBBD
rldVXM/lT7BJVAXv8D3ovmUeMeykMrUFVBrFjR1Gl1fUsi/eyudcAREDJV6l1UcW
vivEFt+7DbvT5onihShoqpa+Bhaw6v4VFqWnnh764u6Nw3l9b5H/COdb2/4e0BHV
BmHoYWy140HlxCokF8mZvEiP4AQMHbUYgo9l3l0wk2kdB1eZj/4bfww+whixaYUh
7tIYcnBaUySAdHsFs5h3kDsM35j/Wz5bXjB0NjUTYkVdm/K6eZ4ELgTq9GPh13jx
7EcH8g6Up71h+cU0wjx/qTaZ/MiMhYK/EeJwm2r+WFMUiqzewqKYNZ9jBJKOtpkc
1EvR4/cIHCO7fZrW/U4rjEgznWgL+Sa+yoxr9iIHdZ+sIfCn6S5owEzpLaIqhRnl
P2XwYda5v7P1dmV9vWGWElHRO3r8ZhIh4Lvpe4/wq55I7AX+KvscVgaDlaEc1gRb
XJLDxh4XBSGO6dQzn6uqBg1W8gz5I1tWul/ON+MzQ/xhCO9tx5v2Uu89n0vU4/Hy
I1gumRiy3rAvPvUo0uvVzoGZOBpqGZUtfOi8tUSA6xq0ZvIfVnu1+fqBp9seAZWC
kksRb1q4Y3wUsSgmsMGgC7SK1pt7vzqTyEI47L5QzZE4lQEXdnzh9TP37WYuqgH0
fSd/PlWFrf8aduOY6TkJZ6ZKaELIOe4ypS6m3gB7OGbTGIU8UuKzvYbAiEziqdss
zolAWSZ0JmIXUtOsbALEDO7X4ayQwuc79uIiW2cq3UB14cW7vbrJl5IjAaZOqOjl
8FVOkp0FDWcFkmBXMwDBuAtEOuBbEp0kbxDuymsUg8QnEAWS+Hv+jYP3uwdJ1t0o
YHZ2tujtXjvxejPJqeIfVIaeAwXYFt7tQvA0nsAnLrLYlMLf8esO1TVwli5m9Od5
jEYsDfmICfJh14MOWG5QqdgcpQ4WN1n9xAjiD2pRPMkBq8pufa+HYJMwUM7I50F+
hsNd9W+Ufs0RkxhHrdpUTXXD/3A9cfJK37I2nBHgzTCUnsoS7fYwP+HQaKsUxIG7
jlEOxRoSpZ748aXQrELK9fzhiKxs0PPFSNqwtr3IyGwQjJXS8hvlCdDlpsq7IOLa
KRAQ+MnAIR0aczAYd5hSjb83kE4tIqbtyygRjYoMeMg8oZ364Tmw8v9R8RREk+fY
x/bLiD42kxOsJTlZz8fwJKHc5+VPEBccqi4plfIjHWvG+SEmEJFfzozN33R2sEH6
pVia7X1sQ4hGqOXL7j+594NSfYcwirOo+2FZoG4Cg1/Xaze7eX1kIa+34ThFPDU9
O8YYZ8hMXvmO9jB+RT20XbMu/HcV/gAYbYz9qwx+qkkvpLEfj9DNDjM/zu8nGNiv
ZRhy/CoODOMV/l6JYiSpPendLCs+ILCCu4sCn4UhETiOzYe7GMm3/BBSVNWTcNAk
J1v8XWiQWVM6DaPHcNFuTKnivy03qU70idrcVbc+HfADy4jNMAHjxlhSBnCc32ZR
vvx5jjHzPPMk/kRKIjGkp+DTdmy7IQJJ/AOY0l0KEI75uVBf80KfKki643ftD132
tfCX4YxX2rLimBdAlgYdsmJiLON7oLlLGl+vInwUZxSCy6J2zu+I6nxCzO8XNZgN
t3+HklYgeSXbD7xiwNeiFi2Il1mG+hvUr3oa+SjSTG3soRuIQcJfTfkjRq6dXMp0
NrfACPC9RRzAxTy/PALALsbO9hEJWwk7ZPBA5Qzl5bGyl+6fLFaw7yVNvcQCCpMw
uaW6tDAADWv8/PyRV2865H/W+9D1FO+YGmbCOywbYvb6QHx0Us1vnHLWfIylhuue
BsIRgUgb2rTSKeMPfe3MYsjxMacGYQRF1hJlpUufXr2RwMAeq5SYwyfoWOhLdxNC
CcMsTfkZxJRNlHWPDYo3TEJQ0LzD+pBfkPn0okt8YP4kA8gSSVm02jzNHUtF4FQc
r2gXVAtNeL9dydWVbNd4RvnDKMwWF4GWJC+DpqdU1ApecQfqIKsPWBFXmAGDvONm
+bu7u9s0jN4SafUrUtLdHDuJxYsT5/qJQgB9SxcYFDYHoBoWDmz0GOUnso9FAST6
cMRPmhg6iCq2bw4dJvreiijZagpVHTXnHX+j8AahjsAB+Jo8t0Y6hc2CZE4Z/bL9
dvlqcfGvFi0sHZudmK+2xuLj+7C4Qgk60m6NNduSQPR0YxJBtRbNB5ewl/OzRPOq
ZpiA4vbgyTuIJ3I0cV+aa89sCF/KnZC6qD6kHm9iWT6gTPaAKmz2gxfY7OvZX1fv
+lFwbYOMj3rMotDBFoLfxco140e07OYcCfd8wQxhUVpIlIUGObY+LnjG9KNYISRx
/Z/U7r7HLun0siffI6ItsKIKSciDpkjIrX2Y/bUQQyIgo9bO8dcb2dSkfgt6LBUI
SCJ5XOgEhPHMYR1DQRI1KOrck+Ce0YAd9GMqDtjDSdd/7+M48aPU1WysZRwef+6j
vIF5ghUmVaUizuzTKjklArFxh1EqDQMot6IfHf2SqG399w9PxuX+z4PJ4Y+X1WAn
cosbvGaMlZncPN1VoGvOn7jA1kihkATohkiS4kxPGnbdp3gQttwN6ilbjgHqyV4R
n6H5y/O/A+SNp98nEcOj6KhCq38dDiNl15lVGKC0K/3WD9RuVw2642mNHNFGVGIL
/KkL0W+9WUg1NDhts5kV4/v7aaBCDncv9xp/uSs5qZxpc9ULE5jv4R1+TvqfvhfA
746jrqkIloT5l3bEiM4QblG8aU9C/gLQ6kqX+DbqaY7exqj/7oaMd0XWFg9mEWiT
GCuVw4DAJ/IftYLm4ocR9+Uv1NrhytF/c4ikhPaamPBfJTVIpx3VYgXBvbXYmv5r
CxdeUWlZcHYb//osmdjRF3uXDZpmL2uqt/MJgMkT1AECMI1s6OdXkCDzrOKzP+9I
4+/hS5/aNoohrpA923D0k1M1Zc76X5W5CEhAHi1dq04rZzUuPYsd09wekiV3cesM
gZ0YB39XStGkJWeSHHf4TD2I/3rZkg+nJWN2bvR003UVPfbYNKT4Jh2MdozO5rEy
2e28MiyU+lzXzNS+N6gSEyePr7i8PEf8gqIxeXvTMlqMO2fjCLUJe6pCDfe4QZ9q
6RHdBUgobFRC6+tkigOMs3UClaLv/V5ATj7Fo1bdALuVddHkzlALKGBfONS5BJNi
XayV6LK5K/PfrgHfhUceT02YYEDfSiBDOCDqbprbm9vJ3C0FLxwBhnQeUrDWNTyV
MfAb6FN3D1e0c5Lp/FIaTZtVaD3SSE+MekbtasMF/UuoPC471yBWo8NSjoi+H8OY
8xJaUFMNmF6bTwybDusou2G6pKobuE1ivEZJX3nV++1Oz1Nw39WZX6eZDrGdT4Iu
DY+/ZWwl+s9zGNlFaaN82TY8mmjoU3EzBbAap2Qwd5VM6rrLrQ+NqTT4nWJU/I13
BPnR2BXVvpLzjbRj9YuMR8UEMtHCilnq3UNZ2QYpcx3cgcZxBKEdDUlD8c48xl1U
UGU07iOfzXU4iH3xUGFe1ZanfriyDkaLgmFl0X1INBW2vdkSsLFdVaRU1vqkAH55
6CpycKgor3Y5FBEvVTw7FJ7csmJfRwwP991cKeNHMlcf3LWbQu4dUdmqXwSBP3xr
kDCjOJoG3AXXtZnAGOXlG0qVDVrf40nlq6iP+d3ArIBUj1WE4P+n158q+Xd2GVD4
VsnG+A3Q/wdZYeuQLHxLdoFYIfs8PlC9zTBfCq1bGuYc0lwn9RxpL7oHhvY0CcCH
2MOpU4TZvcrnVNih3OfMWnO1PBkyI+jOK251KJsTNDeaAVv8jv34jYZhQZKOYQgR
lxRH8M6m73VVjhXRpeG0AOlZoOSaILcIUdJFGDi2G3qDdhtrdFjWbZLgs9gK+tEP
e4MHvwtSpT2AKTj7BiDuPDnYBtH1M79StFPlsk6nM4SWR0Vq9/iTL7xBCK6qxL3c
MM/tOfKpyfKC4gB4rW1T/9PW7M+KILm+1vfOhQY6R01bfPLl0gXw8CM5Ub/57UDq
BNi2iw9O4U1n0LtIAUoK22ykTUQ7G4efjgU34HKyeAM3tlSbZEu5e5VTCRxUk5y5
/3SvtDssmiMKSSanmKCw84RGcJ6Ptoo3cDvG3ooOWifZ2zH8V4j8avEfPZW1e40H
uX770gHPU3L1gq1UqnN3UsZCB8xT4ELFIrJ/tbowxTibaOH9LGolwHliUIHnTBl5
0A7mUlRm+iG5VZMtkKejlypD2qjj8Mnx88OKWrM8aAirQ6RQDDfQ3xSF23z0FIWo
NLBH7KB/S2ja1knHvFUex2QFvb779wUsmkaY7iekOlbDlT38jZsupTZ1y97r2qcg
1hato5LYUgRJzOjn6C+9cB+4CPcXN/l7mIflNpVtHlNck2Fp1TwxS2c8MKidgmbX
mpSqpiS2SJa+I/gNYdOIKHz/+0zszdauswW/4Lrum/4bYeAfF1BvK81nXzlszOvI
NdPKPx2N0QgTV7aJhCjjWJ1wQbkdsrPk09SdJok+lZpdxacOL3Y/7TaNFMvxnJBH
BleY6IuQLg6wKd1gUCV5SoiDdj2we1qWJOUAyr4nfzgutlmW7rlEjonjtsNchPit
Js4m1I8fCm+nCbeSZsncYels/YkZAJgWsyYy/IFoFj1UzoDrBzWFkfx295+KHKNl
Yorn3YRQfQ1RoQGVfa+wsYA3y1gcygCGE7T5X3z+4KaRv1jjxB40dJR7QZuefRlR
APeQHMkDBR14k24UpN0kE3NX62eOy+Y7kk5m77jbgzeTRPOlvmITTU/wCTeB53+1
7fqdR/x2S0sDYrXKs+Z3OvE0KJP05bR2KWK5/iYCrAwCBPnQJ2NzwXu+Ule3MwyN
wnRyQrq31gSyw0Tq2+aW+/S7voSmhfI9DJYERoQjWSM2KHyICyHgi0Axie9bm3vo
iqL8F1Nyp/vqfJqizVeCbhffN9Aoxp+bK0FY6IxbB09qFZY/BxUeOaWhUj/OY6IO
gy791t+SzNgfSRGZPYKr695oL3xAKwi/L3Y5ZZkcetDiXgM8J6C3CnJedcmFaHKB
mwiKvrzhXaBG5LAzTL6hi0aIGDIe1Zk6aqhHqponj75iHiUaF7ffrRzaryjxsrj4
8Cu869076jEYCv3zNV2sNwiqPZS3xx8500DhLj1FL3W2+jSbH1PQbQ5GV7Y5KbF1
YWyv7/QQB6zHYi0K3y58PQYPmTSRhPCOLuLOwDt5UB4xXN3mW0DPriz+fjZ+3nVW
sEqvjrg3XgbT5FwP17GkaHcir/ihdPl6S3IlzJHX/ya6cyGWmi16u0/3apdg+bLD
LDqXfFOuJ9wgpvG+Qlwb+A0hhIuKypRXzpQdfTa4C7NT/+V7mw2vN295VY0Yv6sW
rT0jrrDKJKLe8CU7X60Kr4zwAI0nqJdgdKSW4Wywggj/x9omICcSVck/oaGeH01V
KVHwhxGm+18WPOcn3C3Xa7obTJETK3q/ce4c7ZjGEuNP9JmAwEK9i+XGtVU5b33w
tUOvigCt9g3mNA86wBZFVMh70gK6TK/rsPwhUowxWMQFxBLab6ZL+W5d87tcsaJ4
kPkY22enY03EpQmoRqPSq7Pas/pm6mLLlPzVuWp2UJVW5hXMsa/ZGC2mpVkC36af
eDgkAu+nTuhcM89D09J8nGi5mUoGA06G28r7DkVG8KfVpqaRd5N+LQMp4ZJWTDN5
8rI0Ec98YGmKCPI3iXRd3zNoPKv0ylpYsBi5mSHiwkK7MDc0EzWp6JSMorcBeB4M
6jDJqT+rTDx5hhZYZzIcN6roL3fXJ4biZVrTl3Iclp4KIlKsZ+uWjnB/CnAvz0/x
/WZBiZ6ImLXWh+pmhapYOaWC5a4dC65pt9Pyc8nAcQwJmCCMbOddH8psn5fbyb2+
hqzsH+F4YsA1DX7p2eMsZSp6uQmxwKyvv9r+QhM5Tlbte+OTR0wqcQW9ZfK+4E9V
QnAj30jwKbDQyn3BrZ2xzwKhx0mME1KvlKmFQH9+t8XwIA5O6xnNnS2I0F5Hl4Bh
mntilAdU9FMRt/0/KZB0AFTFoKrQJavf48O4BTa/sCS6RjsZQBroKxl5U2HmbVn8
5FzUaHuE5zdxMkeq0fMHbGQwh3ISZtv3oITJ9j1ZgXiNhst7maBtPuqpOPQM72Og
wnJkDrkEojsFp+udPTs4xh3+tJaqMyJBAGmdbKt2IlFNSxnXECJhaDd5r3bN1Ump
+oY17tM5ERnmP66TERngnx3brXeLM6b4F/TIKyAfJM1xrco4fHRJCmibxnj1PiOl
tMxj6DI+YmXa1gK+w4FRH3Pqhv8jY4QOHHSq9nacF6O9z4ptPRMfm+fl+ZbuRDUw
iGVy/oS9qL70JGhtWGB++4E0ZnHrEYPO3o7MsdaFtkDSVW0HGGBP6xw6q2FUsd/h
s4Y4h1a+I57Qhh2iRxx4BeUKMik9qHQiaPheFIqA34NFSWKsITQdLJ1UM4OpgMoe
/pGsz3EVLLAFoHbLjkuJkKts5wZjNIuJql+0zAC5UOkFNGf0ZfC7hqYHc2cU8WRu
X1Clq7Otlb/gTrUTfgnJGh3hUHTdGK+CBZgfpWMT+iMcXQD3Vj+2Q3a/tdEGJ2Yc
btB3HCGg32utuUbHlbKtoiYKmUdWUVpeotkz7nfwQZDMnrosmzDe315DEqmxgYbI
1oSu140/RCqqPwq/34mTmSOWJQkiCkGzznHQKkfsaN3Lm2zcc5OlAG8El86S/VyV
7pkje+NqHNUXcqIo5/uuf42ofrASafhZVjTMPJFT1ApsYRvkE3DoBYdDQ91vkcWS
gvs9G3JZOT7psJqiTa5AEmBwkTvPJiW4lT9UihaLmY8N0SgMv/fNo4bDziAbDnkO
yvKH4d4ddNNo7w4COHNvei3ga1fzzR0Jbb+kOdAhAUQNm2nN2kMT3AjcQvSzaW9X
sQZfG0+HjVGL116/NG/IvS4MfmhYXePlY2CRBewYWI74n0fKLzl6/y3VvbXGz4mT
MyA298RpGTzvFgydwkFnBoM5l/2xpXhaCbqJBOhoQXSJDAmI35zQbYSyLDzCgzru
O+3dBgYHdjH6r7go681EaczccMAlUC09Y/8/fedjmKMveFs/LhEFAng7ez9mgUPG
tZc2iAVnrrtnQMxBIKCxBG4EUIghl1UQdpjSeF4BU5wD4k9fjL6u5xb8BpBwTwV0
JkKF7p2830HQw7CaYuPIzLnaimyJnOyYDn5ZaXuC6klbUeNpHoioP/KuGyfCCGY1
O9r2lRpdzkYwm00X3Z/H0desJ7RupAvatPtZRZrLdxQ3D7UQVJWAyLGMCtfT51JZ
EFVnyd80dupvBFNWmxXvh+W0HZHkzW0Ag0ROkhPhmc1bH+6/QumnpRTxBY0s2jSM
uJRCO4vOALW3czNQZuhFtIjjn9u3+ngKRaNpelyJftO8o4fXyBApnAwDKJkfw1Dx
q+SunwQrafRabKMUjfCizBPEry/xhzk6dVQeYuzT4vPFVQUMUHULdNlZSwi/K/qF
1HUjuVP47zuGhNBooXgJ+hipjfCqV9YK8PU3Q5urFBBdFg5y5MtxzScpjX3WNBUI
X0Yc2yv7toqhXCBvgEZ1hOsPW4nRH7K5+KVMjpnjdxqacyDPz1kEcIjypMUAxB0V
el+xIOG46bqvpCWqAWS6K0lTRGxs51pZgn9EvNZ8cqBgacsCCbPRKbxEOQ3rdsWF
F/eBNPxXu5S0x4kM/AV86SajXvoL0nmdA+GaHm+uKAlG8siLoSYakffeErFQsqhR
ptR0YnNUBGu3Av7wBz39FbIZ8MkKMdveFE0qM2EOAIJ6XKG0PF8lYm4HEmQUNWN/
+A46RPdo5rxeYlfhnPoLglxwr5eeuWckewLjYAWnN2yZPHMyOEj5vm50vcuEeagB
FRMvsb46pwnNfz1pB9QjGmso1p/M/of86ELlpBnQES0CJdQs3U5zEBeobEFNdrj+
LLbAPAGFk8LX6BWl/BXXvTUHV4RUZEkzoGOUa56qbbpZy7HxgoBSGHKgtDqSlp1G
VBlLITmJ0sLd7Q4Efr0fxpmjxXUQAxq2/Sq1rrXBOdENvgo2J0vGwPvoFPdi16TV
hU5Tj79ehYi2zxBBOS5fQUX5TQD7HsCU65ZfljFMJQNbcclWUI9WHRHkXtXjnZKD
6KD0u6EdQ6VxZZj5nfuboDI1KG82HxeEIyuVQNd9c0mUV3AASfKifLn3nq/FWJDy
3TNVTZ/cu5xuTsvD/jSyHgr2lUHGxw+RedqRwzMuGW+xkgWHHJomJdv/pKTaafvq
Tg9GNTIh6lSXzPZ2eTEJfsPoo+TRSBCNZbPlaeKsOjBOvCkecBnYmzFjYSFQl7Yg
VMqar1C4oq3MbZ27Leb46yO7AXfYmaUU9tv0SdhZSm8A0ZBO8eOWgO4VQidnwEtg
LdxTPFZK8hODFYfDWCgWtKdlt4wC+T0CwgF52OOke6Iv129wbFpmJ4fgNNrmsK1h
LbwisBSg0a6gYX9gcKmQ8304vDOGEx/qqzwqV7ZEyDfzq0A6OLvNR3g9Hsfnv2qm
fvqVDh4X6aYAFtDF8YkZIyRST5p8IO0/sLdiKrgJXoZ/h/fiv/Y1osbHl6fJXgh4
AWCzWkU004Gog4xJUdZF/xJKZQo7yH0MMxEzV4Dl9hqllgPu26XRRFQzECpuLaTe
ccXjdwuJQqGPkRMccNLvm313pRsECk9gNcGXFz8DacGz7uuEEPcvFc+5/AjaCbOB
NjXgt13ZbvwKvK6HkBxAhCSC5spGM8Yvha7QGDlEpAaxlJqu/wq6uoluTaNuTy7K
uIfpTiTidOFUont/zh4gysQZhKcNXX5OGpyiK+V8VmSOXEmNtdyDkuNJ54hkCiah
qo54LGWfZV9lznSyhzzp2f6GdPlmTogmrxOkzWo1coMPZtc7csSV0ZQvrE4D6CU6
ea5TWIyhHP6Lo+AMDFeRN/b/mghw9VsU7k9IkrGQk9kkTgpfZ4bp/gSUjmXEz9jd
OK9HW2nQjKKRiGqH/xXOk0vCmJP0NN5AIroOAONhEVDYGz3bYPHlWHY4SNqLkhUk
axvPlcm8aQzlGdYj1CZ6Vrnnm0w9FsJvAYbsMcx2xp60kpUBhwfRDHtGY7u1CxJ4
wgcqSmPRgcaO+yv65wMw45AZ93uSXFs3I3LJqXD1Y890OwYP9iiiEixzQKpU5YAA
g0oYWm4HddGoJk/mkUtddZ3tVjz9sg3imEB7WWT1jKS/DbLQDczoKTgdbvdWgtlM
C9NS3e5S0LVJglSATUe8zRmrr72BTw4u2bwXnfKj7JrKehw9kIFRmHFHBTV193Wi
5aoCx2BOuHzBtAJB5Y8JE0SkDwhm+yYGuvMwPVHA7ufd2ffb+1kPzh+gD67JS0z6
tQOaAb7bu5gqity//vLd0p/PT3vsq9lnatbYf+LTFMAqPQbZW5cdvty/Vxowwgdj
OxsUf3k2pMLIVAX+AZvFsljAjDSsWQxyBdlWOLl35/gL/TrafMVMm5WjIfT9Xs7d
gicLJzzpzuatf7b/mk5FyhXv0Ny35x/ECBrtg96RkIJ0ZkuA5l8Nh33kVzIx1hDN
G44oqgMrtT7n+Rxpw94Muos3TH2RqE8T/ldRd8bHIvzC3teQc1oIz0y9s83hpkBy
K08U2PAbTzZve9XWkfxj1BhRjEZZXcfARDc67I4BVC940CZJqGZjoDFQSshgdjo6
FZStPXSbG5TGzY+dOuBh6hmmsQygNk4Mr/1r+n09M2/Up/Pw62HXR0LJ3pLtne2b
eHwBclaF+NjgI6mT2N8nSPr5gkFtbZe6D/UzfR35/PAvErGgQ5W/f40BI01fCXfL
wvX7Ol4anN7KodcMuGRvyUXqFUP8IGqbyjETVJwbbLE6ubjSObtt6t50pAPb17Ch
ms+C1faBuMJWwKeeWaU5CJ8fBshgFaZr9lIt0GOYlzhFzNT15Ck4GLIGRVCwtitN
uiNDVC6CrCcAfiEMpatQhs8D8ay3sMe4vtTn9Pfs/xgYo804ysmdMA1Bvmx+KQUi
isadosZ+UogDc3aaJPxYycApWU+cBWjKN1nUM5ziz3C895Il12KYLt16nKPYxLYJ
WmuA48l1c0h3OryklmirQigrFyODpzLd1X9yjfG12Df+ZNynNecNiYXJXF8NclME
1307kTu2zozFV7oMBJ29/fpJkenuFHzuZfXF+qkg0XlMVCVoU6l7GfaJrj11O3En
el4wRIdOK4/00VZBDZRZcKm4+GOsJjV/PwTGLT6kW+rFz5nUQpA8sr5hil8kkQk6
UEDJ9Q0T3eARWf6GxOsSJcUd3YY4z5trxyhaKG9Sh6Wn9c9G0/PXNxTn8QmKDmzY
1vXC9RrTtCppcmxpNN3xMoH0wEEaRVh1KC8F8LMJicQO2azhos2qJMYhclRd1BcL
nwKJ+8wy1dZvzx5M+ACpvPixH8BuG/NXLuRc9nh7fSxhkeoOUoxLWeDZOTVCQz2S
VEZbEUMeD2Ih2PuZD2JGxOydJM8YGye6MEh0Cgfgt+M+XatYXGuM8r5yBGnqA2zm
hnMiY5MshzQXF4O200wjENFSTFrWTPbFEdiMv4qlEVEEtvLIT73nzJk8FW6lw0th
9A3vv27HDH5MPkDH6uULIe/9nDsEj18mHNobZFJRj6w0bYBPdpv+aFmGJnPhibf3
MTSXU6N9pEoq1esD6iTZrOJ9j4aSlp8xgfQ7r+nVn1qCaCkyBKcOMEBCe9wK5rhf
5sd3SuAT1uO4uFdamzeCOCbIwsZVTVQCFGqiggiFnjgz/crN3AivOjB3GpQq0lTz
j/TZtkmVYKUFWpTu5brQ0FrRxV4A4pq3WlbELbfQG/SrTtP73+XZGMJKvXae9uh/
Tw+btm3rA4R2aZTysLes61Lkk6nu9z/khkW4Znm8BmAxbfTD9Vu6j8jNzEgNnN76
fhZ81o/m3sl3exB7eSxQKAyCRfw7uzUhbfjGSKR+wsLUQccR6s/cTt1FQ8c6tAJl
mmcXSjbW6ELg2GG4rxmaRavujDPjYkHWDK0xhyFUZOIOXAwnyv0aTuWKg6w4Dw8b
G2BXSJcF7LECm3+XVAjsdr7jJsvjJ0RkTyPVcaJN660PhyLbTizR0EYNWj0x9sIz
PKfSsLNGnLGYdnrh+Yx5Ee4kOOH4E06wGyXASN1rgmV6+9cHybSBY/LgFX0tJu38
yAg8R3pngqeMh/sMWePDTlUW0fAHdyE4VpapVv/qdac07HSeT8dHgCEaV6yLdNui
HB48ZcnNFptSIkRRuFSpZMRvXFn5z7mRuOX6nqcO7OJamZM+jGU55kCBBkqxS8fl
dJJxhBysah2yBMnx83ZeTourZZppRJLYebOcyYja5Fq3dMU4MutjkYqZlEBWM4fU
A+MBFz04dTMMBHr9OStoTpLtrJRQ97sqqc+FBCpz1hpL2QzGYsXVUWZSrlgmnArF
Hrn3GWRfYN/U4kX+AyfbzaCsHKvDgaadvFA75f4DIdm0Aw6kuZg+UdRV7pdw1zcE
sRicW964g4j/9Qj/Ci8FIJpUpfKABJPJ1eRPXdIb2B/CbseBRbcvMAIdq4958bvq
MeVc0KjwiLHQZBtsRls+85MVeRJLlEXelyja71QKFQ3lEjRPs7LwNWyBPh7HZZKQ
Pmbiu/8bMhDiaVwpmf8nvNMeOZdw2DPyO5tEIhgpZDbhhx4K4cGEOwY7sULQQdru
Yis6B5YEKXbusjL0RV7l+a9AzHBGc1m115sM+wZ3TcD6peWFXVE2yaF/FllHqFsu
bzaOmu+OjSJFq/dcyuKWtPWOfWS47SQ/0eQR1PAYyuDxwB9t3TvoNpIg3zxhes01
elNDIUKMMBmr02RtIn5IbgkyiNrmpLTs4RHcvU5tfaJRm9AcnT/gFNlbCosre4BF
SBAuttR88uWVx1+OKTkDhNwlzktEuoyhCBcd1EbJZjM3dDaI2bkI9YomBZDgtj+h
L+y7wCmCBLJJjW2eCECB8r4PlbeHQBk6ouBWM+jzeAOEjuT6C+PhaCMef6lrQmNz
5fKMymX8RM24S4Ls8FXAQItvpaLdEUt8daDqRqyFl8l8ri6Frh+PAqr7f3+Rfneq
noPJqsY6f6lv/xvB6FPtdNvw0fpU6BpIGldt11r+x2Qo7vIJJXG+Qjfn+jZkRfjR
7hNTSt+MVrJQIIi8+8W4jOsHEet6I3uyED4kba7A3Fkh6xyzdhoaRkEjimK1rXBe
tqP76H9YdhJEpzxV0PoYcwSKj0CvcffxFj3drycpj0foQIGR7Id1rnGDXmOzA0dU
KmOpC8rIxkIa03qoobBU+QmdN/5dC723nu/qEBlHFim2Lr9af8j+TuhU4FLHAXC2
3T7GIq/lIczdrBsszBGdaRe+wEWsobvlJH5Tg/CY5apYMhmH+a+0x3Yzhb7IUQ2D
mYHOZYDYFbR04ptwYh8GcZJUX7oEOkL8Gdaq338QrjUuFwHtKD1YQxacH61aALRC
HNoSGb/EP8ibZVrWo0sKdNBILRD/gQ6VuMIFyt8Jx+7hG//P0OMOueXYYrou6l/O
jksJd/dHdFb1dhIR8P58izq5EQk7PCL1Jt2zE27lZOI3coSXIKKiqdABXD0GK7Tx
L0UoQgh2ZyHGNx4mnzedN90Mkro0z/horpllUNdWy7eynEu9iDtCZwG4TYiMWPIF
tOpnmFs29tmUkRVe9LjC7NcW1hMKivi3yM647/XiGVn7zr7HmGXPxqaVkoN+WXml
9tlqNpssvtl/wCdGXwBcFNx4Hb+co+AwEPHVlfrPSVp6M1PTFM+1ZSBINSb1xXiU
JgamKjItwhQWXm1men2i9XjDyxYV98FROc51oFOIgPcvyoeMyKgqB84Vjj/SA+Yx
NJ7ALn8QiTBQBF5DRbwfgZRFOto61FHehEO7eVJCiGH2TyPhBquTLTuBtb0oX1a8
I5GUa0m7MdXVLEy8YELVGRvs7KBVH8SFDv2xTd4413DRI+JOSxeST9T+zUhv9Dhn
LmjW4syN6cV95Uedlm58j4ytb0VLEsu5P96ooykg86NFSICD1sGyZOBpFMpgzwVE
HTRLTTg7O4rda/ekuVOsqFle/mdC+Ev6X+Rv0c4oCTW9yPncA3yPMyCJ3igbhBxS
EEhJrnlPLfUW+3+x4ANmPOAxo1/17Wb/4JWQBpSBX56vk9snmmMi4X01G6eR9mi5
hdhLugUI6d/U8ORNbjRohF7LYoHFtAxjNa4fJNvfazvHwh+qzJihRpAYWRqDqNyn
xYhoe7GD1PkXdDjGL4NDGg93/h+kTWIE9DG06hsBraQUyrbFBH1bg5iCUU34lSqZ
fSGM0SZ/1LZ7Q0Tg39VaOGNME+rEOEKgo5TOUZEmPh1jwMQGI97Au9qWFVlwGTiV
mT9jjLOOrrzhBJsv76v8Bm1eWuKbfYWeBFTOcC4kUiMz3nU/VRxGwNUsff4kyZg3
jD7BsP12tL1+rhWnaXw2lYd2R5wdVA8bGvAXfUF1vAUMgmy86s0fiiIWok8HaIce
SsfCYW9ntglFMzMpX6MO6dHo4qjHc2Dkr5rdW579EfL+TMQfu/6MP/R9ou8YY46Z
rGgtw7S0gto8Pepb46yRp1kffmgBZwAl+SOtV5dsRjooggtxcAZWeXmElPVkQ1lm
G7s6XFH9aAYAG9+5jd4CJKLm0CPq9fQawayUdFM/+WHKo8Po/Pv0fJYtK/0S6B14
lILqJl7s6FWtXGYFn3VjKcuXRf15xrWC8GArS9PvZiHBoJH0Mrz77DiVL8Q2RNix
MynMkRcIL5HFWzWeRHgaTdpmXTA8IxMalre0BZIdq09pVxkbNp2gScAYA32Ru9Q4
/NGEcDt/e/KH4UMSsaxINihedeuI/85CoIQyn3HwFE4DvIFVuL6Z6NsvoyHlUamu
NSKWP5/CQC2Y9E0PSZ/ErzoLLjsoiaetMngikH3qCoSPFmDikT1EH2mOTNoa1//r
XnoUDPc6w0u16HMyIcKTMbmEVf7A6WBEpVby2sD2fFtNTW4zLjd4UecG1D2CsnIL
odjuWsuWd87FuETFfn+ohCrS9e8WaTp9agUQ84pBgMUUP/9uzQiArpqyjJ32B+wd
NvJHG+Kb9Pu48wpLfxH4M+DqObKnfoYFBxxdoxC+l+IcHaoufgCISKpNSm/lnRCB
da/KIG5So/W3+An9lhmBYZuFm70rG8KDz3mBgqDyQU35ND7taFa+nc9g6GqUC1M6
pgXQwtN4lRfNqxYksTf+Tpz6GWRY9x7XHCbM90DKsEZViEMtUTgIDAGDEJz+0RDn
NQO28wvAHKwDJa9RJ37U4tRAwJGGAXD6wrZezXeNzkRSBkd1qUBnB2OslnrSnjNk
v8lRLEtzTqQ6ugSEeUNRCJjaZLcBUiXszMcSM1vGdxpHiTyd6RjZK06/5kzxHm/U
lE1RPYphjYw+yTQAcGtpYohluVnbaVmjGqpGhSknJQEZqnED6Ol+M5rjfS7C5k2o
5uVCjFUjUVB3lW92OUciyqFobl3ASkKEzf9tna1AG7HZ564Ok/3E3YQQN3ryG6iE
ez2JQcicgcXI3xWLVr4ykxlKFSeNfNYoLucHxiOX1qroh/DhFuWLKRyQiKCix4Yv
BNbKPuvXhIh+JLPFzbcC5ymxvxt7hvrOMyIDvYOqiv9GV1cAE4pPEJPM7D60oaJo
dlY8SqJHX5k68vRpMjfCJYFEiwIuN+kPliaaiaYm0wCaurGrit1UaCFNLe4IvIjn
fmbf0joOXWfsj99QKjXJt1NrfnacV5oFpU7UG5/GVy5cW+ytRYaRGCy4qSxBFD4G
9A6SW+k1UkW3Jl8dx4ild58w+RKBy9UH+5lp9rRFTSG1512pTGZqBFRmLh9Hmn2g
VqkHjpmCBLoA2iFRBOzTxQxz4RI5smP6AR7eNiLrf40ifRpo5PjxGpJNpMOIuSsK
xNlBa5Bg367/aASLmMb/3qCd+9uMO7X75xIoOv6Gb+t0oSDThE7OfdwxXvgjQmfW
bjG5Nge42yRY39OgVmQMkwOBpNwBOoBAAs+EAB3F7hnH2vewKZOCnESHFHMbeM/s
TUChTMlmrll3KYt3ib0R65xqJxmPx/KHxhzkjygZ+/r/4D6ACwciS/gbP8cvZqi6
LUwmSeTqDwravmP6VBCfJYAZtKZOGs03KzCoiDdw0ZoyYHnXssPSOqLqIMbINM6H
l3MFrMjAMq9DPk7eFeiiMM3REYMVwqlb2MkKOYNYXs7h5Yys/LqzLrVimOrrjmKX
y6r1KvJj3huLMj48ztAUz/AOBsEgBvtva+N4NJoLz8nrMI1ZL32suZJ0jL8CCUqO
U/r9xbpWh5Ng8roB1i2/nDU0jHglRNSDJ/E7LvtZ1r7j9qtpwEwtF3Fxy2n7+V9q
S2pNOIdMQpFZhRFKTEFBUmOwSerzSAaGhuW6RvNgUMrBSuazhBUBzE/lwbR6OZo4
GMJ5HIkZNcRJLuReVNDBT7RTXcI//l30VHF5iFOABGdpSAqTbShHRg38UEoUg5L5
M0NoclLXdPOQVmuAoxNXeU5AgM+JZ5zUZAEm5pDGG0/J38osCFG5DerNh5VYiRPE
qJ9RbrdeJloZgFNunnxuhLD7EXHRPrXo//ldAk9yKS7zXuB4rev6pm+TAnkFXm6p
f4Ti+W/lgTUshM1M37d8pMDCX511CJZ6+LJqob0JqvNIZ/1256xGBktq/jP3kwk8
ktifnRMu+Voz+/9h/MeZaYEKZ6BujmqBZqNs8TW8Wo0d3ahFcCYmYItuuZXshAHb
b2KF8chKCzswx38PTfQfVWGCpJ7L1yV+iuPNCM57SHtqSZRKdNlgITyq9w0OcGlG
9hPDsocIUuwTRWBurcM2zbAehLB/L2qAXO/pS2Y8XZah5DKe9Ne6my1BadxKNtBp
NLSHJCSKRUN7K/wXqkK0XB0QdAhyF4CQwn/gcSm/D9wsSYWqrHB2MewxjOuCZVqS
rX/6dy5qij1N8Uv9DCb+7HIL9pLC97qlMVaXaXGMAb3FBarZt4emn8mFFELrcbzX
LFtLeL4AYHmxLOx5E0TIBBqbfPJOo8H89vVoyQJJKXdFXoNPCcYnx9e/D8SMShLL
zauX9m0bMiuJeGWqTQWliBycH1KIf1Zn62b6t13fEe0Sh99BFcVDU4ENi2IGHfZ+
35w8zoYzrQdn22JQt8mWB/D2joHZ1J52JNTEaY4T+snu8LosNjzPeapt9XAXJvrL
aogrgQvJFBgyo4OCGF5nP1D505d5LuT0kbEhwO6Q714A0EfB1oxBuI1FYpFbDFq7
VVxnwuOXDhcC1ortTjLWsvmQhNpvxQx0cSAnxEavcf3kKGgYK839x7JXKlj71oQ9
L1b6MmNY2zOL552lXS0RC1zs7g8AMmyCBMVSG52WCQVF1qOqzWSg1jHQvAjYjlX5
iaLRzmukcYg3jvn5PcWv67jV+81wMBbv0GwREyYRZ6DP5izdWcMvKkukCvCeC15o
tgE5hHQJVmbUuwzP0AV1L0qV49dcyFss47CQN89cVRXyfoOTCUqyARzw+Xx+NV2I
Ur1dtZucarD+5UhJeFMCjPrvjVB8LTSZrAvPwCnDkrfhJikcMU1diJjhmIRW/4iK
J4jQWRIxm3DLP8SgqK33E/ImGOf62ntK+1ARuukXkR7RJtJnFDWMjx2tJM282CUI
0q7ttOyFxMQr0xGlOs4XVa1+oWFGO3/viJW3cQZAGA5H3b6GEiuZUdP5TEsO1HVO
/oxEtrZVikq8NGwO6WioLi9EgI8P6IIB1YHu8DkZf4Wh3X2aInaOfaBoWFzeAn41
y4NsS1bfuLDdjgRjVkLuxxKAl46xC+5/sHue1a4smvnWoUY8U70pYXul6Oj0aiYx
XGBX9zttVzYvnQVf0plHSyj6Q6lP9cUlqvtJOGbWzbswOkvJepIcNZvgKMU6pXuC
5BfWbXAjL8X+dyeIspgzyEjlxS/rud0kjBWcmd/eG9Mf0vMKfbYzal/3Qi+Cu0j1
B9Va77T1aUYJU0r0NpDtAhhNdr3J+YL+LBUnlio82Enj5trhyjSaz4DyTmV4jK5O
jBzReVY9R0zJPvn9/Fl3z8Xu06FN4KBvPPs/q2KGwjZAyHpoX8ashI6OeXrGVx1e
+kdHYGDZQ9YBOmWAmSu6MwGY558DHdYL+nWaJCcEiS2alZr5OqJH8bhiAnJ3bnlg
f0xBG40VzLWs/KU27K11G572kVGYWE7qDScYAh2nFbmuiWJCvcuVNoHcHXSgFFzg
m7TWfMJsOK184l8GquXH4zhjywhiXAA1VwtaTnhGYrn4fuWm1pM+D0NcKe/diJdc
q3a7DkQMijmwRpaDJxfkVi9/cE2fgjHtEBK6Y9ni8+uCLZQMPRy2ON6BRRPFGZpP
D1c9Tbh+FjDy4FEGlUuu4vjzspPDf3yl+62fqvc0kv3WblwB2vuwFqBDN02LL9u2
QEcneqJMeU0cBJkCd8jP1R8JU/iYC1VAdmtmhd+z0OiCVMII3y6FOhOPRXj9VIf6
Vc0gWAFNja3Z8gaY5ZEWtqyWkxH4WyCGR4dmFIzis3mRvfORx5KXSRbUNaIxblL5
G5dhujRlb6kUvmxO/31TcwxNMqDzQ/DZlouY+BUjteiUdJiGqcl1+c2PrygBanV4
8w9VE1NAJDDSN1MOo1Rq4Ny9l1+AXlOfchO/4dFWHJblX197lIUmsf4cEEH08d2U
+GvhhXb8lXXFcC+PmOnl3r6jkIkMqlkTEVaNo3+UciHBkKqmMDofxPCEIXqRjpsn
1N4DsKZk2kBWV7WaOqtN9eAu9tSnWe9W5xVmeb7jClQMcABbjWi01RJ9xloYpl5f
/rRG5GrXhLDhGpyfQUz8g23Gbfj/EbP1kAhd4GnufvMWsAF/TlPkuUwOoHyP2sp4
0K32rhxAlye9aLt7pRUZDAHEaAIm2vs31ajtrrrKUF4Q+P26jx7PEziGNX5e4t3n
ITzLAZ2cC7VwwsDCaTz5AN8aA9pkj1bPtKC4HKRJ7eWz0FiUXx1qQVCFP2x/J+0b
MfwxpJuOQXmnFZypJfSuXnD9CAi8N9OLh9U5Atvw8jFfKfQOCTZEbuMq99o91mtt
OSpGQk/cgpbUuQ810L6Jnr9DxMnnYECAfRugU96IYgkvy3JRB4Cg3PaAQjlk7saj
nd+8Kqnq6/Hv6yxpoLVFvAav3mOi6JoAIrApwWOW8L9r7ggCxmFYfY9uMGTBv2F8
RC2dyheoz36JESHrt3kF66wU65ou9te8cAylA7ZNqXmcuohycEHfno+gPDM0Pd7R
tMyaGGAH5x8U/0IVwUZVAvKFzt6mHq/ZkDgP/sI2I3eADEurHfN8QagL2YzRzAKk
HZZiYGpevJm9eQKlvWSuz10zo4icE3Lfs850I3a3JYiHzOo/biwMEtDSn9HNUd6E
rs7paPJ7URgr7i7LlkaQv1HjEhSsfliKDMulgUjFqU/PzUXjDyWrPrQDlGhkmFVt
CsJPNyJQettc0IguSjzkkt42JPVZ8jBWqLkJK7+/hEKCUzmacL7vUwh2jw787QUP
LY21lBusnjFAkumuoeZFVzq+/xj9HawKihPfGStvWukq6XnHvJqNLSmYvPKzGpgf
OX8egNgZG0VubyiFi/8HWql/o0W57JualYjfe8UtXIAZOo+9tYNjleLyCUHTzHgH
XOLau0+s6DiBiKfe1clsP2N3GP9ljCh/8BtOgKohH/6TDSqK7zFhnG5z+J7jsE2N
F1HXj8CgWOAIgU8uD4c7ThOLAXPqJCHqbj4RtSNM0kypCYBjN90H1We+zR0iblax
QofdJnNnxKlgqpcS2IQ0nMnYAKzdlPG++Batrhsm11PFnWnDUlhL/wkPdln/jG91
zpDho5AAaYMFN8q+3UaXsExa6WjZKNh1sjXa/0FT6Piu8paRWKOJ+7L3+h1MrTbK
ezbp5LascCYn5J2sEzDT8x0L/Lp17qQDHVk8i3fHmyf3JKR2n3BeWhV1V2fGWjtc
amodQKRmTBN/wL/EGA2RjJTWDvJBaByXR24PfJi+ai3WqOWJyOC3+O0QXlArulei
45bEpwnmKtY1jBwEznAWk2JdxlKT/g2rxsrheeg9Zp/W+0twNlPZnI1JY7ZkwnOW
DLpIZ4gsGBJkt6MjVFvss9uq34nmlVrGotxYACvQRRVfP73qlMWRZZ43kENquHSV
9JgWoVJRuMa/CzSx20DGunlPv7jOYK8z3QHKRKSqcmi1EWk5+GgR7YIHnK/PosuU
0UNykZWqBxIdGk9AnbdCaAfVoScR8sLbJGhAXIMRYbJ8BYV2JWwiWHq7KL8lEJ/h
CbWt+wb6ysTRVbrpxsAXsvjOMVjxNlLPtdnBlGSZ/gIS6xk41++dHjLVsaduFP9r
MvSpmKsS65SVZqJplU0Osq7GyXFKwiSBi6OADiFC+vDQD2Yy5c9WJWX6kIBkc2QP
NTceb4dpQAJSVP5/qwr2T6/bVJNyWlIENSG112MTk39HoTEJUJnaWKp/RxLPwG1f
n3OXQ6HBbR4ycYt17CoBqHa4bBZl+ptPSyxOdGEGugDqDmyJM2I4tnWiMcXMK8Xv
ON4GKCms+jkBWpfkIiOFmovXy2qTkP/y+etEf6DUnueJbpRVUQoQazJhksR9+BSO
y9tDAVOWnqm8vvb1fshwAVyh8Q10F22vtn8Iwm4q2fL1Su7MTaOdNS/lXIj9E28k
GrR6o6rZRhmrJzzLX91Nfg5rFBMSCTxdrIsc5B07kZ6i7e7QHvXxUBRbiSn7mibz
aVbFraRHYnVgs0vxoxF8rXy8d/01Mbydcd6GeoWMjiMSMeGIL7xpOZnATFciaYh0
OiQXiI7SHsNT91RcOiR8101qiil/1PqMwUu1vSObjupVmxnmEbVKYoeX5vuB6RsE
L2xRdV592xhgqUQwBxNmYQmn3qURVwR42olrfaERxFHDuniOwL8gb16bLwflxSax
uCG5L4LWh3B+7ti1YdqhtKlshyGWSPzZsdyBaGzEwbu6eVhMc3UI1ET4yDl+IEAB
LIgUYn7yYdcRh4U6wqkAsXGYo8JSnq3irPG2jpSSRxvyMCGgdgfqmwTsfgp5F6b4
euUxVTXG5wWgA+s1xNJPC9LiKVw24ipk48NoUdVxu+Yhm2ATB0xUXHabWDVCtQNA
I3/D7LaZT48I7IS1uMQ++JG27ADKTm7p93tyH7GvLuRdz7LMAhPCMwmCuSzUNHrW
MYGVQ05Hi+/jTSDsKa1r9uOz8HwhEwpYhQwxExOF4ZVf1nJeznkwmSBV245yhify
Af5xrb/QoWt4dW85oUXG+YMxLLUJtJy/PT23nxIt6kO2ibiL/kRGh9uisOKKyDIl
7GHJeS2oYEi1IC5HeMkLPmNQH5Grib8yLlyxpJwAH9lng8oKkwWRTa2SP65oRGIt
qff4uvewdeoCRNE0mTdXvUlouju2KsKuzcOYBV2xle9ANs+CiujhfK+o/9CBsF3F
oZRUk1YU2T2fgqz6Da0VsRwcQUxjfEhNK25AGhynPS4ovhpJ1JpzOVILdy0zKGmG
J0mfW8fv+ktKMCaYxNH/6Cpu0H+LpCJsZ7Bfm8OwxqtsrcehiYzfwJo5sj5KSdZV
0ir9MCtvNmrNbVeupKje1ADnvnYSLKAzv8Xv1B2WZiuaq0yRbjVC/oDIuSi2vzk+
Sh91D42nxAi9sYUtHveAKcWh3PrRq0BBucxfiF+/Z4w2sjwMxJgIpFSWDLVSazYJ
koh4R1gUaWFTViO3col1q1uF/hKKgvKDUBSx7WGSRsGJ9TYKIlsFbwONmiOZuBDN
9P4U3RbxYyq+UA4WwYzDspsRU0b9GrDL8oByhbN1G2oUrkyQXD9BJ5xKqylnXoJq
7yyiMfokg7NUdEhXTavUmoFgCXc2Oo0KIyPhWs3LIqbRWuMopOIgQQbWrDA5enZ4
Qp2ZR2gC9YGtBP8tWfrenVuKdoi0RiNxIAR/Lt93UJTF0p3hEr+CW+3UQFGPEw4E
VtvvhLSmLnHN8V4aBONO3zdbqrz5UkSrF6rbNL/DyP0Tyo9ku9/kBNCUYh4LBEjY
IAQO/St/p/wScf0AZEmdHmtrZt7OVcaHn8522n6JCUQ3K4NY8Sy5VmLy72pBnwA8
S6v0EvjBiM73qRFAcNKVV3ryo5XLHEqQ1Cu5fpeB6yRYAsjmpP/fe/jQaKvsDKrS
sBzbm/Yu8ZNAI+Zu9FXZFIUMAKZPRBbGC8uhvFMMCyndav8BItgtULM4ck8gWVX4
bUTq8/5OW3khQfEZVgbhSOZgtVCUpUIeLeqhgV7ahwfXIIAoMsCypc1S089VzrTp
eEIhldHpY10nhPwHLIZHMMFdNLtIP2K6GU647YX6JhuWbmlocVG/Tg9ukDnuI1Y2
zj8CYlP2xd6KzY79P7tOLefM97eY7i2AOoEXIXUQnusxstla0nlebiHuu7w/57dJ
Eus4UIw0g6y+USH2C2b0HOLUjVFbIbPzcOLfnp5pnLpdMT+oDH65c8ne2suovBDY
FSbvHAjTzZCwlBo1/iSgryRFhb7a59Y5cMuqr5nJwRbSTPltTY7qjnIqf33GBMDZ
AKZnU1ulprAqlYIH1axD0WR34xeBQ36IaeS0/cRplpesKX6FYObnSDQ0CMvnBAp6
fko7E3RSZibFNn2tIYmdIW+EOHSp3pxFYJ1tqfVJdfY47OZ6KTxp/PRW66G9TNh7
UoBa86oHvH6xMtk537cjNQ63av+0Axw0scjqKb8UDokWPbCyvUY0eFnrFfaZcM06
mXHC56AtCT6rCIkcMEVSc1qWvD82z9rdJF4pGTZIBDzVIk55EblIrYkigEv7Invw
KbkU2Egk0qs+m3xun06vukaVv0bTUlUxS6e/Ki7kODCCbpwYFY1pfpJ5L+mYiwEM
rZHry1ZC21mUyduQSWVMIBXkp3sLJ26/vKZM91CIofTmiPliPV/+TXghvnnpcREx
os9eoZdmFmywNIEdY8hEXqnv79Nr4phq0e5rvB8D5dEKGd4xsLy7lVTgi1xHHmZW
XAiV/JPbFCLbEZVRlEeGFy8Tj8FSBqRLuLTvGr71j0eKcb2+24x4ksGT7hJPk1BC
3POpsu0v8UBoYHtDEnfXS2mI9Aycsq+1YXSl/JwK/wiQGVGeFrEK7XVvsdWemCH4
KFEuB+y/4y6BI3ilAuhowlFKQAsrzjhTvj7XjFiAyGolag5yX/ExRhUyMnOhqxj5
vaVsxLTmtUMZ5Xhjp98Js/jVYzcPmHfyxBC+qs88DWxdTglzlnT/HxLOq4ZZf0lN
4aUKeFF6rS3DkKaX8dlXXTcAM3jKUM8AXXQBn/nRvFxujgVFDqCfRK4IJUIFWL3r
18H3sluv4k6jBdyTZhF7cjE6iC6nktJe3hBlOcJtXMzHgt5Hayde8gW8s6oD84si
i0/wHlNgHj0zQBmq74VtBT9s5npbjj8tsxZgI4Siu7shgzezAjNuD7deum4LE8l/
8ze2oC03AEh1Gt4OZUdsi2wTwNySiFElrIgJBtujoMcSSWXroQL22z+hqiz0f9Mq
5PSDcsDEotydrne1jnT0HA+5HB0+WIo1qisSPtCtBtMXyLClUsfY8ss0cvNJbVaM
j7IXnQwB3Df0Ya74bLlkAaS0sffDh7pQtMMvFuNEvdETLlHafBKvFxkT+1C7nUiO
atobZDBqXgNCgOMgdUT+7jdnmgEkDKJZKvf2XzMj60UMX1BcL+wbmjoruEn/fQBr
DzG93c35bHMf/G+TzRKbUaQiTbnevnANw2UT6st2LU2PXu9t1DbStjvApzW7ID/x
hxYxBHN4+0nUAB3D0OfrOK5exvBLhi3p7aQTFFqcpzHHRhLlRIk/sUfHmPQjhvos
pr2fHNpyYV2lBuwHJuC0D7W1qQehsZEAby6Ffm5HilcJU5QuBDZq6JD/9QWzgCKh
vF0mJtuVIO/7m0sEEVRpUk2w6jxuLRVlxwwKX//9XDntaxf+v+UWegeaa5q2XznR
H9uDDaa0aDc7GcZEpdlThp9eYaNJhOFMq+car78uey6E5UE8TMCYqHDYbqKneM3E
KC0j0aBE0av/lL2J9XkIXd4kULGJ3QdbBUUO3BFci3o9qX4Ok47et4qRDqMdCSuQ
nLF93i0GX2rSrMCmviW6d5bKFseIOwuu2kqIFFvmceRhk7QnO/Yv1qGH6ulZdb0Y
V0dn/xiHi5NFzyTwwNg2xnykck5CHNC7eu5LQN7+VVhYc+ZHCsxc9NI7ALJ3SG1/
3M2C4ak5a22F7NNYjfVBbw0oy9v4V+TIIsH6wHwBYrLByZ6UmsDeBVeogzz2vq44
f0RM9GP9O7D2iq/ZSjxOOZBcO8bOToWV03S2bDziRyf94Ng+kwgWExIsQRGvArTf
NxI7o07AqXhrUMs+bqQBZ5UgKtBHOyZzjLrrMczyz6DQvt8WoSQwBvGs5tZWnKM8
DvixSmxrXh4DP/S6dVR/48XzoAisFnf6nCv9IDAA5j0g7gkzxPCGHT6qJ+v64PQF
/DkKa3GXOcjR8Sm/kmjGNNRcebWMwgvN3H6X58FzkMEuvmjsrHxzZsqgju51c+Wl
HmDSj/cFlR8eiq57J5Aq40AYNx3/cDo01Kj8n/1LrUW8jW7uIi6JmCkFlD1Iq6xB
Jr4ijwao9pQiXJ5WhV9TH6g4sdpyZpzfUH2FdITsiow0Kv499tf+onAHw6dOjUuX
YyWjTkLujtHz57A+AiMvaeDDgxqxZiymFoyoa0a1p1edzUo0SuvyRvHWf2lBdlpn
Vm3Zep6+pgcSKc1ONa0wo+cR5itly1q5Zssj05dLc7evPaz5yA/svelt/KgRIBkj
H5XIJPJQ2yW4BLP4XofrU1Ce1yTd9i1UBevrvuHuaaAxHOnPhHYPKNm5aeUiIgL0
bbbvjciO/3WaeCsEGTiXQ4cCImAkJPm+BrXbV+TE2C2MO6nP+6LsZImSfgCZZS4i
oS8phOW5dR1002krgGZuvjbFT9XjqitHejA3YadVyEdEKvdmg+lBGzCxFn8QY4NF
kFYoaUOq2tKeSyNrnDv6yUYdnON7u8mY5oXhE4J6I/Dn61D9Eb5f4ux/17sR4wrC
JFseTiWTWJvKWmL317YJWjqy5b16D3rKQmXMVPlz6NC9eAMZ5XMqMHVCLQX5XRLO
z3DyUUKeAZcQQkp8Mv7tLZNOnO5hIyjYngMgMR7zdSMhnlpmbzE3j4UiQIGSRnOR
NA3ZlPFjoTuCdN5LEsERvx5iq//aWLpoLaxn94eLQ4FFwQFWbr64xM7xw2iK6vaa
RL/TSD+vr2ThR1dPmHCW/oj8qdsHD161+YkNGLhWH2yvIPit+fWQ05JnFUmesiXq
nfWhf5TWOwsVFXCwF9z+99tCW3nqclf09RZdV0lmTTkt4aEuUN/D1z9bqiKmjKbc
61yfVSymwz1HgKg2jcCvMesr4OhoqUX/uxt3OWjgBAgsRQLrW8KV98SJfUULvZhw
WDLw1kPZhlXuzkEQEZewSIppEPM7ff+S9cYwjhcrV9HL4KczFTBeDapHFI3Ar6tW
+hT4p8juZpJFkPpDz2Q5swZk1jxLEs5bb94VCoNqT+54QugbbpigVUL+GVgwSOUo
6esa4zsk9sc6PIdjz4Dnsqyg1f72OgQ1+4t1hYPgjpaDTsmKlikuTeIzqqFMfmkH
TUXlwlpZEvyu121LeblWlKHV9uHR4MnE3F5M0odQ7upN+Nj6WMPy5/f2cCfQcS/K
XifWRtkRdLxLTOgVQUP5yDPTyQrQHcbKWLMFhH9rYUrsFwPkh0xJ8nlez0P241y3
+8EpjxVI6jQ8N30NoX3QsNOiobgZNgDPj4xRhAYUg6QycsnbcrwiJNelFBU0jSIY
hXyF/RkV0nOHwS3PiARf4HdSje3+W+kjDbvEgz/uX1zymU9onN6Bh6KK32Yuzttr
fBNUZqaT/Y5kmN091tsI/zR9twqHpKB6ZpPLsGuD+JrR9HNsxgz7wWbRosUmdYmq
2qi05tLmk94QwRlLUaQVxh6FldenPtmkfJQo45u/mRbti9p5mvzngpO7rbS6yBHk
ysBTHZC1pFdCxU5z9R5xLFjjOd9MCG0PaGJBQZ69vNcRYS8bRc3GX4QWlx3MYMdX
RpAhju7FbRSjkrXVYxh2SkXVpVEbeecrE/sizo51+WZiDebhdKYHwf+r0TavjETK
BbQ5g3s4MC7VvDJ9Td1HePwQHrjSTFjrnjBwbZ9bibJjrdgYQD9MYMwLMdDGlugk
Lh503Uns1UszJR1TtNjy6MHmEaBSCIfcSv7g0VFGtGdHI3ZHSVvbqDIl6h3Urelc
L4eMXQNioxkcUgUykvkSa2UCKUGWrMyV+AFbBoGKL8gCoslvopNX7xE4TjtWLuua
3ANWLghvtgL2nr9nIgWfXZlflxVPmGa1GNWSfu5+TE28/HRoMKdhEDpgcZQ8nvEn
1oLmfJP8aoskIzqajTf9Bxok4VhndZyv/67sFMhHXsOa+tHsuZfid4G3GB/PXlWD
bosXIjdaGpw5DlosDUAx9iAUjSq6MdcmlSXZSq8lkwGxVrKiUo7dxRJXv1kYsj1m
J/AYteR40Q1ShQB391dnNthhbcVD7lVF3onTJdN30ZnrLG1plITsPaHtwutJkz9W
Y2z+rOaw2YdEBVOj/WiQD2NT52CbAX0Pu+/d7W0b9p10l+Hq0Qf9kKK1Iak7cOXA
pP9GIz6m2EbsCbgDlFwQPUwuR7t+8qM9h43TejpfbObCMUtxXbafQYgagDFgEamq
3YxmotsHYJTXLTEaa/IrY6N2JZQWbWSDtqt+S4hkDcUtWRx2BF/yjppmUMOy31E4
sOsENiKDQc1YXDKW9bi5HCGVMFh4PUpQPV5iEPNhXZK1mBVIhR4CR28hWtJ89uvb
fb/ZBae/M8U+5+G6yOFPA0bqj2ajj1HfxOySCtl2WkfcnX7Ol7U1QCnlVOpoab0K
Ugcr7uvZmq143mq3Yrskoecxk+R8qR8f9SV2/dPRQYc1OKPOFYiQzKH2hkZoso5y
QeTWiUWjDd2Nac6H/VIVLWAclb0zW+aa2xg0nHIjTn5rcMPF0WLzLgwEmTD5n2Ev
6EnfEzoD54VTK3luTGsr3t9s5tBqQ7Yl+1rNEi0/RepXTDNVhtBe4vyYyDS4Du6u
VqIOu/tqGPVq39J3Bv+PK43N4aRQTcXUagsFXfDW5aTEnQJQe05vTjwQ21jzKQ+f
KpfKiWFQNXII4RCcvDn8VJU22Y7FLSW/9UEl5mKL+1HwHonz3rwl8/nTzzD9i3WC
La5f4N+kfIM3idQnpiZctoSpzm+YnjMWShRwIQz1yILtV9/HHHbF7hHuBCG49boi
s72kQPG0B/+ThOPfH1JST0vI5Ncj5pCVHH6IjoJyHI7TWNJUmNLVz4sKawYlg+T7
8Z7dTjuw0GxGs96AB4WJWGbeZiWO7H4uQtTpWavVtxQ/o/ODRYyzBoQrSwf2TiO7
p3j0yzTkJVEuAwq8im2aYQQ3NySuCw4X6tVx1QVflaeNdnRKvBaP1tpOTSGLDpm6
WxK74nKPR9kgswAeXb3GUgZrXA9arEfdL9qX+vd6yUmBFKqZWUsnNsqvtf1DBeCK
TVnpZJe+ZZiMhSjJQcl628yFPbHskBTWOCmI8px4GYOOdyx7OngVQAP64cM1N1XU
dTAFFYqQc0/MQH02aZc+rFBEDbEgagG6fm4IaLcfUiM84VHm2lgZqVKN7wML0EQL
xD4K2NPg6cuvvoD+pk311MnVEGqya5Sz9uwxZh5JCbPff/FXnlfjPayHV+FZ1Qp8
zSM8vCcGF3H8H4sBFpTMoYFyR0EY/2olRvRyh69ZZ+da1o96Bd3lifZ5r3oU2SVC
Pgn5TvlcbPsR15ekCFeP7hFnGJoo0r/crr/cEgi+/Edmue7s4jyyXQ4u/v9l5x7S
aFUCKl8C6iWAUx+/hPidhvoQzOZ1WEl9jRWRzZst9Brw8FmE2jDe5ocOUnvXOFZW
yby6OH7SUWk3sDnPLgCBjh7q7YxcAgxbanti2iZCKhhTdqxmzhLUEdYwEJsIT31b
goJvO93TUrgQ5CPN4jkY0cRztK6lOA5Yx33Jq0UZxZokRPEuhF1IKNNXh1nZZEba
njjZQQqrLfs4u7U6FHmdrmvtrzFFnXvLZJyFcpr2wVQLuVKg5+CFc07ruJ8L5aEh
taz1fl8UljnvK3rOHrcWyeBkKI/dy6yN1uBenRFKyER15lCmJ2MquIchlMzzLvim
RJ8LN12k1D21iKLhiqxn9tK6l4Y1AOM1MR96uaA3CR6vSDDe69lHOS/y4L8glmXZ
0KM6BrFCp0AKKGnf7sziKklM+RsQOVTNLZACrqgYkP1T+4Q8iexohCTBwcwK4CAq
/m92wyFkbD/nKH1z5dRx+sX7RRxLaOs2VIElSwkba8sw4BLCs5z0xP4RLs/Pwra6
71XgzCy0JLL/sDbK4TCWLsb3Oaw4EaFTC2lqn497bmcWfG7tShVUP7/uzhs/FjJO
A9qz2r8cNacw9kYVVRetmtWQHzjWyIUiQSLRSo5arGCWygRHppX0p/u/B8xUHlWw
6qzeZ/SCrfCVgR6yX8KOcz7GkLQcFi9ZJ5F7r7cyqZ47Lzw71IfvZBGT0K0TBa8u
XOtVt1I3a/BFh0VmfsXLP2Oj0O5vP1Mk6YrO8JcseZuEFUfpQLddiH5U1n09IMVN
QfW/VchxSG5k+PZK75D5K+hOlRfpgZKnJh1HpiM+afivbVw/EutCZYA0zdjpVhEE
B+9ahcH38M6IA2oCUHsTY0G/5eIN4wqPHzgmANYXVt6f7ME4OHoVnIiP5U0HVZgU
jIPKBjA1BlkFK4zknreL2AmL0zGeA3krUKpE6XZ9rv68w6b8/C1cCB3wYD3RuIV/
M9ysjoeE96kDO8SJ+TFdlBHlT/OG2LZDRoZLosDbm+2NIMcBvfeHoa2F1Pk7k6d0
B3KUXSzQpNcrf55kVJZjKaUeUNre9YahWNKnxGkG072D1CdPSXEMT339eI7jal3+
JrupSVcr6U/v8+jXj70bBGbaC5++TOka+skTPE3wFSKFI4EspmVwzv4iQIm9kJ5z
wykEZf6oMAkIyDPDAYm7gYxVvhrf/Kpmpjris+INrvpdHZFex2lCSYb76ClwV56P
A9MfhTtoR42LcgEx71QDMCRqS2O4U6i8CvriezRwIca2eJjcCQNfAUid+brJR7q6
XL1gjjplSzgmWhjBhoqrPRa/LYY30v1Q5CNtlmki9EPQi7gYSRgGO9bU6U7JQEE4
Vg9c/LQx8Gzkln+oeYj7KMPnMgt64D426VIMelkpFQ3gWboqIscasJXU83bdJuPT
BxcGBAhXTjJ59Vi7sNaAHrl/yvtRw9QZLj8VsO63YcKirAQACqE4qZ3DIFvBON9Q
00kj/GZH2u7HncuztmplEYtyV4Y5ykjMlesKVsPvlxy+V43KzolfWVBI945ox2+6
rV1Pr+lNn9VZU0QOJD926m8EJ3NviQ6IjysyuSdq5QhtWLax2HRYhr5LiiPcN6af
Y8SYIR9EFR0QqAHVhfWztBdcH8mL6LwECkyajoOeFPwIz00VlhHje72Rlvrxrdeo
uXvU14cWYsa0EZV9vRauTmra73qjJH4xTVLZM6cuAPvolTxPmvI7MED3RLz4KqRG
NQirtEPzhW9Ojy1PhDBdxWkipiMLo/siGpqFSVJLuR2W0vR617ZTY6uJLzSBayic
QJMHs4Moq1ZbSKVd/hrhUDNu2HJ9AIpOAy8CH3HmSvKvtVHqp7NMkIvHU8OLvsXu
Q1GwLvkS/s6ZpT+q5PjfBvkD8x8AMDiOsJJUIAN0pQL3aoP07PwjALY3yys/HNlj
+iiE/UK3k/3Zh+XFLasYzD7H6WFNrR5K/auZi0/yBvjSSsiL9HoLRzZDcZ02HyWv
TvUYAEgs3G/2TQMG/9U8C5i5Aj4td4HPBDPBHFWY/QPSxZkcU8+pT2LGUmQvudYe
BQDh8F/uJmxqd0PVNHNZWReVKp74Hd6s6+IxWsrjGZb7l/n4WYsRp2hRuoEko/Lq
s+WudEualOVnv8CCByTTItJtq1ZO7k1IUzpDK63FU4P1u9ex5kuc4YHnsjnkNl7w
k3LmHWnZUQ3y0swJKOO8UlRfupxmjc5ae6rheJaR2kISpKasiNFYXVRrF9FosY17
qxuEKRmT68LBq8/W+LzndSJkKxnIC/l+phPo3/at6CtpTS4SGfL+aiu4RakQf3Ah
WYUuknki2PJuJr9uDm4cFsCnH9JkVaizaK+XqSOTyMGX4/yiSZcu2oPy4FvjRvXY
ljJMC9YYM0MfVKHGqJfytIQ5XDpomV+I2jiRaX8GvxfEnWsSorIfbEjJtBGH2wsl
V0iNwiaa+4zwI4kWXJKvdzxotnBGHtS+j+LoowLcxgaxoeYKY6mTZPANI8VfKdVx
1+cq0RjTCWJy9wqaH2odv2eFK+g43DunlCu/8KvTbF35k/twOTU1LCmmUFeIDPyI
q1PeQPqOPt3olNjxYwAm+27jR32wTEBylJH7FVaakUabwFgGvNL/jF+6eMwL4ksw
fT6eQs830zRvmZOddSBCom3Igl7co3yBHJwDE8jYfE0R/PDe+XTfBhDfD0DDQ/OL
l6K+KMcpogXVIOKbRKIXMKgzk4Lb5Z/3Hec+J65SSoebMCEVWj+XOrGBy4+DXqJ1
2pMTiO3x84e9wqLr48K/+9Zg/xqdWnIoeRBR6tuEcnPgZRbRJZXVu7doGuIbKJmT
8CeJOTD2hPpdbnrqFo8gjd/wiRbEeTircTmIuzD8+ONs7tKegbVssjTtGccjGY/O
8IKJ8AM62jyam3mb9DoDlttEbCTR8YC2cG7pJqlM0I14ehhZ7GFlx0WukKhtV7VW
jDhH0rqKxMtzxkRZpy1cp4nwNQ+9lyUTVD5EFXLS7Z/WkBSNfAdznCHOcWeFxa2e
Bi6joFCVBQVY2wAxG4v3ULktT7z5p4bls5ocWJC5aBcMBIaSUpW2no97VXxT0R/P
cWkJesy55hRoPsnPsFJQY6FEQ5MaH+2Yo23BkfwIkdza+gaV4I11QJK15XVfDLCr
9X49uDRNH9uMJFrwviIYT2/agIZ0X08iINJS/9u9+hz67C/Gn7E38vHiMOU4XEuy
R+T9gxQisosrpL54VnxCwahHbWDvMYj1sRVXjRcB5Qhp3EpC2us5hVGVnjM8VZIb
HO5KoOv9xk4PlXNMNvwEnXOW+kgjkailD3lhzQI3dweFlWvp0tehFZalSQzpibz3
2u/WnT5rTHzkq8DfZTMRa9ttciecRd1SCcWxbeuwUguI4EgCnQTMCCRRhGXtYd+Q
WLfhDxrtrGx/ihODjEvYIN45TYpuKyg7CMKcI69fFmgpTpzLl7YUFxdAvK40/Fwd
F8U1ygi5VTLn0ZveB4f0P3mF0LaGSO5dFbY+H0kSBEqPYIWO43+sHBeGYiCIXlCR
Hxs3RDrxnxFBFwL2EmaAQ1zgqG5zFUpZg8N4ppZgYOSZXihY9KTITBR778EHFjyZ
TBcDMrIivwsHeJ717UG6Ev8FQ0muG0rxoehzXbR0Hb0QJp+/Yqi/PJ+/oNxnGQe/
NLc0zngjXuB/Oohj6LpKl3jYcKN/6+JVjOOZDBPBZU99nuyBExla61nYoy2VA+TO
CMf8OqPcNMMCft3EnFAl4QlL8N/eI4lHXz6LZssu1AhfwFa/81iRSlk7BPHJl3SD
Z5q+rzWFgWDtEnUisLdS8QM9SwqpfA48bPn5kxVKCxWn67SgHu8zlAHZBDLigqOP
M76EW/5edvjx5kZos5Otu4DX0HHCMrdQ7zl7pBRtMBRVTbyviiMZcjJANOdDWV0T
SBpqkVMuLijtSITO5sLQD/x82MEYQz5Wddevcrnd3zh87S5SzMTUtbe1oRXX4rba
j+RHQTqanULgrFNq21exee6PB6iWqsXJSdWSFH+KoG7Dbur/d5I4SkKsP+BT+lDi
mJK9zNsvjV+D3U3R8GnS4bGT2Ib1Ip/J7P3YbTSFFkeIYJ22HaqaP0SPg1eHpY4e
AIizq5z5InXrg5XPq2uEXCePEY52PpMbistp1xCXVvM/KtssRK/d3qx4vhYDqcpk
bSWJjjtL4TrsAoYQ3q3YfMqSLIvsf6TjxWXNLucwKsFrhqF4fFgYz9n1HDyICNnY
1bB+zRFA70NnlGBDjP94ICYrl3CrKJIwLhz/3GBF2oAffxDhV/Flb00hWgkJ/xnL
rOUxVfwA9qjN8MTeNBGy/NRDKAjsz3eoQe4FLXYCQ2DFi3m8HmYPbCcxJru/mBrz
XgYbScyEZ6/cq3/0YfCFoR1XUuwptKTl/QX4x20Ds/MWwWdXIulaAx5fJfD1hTog
Q+/3vhFdrD4PBW+IKpEhaqM7FkV8sTE6vl94DbZtjmMVBqEJaP54MDfeb7am12Ww
aS3yIGWomG3HAO8hfbaYfC7/nVHTXPCJIp1SYPikDl0PmhMU9eDSg/2KuLQa3V1u
w4la3wY425Ck491djpXmFTuU8EmWzcFbqD93Qwt2ClxwW39rzoQwOCJs3L9t+7h3
bUgltJKQ17pygGuj1p6IWhP+wWJmmZKYwdU510S2vA3+RkvwJQbu/gE82HDKAdiR
Hpjmh6LU+mjS1TrzjJKTMOgSbkZuQVK43pZqntfn2y/5bbbJ3bnBlggwNnTf/0td
JTDy5vUE/I0EJwouL9T31amRsRVIb0V6yS1yExWazk9+IVfo6LXQc1bOxy/VxMOv
ImTrOoXK0VqSWmfiSgfWDcizCMyW0zTTLqw4y76fYiECjVrhhRYimTPcw8fY4NrT
WP45vc+V5vJTu1VnrivnRyzwOzGx4I9as3y7Wpqs+ClgIrEiWGokjefiWniNO3/R
pBzwgEl6vlpsGjmLlwuL1/kvDIgACQk2kN+V0WFkgmTxKiDW2TQbJb1RVOk7GOf4
UCtkkf2U1WLZjRoXThs7qIwvcjGCPaSac/c/gjmbPmYnVT927Y5HgGFHDEAC15MI
gPSjfwy7sEa5ag/bR5dgphiReecu0Ds2WOd92WQfOsTVCPIxnoz68+W4xfCYkJf4
O17CACiIOD29OUxgKolzJx0rAj3BRY3vZVP2zmuJLODbnftIfLCJ6DD5jOLrwGaS
dXprKBdacePHdAVC6UIO2pbjNCjjd28wr/Vdydp/s1bWljWVQr6Cb+P4OYca3gFz
GCKQ/rkpfrBMPNBZecQO2eEIAi+yVqz9nx501GVuHxNqOkjcU2aVA6IZ1rWfiwkG
F98RyGypn3oLgNQsuAleyL0FTA0/h3GUqhdnADPQlrYuhbIbooYTESBUWZGIZPWD
k2GRan1BO9dtLPiX8PwmnJRmgh/JEIua/QIg85dLOi5YAXpKNvFynk9Oq+fzJg9o
+Enr97nUg++advXshyCVxb/xD4R/2m4l0w9Mp4TtzNXTa2IUB0DIP0Eo/WZMaNPG
69BUOaPzzr5hAApittHloLX+l1wtvNIBNCnThV2kNP84u/M8mBAoius+cW9QmpJW
K9N+x3tDh29vAyI+BhIfxd2MN0u2aWOTUMSXdBY/h24Ycm4bMox+rtOViEUoYCEp
Jkp1n7DZ/E8yA5wvxeFInJqEKTObX80F1GywLWacBm8oBKMemqzplIUGzHNGA6Vm
ABYIj68e2ny/OR++FJ4uKK5PT7IC068fBR4dOXgA7ZWkcyMU/eCIIRUYhfawWKPS
iwOKjTNzwYjhQ5+wmtu6cDpgWrrcnUM57GDCh4PlXHKNNnvIT7PzRLhkrKhf8ZpC
3gmohR4RY9hqD7OhamT3n8EMelyHRPKLaeu0May8Ds1xmpzVYM8y+Favz3gOFVXK
M5vnwaefBJ0LZ9o1AFR/4BexVZas6e4YVCMsev9fo0o5wjBryL/OQCx8Gq5s2Sxe
BVqPWX2KkqDYrui1+6o4hGBE/5aJbllGdG1pDBnuI5rjuma20P0DnVy+r+WFcSUi
ovPzTxn4p4Oucqo1XYM6bPHdPd97i0PJII6g/UMTXiiKJSOtxTe5rQQxHif74PcV
X0/VJwbqSWy3aogmaux8n+Dwbm6+RMQ7fhvg2shryDhDGQbwEf3NYuvuFTlni2sq
29WJZ3IQn1jz8JQekdi316au428pLejN3Z9EjtdfpPNbgTyrY5666LAW6sbGmPj8
oQXs9jpb++1yCrHnP3psXvf23rT3RAKGGrOx4GSruMAeBZHc5b5adfRmyLMDNX7z
9NLVMZ51UblvHhYqTcHumYvWEdoqDPhrsdyUT9tzxIWU5zNVxc8kOP8LN/XaQMnS
DAIJMESQqD1wnpTEfXK75m1pU/f8hDjRfFA6UD72JQ21XNZZukmYLgkpk4lLTjCU
Ac06JxA9d406OY2Ih/GZPrjC/sI5HEPqLm7ji0haTT7Qjn09XORcq0UV3n4RsrvK
tAFMJvFkyqsIpv1DiCUScMIL3xl9EfUWe7s3i3WGt6n+ayXEH5E8Y3G4WUxiWJGE
KqBrZJnlJLHr/1IIo8fS7hpquP9Xu6lu/HNPk1Rg0WcQHwRnocMDwQIhYQFsD+G6
KHAfSr5FYnQVtjri13FAsx7u0XDHFYXXL+4VDgadI4s93mIJMssh+ZdBF0oLg6Ue
S+0hYVuYANxJAP5hMEe7tOwdepNO85zlrWqXpcN2yQuglyvkjkmB+wkpqg1oNuks
mh3IctJ9nJpp3LnUHZOU5RyfAXojRno7lH90ulcZVRSIn3xxhnGU85CRPA2Ghaej
gHYoiW7JVuIqbXN8+G6kWVEVb4UGW7gM31HccWHFssjLvwVVdSN2Yl57/mxwFtek
erlAJOQ2tcp1x4OfniLl6yHuWmdXu9nNqMiZqFTWpiSHGwpYXkUwDxdiUml7iitY
LuSpyQFyjJiuq5bB1PJZsxKukATm5+6FYAaLvd61impwwCNoALz3RoHr9KAD6YI+
dOfphdZAbX+jJxz+uV+UkLhjKyESy52z12xsYUESj3gzLNBhCZwvTCITGJS6Wwt5
DEs3H1/LZM++C8qStn/siW0/1AQFgDL+E29myihKHjLu2umatf8zpvbYq5hHbCbc
VN3nTI+VMtCG2V3LjxQAmTz5VgkDoz2Ljjyqa8CYt7Bx4W3mkWx/rvu5mVb0b+rA
pSrTOWoxw5COCHBE/VjS7smiOhiQn94dUkRxSMdOX1qm/2d5Sv+28Rizhb5/yZuC
BSJk0AT5fG0eWyiW1qmR3Hs8SNJaWzWjbsfQO0Mtsg1wwmFbCFXU6B9NM6tGMG0r
3a2pxtpa51mdyV3L0Cc/z0wYPd7yu5Q/sxPYcX4I7+foxs7AXUOErHCjPg21weeI
/jC3oHhVdK8lp8Fj/cqlYkPivxGuYhraq2SLRiIQ3fI73H+2au6H9WGkU9x/l9oh
9w2yLUB1fS9ILSZuh2w2sUW6sGVIUXbUSCwDipYjEtQRCDbcKiX3AdP/am5VhrJQ
BlszkFFF3J+Fiyy31TTkLzxpFWYueJTYPDQvyZbSi+a2jxtjTPLON1HRLjku32TE
JXqLXcrFevz+i5M4R8ecU8e1Ga9oVmikMTyZ4n1gLelJuppORHgHzeVfS21T6Kyg
/7tA0xgf7vskkAOzVbAbbgRWqIZ+OFwCef+LY/RMsTjflXrKwXeHmE3Vy9wozsmy
kp54PEbId0f2LfTAXh/i8Q2tqf6t/9T30rnqPi+tz1KzZCflfsBsERyjSxHBw+cO
g4Se91qSnCeHbCq6XjlAqb+l37Z2MuN3d6Vwz0z9AMYR+Fi1EY/sO92GZpTpFFTW
tfWBn1U9jLe9IK3PBwfUK6qmOIUMg0XDNAducr0EEO1kg0TfrXh4ihTUmxadDfH4
xsqNL8wkQNH8GLfK1K0rDan0D5/ZVbYxAHzigyIqH3sFjnfFgm/rCjk9xOAhgi89
OPyZIOZj19wcoJE629HuoTG1GwssFtn1Pi6ZdNtZTpOrqh2JTV3QwS23hzirPrNT
UYgiDlJVgc9a8tHEFB8/C+UXIR35HIr0VOxkjgfMV6jaPX1oCnH55sVf0EbEwZGY
8lcgDuOjDTeXzeV5C4jy1iJOgpt9/sHjnmYlZpS9nAmOoMnlP/gOHjQMx3M3sDbT
qreT4Chl6CFQSol2cBBZXvorv3dMiHql25e6Z5Na4tF055JU2It8EVuK8Gi3eTBm
8rnBUVWUH70KnFqffFXCsPt6TgwgbpvE3ZugHibeMcPbKDZaDESz4JnU2J3d/ncp
uJYRGPRZpNDNB/AM7wrLHitsPhnupwvfZw+f+lQC/9bwLzNB1ERVNqpUtPxxgu3P
A8waJvAfLrvo2zGHBuKMerjxO/QgQ2rPYn/I8pcXwCZyy8eLixwT9NOgGlMhm6m7
hnn9kpYaYtIIIc9UqAWZKbPA/q4CjYdpreTfgcK/YR0XuJXxvRAg43AarwxoktCL
uSS3/QcVQ+NwQV0vaBr5xCBZHNVXnD/iPGy4wZQ1hN/pWc8mcBNqhKdB2SsAMbh1
b78OpjL7hfUNvMhr5OQzRibqNl8WUt2XpgaLNnUhZN7Xg8XfX+6vV78hl7CeMno7
3EAajr1C3kBoN9X4c9E4q3qYRIcg5HkdW0nfMLphpQJq7ug0NAbenARNZDmGMVpR
D3kaz1UxU+zfqzFR0+heL2OSxtHaZW1aU6L4O7Jg5O6sazkWlRq+GaU3BiELF908
wQCU9cAI6v3E7UuMaC0x9lM3q0XfT8VWCSVB5HS5CPhOFKOfXd2/yWT3Kw087Nwg
b8CqSAbAp1S2hdz6Lb1SrfJxjRdSWDw1nZKeLkuGcvkNcIPJN4m31Kc5ndvYPzzR
Zb99Xpy0vvscWJGhEWmdWCVHGPCb4wZQ3Rukac61KrvksBuWlLuZ5fbmf7QGmQo2
7UBNTFYIWq48sVByEBOIe5kBk3um6IWgnJ0fE0htdJBrx+SFQiJOWYYSOhyfKFPA
YjiVXfKurL+vuw5TrlkEj8XmlBy/iX4YVzbANEn4yeBrGCX4KvNZk0TPcM5TTDYU
zQPfl2CoQDZsvHPelEEvQ1793i8e+TX/dVnna4DajOUuh2RpTItVLezcdmKHaqhm
wdA/i//C4QJtbwqIbe4baobfBvwjNc7qI7aSSc8u7pq2DQU0bz1L2Y7C8NANTSUW
Zv0PbtN2wobaMgCrG3dMAwNL4x6Yypn/oNviH+5U1C/3/QwOkhT1AeoNxNYTjHb3
G7B3D6SpzUD5J2zmfAn9mk+YxOrqlRK+BhLZNsHiCQPAb8HCeJjnpCAL6I8E4TcP
s85Lg8Eyu3K2MT21Gv9b6Pb+H+NVOL0nNvykaqFBS76WJa1TGLriv839vJAqc9SQ
9YTFghAFkyN/x1k/MYffFVexSpzCTacM+KGP0aZrlUylDGpLjG6HIA6mzUgSU4cD
lGrl6OFFMXTlNcUYvlNnCweJzdTc+P2lOU6AQVILhPBpgfM79FE4LSyjj39wmRSD
lRjExpV/pf87NDzGCnbUMNprY7vXAisHUZ2FlJXA8bVnEHGg3ONzL2VyGrMl5/8o
aeJS3DuBHPtC+dqvT8aYWMBAbez0NCbgqbB8lWuJi7nrYzp/WxXz0zOkV37zcmTb
1Z4majfZq52t2rAXV2BIIsRRKRRTukLYpbUKtFn7Y6XG99707U8lwSVgeeZakVo3
cXcvUC6d+xhtv6Xh1TOmiDLQgND5j7em7fv5lCTJRjC5BWjFiai77wG2L2eZ84jo
njh8PlxVQJLBL+7lBRANE1yr5S407vuEhPg2YKT3mqqOirDf00Zx9Qvm5t6br3Ty
4JbBdaS3ckL/vS+Uli/Ud5f5bXa3mT/AFKvloe5cWFAexydlmWsMrsA2xVnUm6p/
FTs+eh9/vyZxwuhFoecXXPVXD6XfelBzHPoUBGP/JQNOJNXXwEzDjsxSGesBe1pC
2cWihnamejBg5YCDxHIE9Ri+IqF6ywMCS4jrtDvta5KZzfc5WhtoxYLjgY3hMIWZ
yVZiEuafD43q9msYgRpom0aRNFgpOnxNbldrHvyTJ+ZswShwZOo7Hv87vGZbjDyw
Ns/ditegErFnyyD1VFkbH0BPa8S9FmTSBdMoycdQB8fhYDIWg5ED0plIJGmpUMps
0INaSLupxFcbJYwvLHXcIEeA7MJ2pgbKZ0n+Sk2HUnrLwfdFmw/SALMPR1j5+Eum
S/lWUivBsG8bkNRIFxwiZhWeh0Rt7lUKqKQl5BfCBco5tfsxmNcUO4pJB5XTdt2r
I7mUKmgjfWquY4JpDJguEyo9TQmnZePZxcAWyUEJyslpkdglYLW5DCPOjG5KzvJK
piZLu+Lc2pnNhreITUWWk76Lh3JdqDZBv8AieHcUh9fgdk7BppS4sQRTcpYN64VF
NhcaTGaBzB6msXfdh5v7I5NdBxS/Qb05XGneoqBh6TRJ+vtrU8z35+A3QKQ7y2Zm
Uf8/yWjTfLwGLtmbZa4lCjQP6vm2ghyV7Fd4Vp6jLjha0c/e5pYjVHBKX9yUC2pa
NEcu9ZjkoyMlCc7FVHVff/rs8YOyAhFtPrjg6Zmsw03+8wZYOIHuvyER66hdBaPQ
2hmRyuHue+MoUlVPeGar2fIyPfvKRNiR46i7tPFis+QaYvxJCYf4HCCBmPKmti7i
WHjzDncNB66BeLuhdtrJJBCC9bwbhbl/4doPhXmpWSxFcbxONZUT+TY6oi1b/sBo
jHNCoJg4pA8tnAqYPxfIjno3Zj9zGXUMbxCf62w95uyV1cxcDPJMPhAv2kfeSVYK
H39x7n4Xw9LQg4L+Enq1tMq1udGtxhjGcyFbQIIpdV15Z5kXQ9GL8Eh2trKmBUNf
Fe0KahD8jYb59mscRghCI9t1OgkJ1AUgkJgkpKGmLILnrhE6TJo6TTb+tHJ1YJwZ
3BjDti/9SaZJr4xHoDj1iegkrEylGUQ/DTMK8ICk/HjmD/ZcjW7umpiP5aEWgsJd
XQiinYtDO1+EBNTPKGfckuvo/8mo4wo2cRskR240BhguXM3Jfwu+w9CIrXD807W9
j+rxMB8sx0wKNYsPu0N7ZkQmo8qj71jok1ZZ50ZV0LsGYLNrrzCt6Apc0ur95PRI
UI5W7vLH5FnVH0yU85r8vsmrfY+teB/Sckm10o4ClhutX0ktVV6pi/luFEjtCFRS
2bDoJMytEuKPbb3xsqMbuVgg9Nbc0G+oHvEYfBVaTCyKZCaixdIJUD+RoVvnyKEC
QqwKzDIahwlsh9WUTu4ssbBfz5xu795wYznTPmdlJf8TQTS/uyRR4Z5gEGqEgEV+
/i3roQg7ZghoJzS4CJKjfjm4OAmWlMM9XI0Aa55xYbkFgAlLwjLX4McH+ZQVpT3x
BMSGHTW5/2xxjTqqKgW8jGRjkoBk5I04AfxKl22typsvKR+kQVBUtfqsDv6qbXWQ
8CXXqUBCkC7jwyCD4dBwwRscjxkGfTPKxc/e1JD+FpYUBdHpWlH4AvsMUbNYsU2y
cymqd5rk0oXBMxDIDoam3Nda0Ko27HXFhmdtjylDm38BH5ENpslRZ+UgocgbiMWu
WUtlIMNVoxEjLDkn1T/BbVXdyKzc7zSMSuD9vEqdBZRwcOUbOEFXCg96QkgWx04u
vUUKsD7esbxMCTB+xDnsV07dFFk6qCUEmjobJfhBkTbgtoMsuJlp0zfxIKAfD/xj
kUC8AQ18ScR3By7ajlzhKIf7xj/UvRGa1pE6ea501Yekmf+DN8RKHTfOT5SYWJdC
lhxnhDyO5FEzrkMt1hUVEovP2vtJrOUVE8Ho652m05HWVhUqwjvmNAsk8fkfGUAc
KHCzgp702jTwDhs1RoS+9Qi+lL6S6dDYPnbmTp3CwRYyV7drzrE33rg+MLavO/oL
98js8pFI5fb43qOX8bA+rynrRZD3FU7uAXn4F1UpgInf0HHtg9BaJVfccj8LZI6C
j07yQuFWY36bCfN+YsrHKlktXn237fV9RTqwCMzLEg6fKq0t0SoUgZtUiQ9eEcK1
BhNzQpo89ZCiionf9BteImX+ofCj/O+Nx0YBFmvp/ECsw1NzYkLfB02Qu04RDPye
W0xZ0YVt1Fb7ED+wnJnA7nX0+oY6MLbMWhcJ5ZWJDxvGKgOfoWO/DaxLa3Yj6M2r
b9MOSZAsbLb55W637K4vN+NZ3FzDUUnZh0qgGEaigDZ2H+4WvzCaSNNCx52gqrwN
5pOS40rwyWpww6/ih8zOM3fOI8VFdihN0JgIMfi8hsOFzEMXE0LxlsKD2613Tx6M
zxcqVsqY94bjj/CC+GlQ5EocaYnS/zkzp5efWgExoV+RN2inowNkozdIs0pHX4R0
FHcg/M+u0hIgEVtWftXLN7BD0ZgX8cFBt25fktWNj4Cq3z+uDWwVzf37twXW2E6b
1nJ251YRYIKH8gKXNcn6Sg+20vJrkEMvs8jh9mmrOGbAGHhV1J6cn9LpZrS8DyxP
o3sfKOjfIYtuYdUkkArwdWwGpnDAEpa2LTAWTuJcRrcUTvwhYLJAuizmPpgyUTFc
81dOLitADbofg9JDAAHDEar2x9GV4b2aV9hRrNuZvsQnx+nOu9u3jSIUJvzQVI7a
X1nfHU0YjuSxWCnStlzlNPnmv1rVMrd2TG4hgBTILT8r1jTkTyKMCz4QpnVVYDij
Xgr80ZakUm8C0hHQGU954X0QVFzVMZgkNz7/cvtwp5b28FHXuPiNA29O4dFEx/ee
w2AEPE6aOTQZPnpJLy2FMuEMNm+o6XDyhHCNAyPvunyjfMJrguYlZPfA+nDxxVCf
M4IPKMc0dCd09bqFZs/sgwsF02oGs6bcvSc4LNgZC6BNlYRkeR4XBxDmY80VNzIU
nIqRJmDygs/84qzw9xqa5OjJMJAkm0l2IaQevm8lsOe0OH3gmWB8C48UeiwIp+Ku
iJLHTWgX4wLKk+68SHGqxQoCqP656FWlZ9Bn87dY37KHYMTUj7fgBQOZoSuoOcVr
/b5icxyXxmVKyYRCIuaVzwKndSonrIaqdL0+HdIEjuMNaz5zVSP4o3k1Z6EEJh1N
vsR0daqZMKNG6EoS+pSxBevBmLQY7fhl7qdikmpwBXRPwLMnPWXuUYI78izrWmQB
DcphNSwOkKivuNBQPKlSKoR5uz2Jb3YIulTKWU3ng2/WPq+TyghYX2Ij7lQhsQ8c
hX/NOyxcFr8xIV9GdPUOHZVrrgadZSwdGH1FLKh1mCd0g/vVETGieNOsmhAllh8o
dJ1a7Q+fWeblZdthUZ2DxO+Ec3K5hOt2K+b4jsZ+m7lPF/0idBxYgfi6rGQ6R8ch
gGVJuFNs/nq1nELjtA3jJiDfB7miuW8AZnPzl2JCYmCL6/Sgk1HqrPGb8R6Vy79c
m8SBQ6fjrw2CCJDC42RrciwRKh6MSRGnU4ky2H1PVfT58oQnfNqg+FBZ9Q+Mwlk8
ldEVQ6oi41Wi4ec3CKRVuckPIZze1rDKDEKyv5cRT2vSUIC9RLzFcCtsYsS2m0wL
apOWFo2598LKaAmifHP8jgwI2mNK5wvax4VJGTAVbj3R+oM5qU8v1BCPdCfEvpCz
K/IHrtPBxgl105GpokK+nuRRTsBRoNhHwmCWUtVi4MMqJMHZZN1BVnV16Bb42xVC
+C8fP/tcc5U+K8Wl32hmpR7I40FViSWt3K6Jq93tGlm599b8rNyDjbEWqN0cSAa7
gRMwp4PRZcYh9jJq+gTt7FOEfw1LygKFPdGQG+yucCqXj7muGgXvgo+fM0ZQ/R+M
OYKCyVpT+gPfhs0WuB+HlkqXhZRD3+/8NW6eKPiEUW5bfjDFC984f3euv+0TK4ep
qVl87SN0MFD4Tm+dmER2PzgHTPyFOn0Z52Dob/JmMZJF54LB46l8pdkvTCGGXSDR
jmBe5e01ORZn2CwLVh3A/s+lVfeRs+TmDFhZndzO+blsD2ouAp1+XO8A+VpCt19J
9uOvjSNF2E0j4/8JQnE7pJrD2gjd+TNrm1lV7Kunpm+jrl0OkiCVrAzT72o8bT+h
trkM2hjHWN3X71F2pPwetcXDe3lyFxej/DkYGJnLseoYZdoChu878H98QiY2Ca2w
eM3LXl5/luNBlxGBrZnMT9zszvqqXTca6ecErpUY6p0I2jnc9TFoxTsS/uzp0yxB
b5UJ9BTtPnTWT9b/3O8/l1mtxyf0enbfknj+Z+kSZWQ2FTRW4x11DD54isBPoXqh
porRw7lsh58RybjyiQ+Jq8vAObzTwMPr+Aw+QSGvMrLy8cnsZ/aibG6AagNZAr2t
KV/gESg8y4H3/TUVBmBPWC2tIm0uiTxEkY2r8hBvm16vGzHt2MApZEfBn7bKD91E
TvOTY6mur/HEqDhZh1DJZ6RsI1dt2WQRiKDzngXbVfhJ/junZSrsC72Q8+EIExSn
qbN3r3KY8RApuN3FPvpp4NeIcpx+qacvupnmI8kh6zJ7Q2mnIq+jrh5rPa/4e4hX
7A3YzAm+CzsR+7W91WOgZMdFRi0s84kpUZqv0kZDxp2iwobcDOm9puVnvUvaik2X
ZRMv3LSuBfhjA1f216tfAREh6/6S7/7LbiOLFx3Wf578FjL/4QNfQXkQHN0voTDw
O0sB7hxIROBVMOcsJJbVf60SXH1x7G53REYpE6qtqapFpjDCAK0jqCq2qRYqUxRJ
p7QePJJz56ETqsS2dAG9oulC+kDhd34FVpQ4kTW11uNF4UyfIObPS/opXZSs1gfU
HfeNAgS7LSAz027T0FH7IFawoMiZ3dpgdYmqld0UxMFFpr4uVgRsG+nqeTSBFxK6
WIJ5/8bGNoDzgwjHPOmuzeHGtHCGLraR6VgiP7qZlMQnXHiypl6DI8F2p+MXjdl2
Un4cvtxZcVQrzKu01WAho5Z9SoXon2E/dkWlfk0gjb28rq864k+DIZ7DIsXKrK/A
2paaVkjhss9Dv8Xn9jxjVvcp6qu2q6yppv07VCAqFubNbcWv7dtMXvadiMLtu8ye
I9Vir7rokbfihR6zpG6Y3GgPwGlRL8jVOeslzF9kB1f3uTE6NtyfhVaqW5RAyfcC
YKdlXvKcIxBMJ5/jUkx7M96jLkCLzEZn4I2msUWDUodcog5Bdv/fulM0b0zZDtbX
hQ9qlYJxnXmdykv9W5f3WQWob0ZUC+AqQe7OYqHlffBbP+Uw2Iqs0P2SfgAV5/+l
sce42BW4TM1qPOCKwaxtm5WHUGU9PzhXitA9doeqYmka6eSfHXwEmC58oQNb0J6Y
/4F2misfmz+CCjRx2l/34gC/8tWlBaV3iGbkupdVh9bz2ocNHqLdNGXT+dF1TC55
zWtTeteglTVbtT9rbEUVzJzJBTSJQajvCAfpyM9rIN1n/HoH3yZccFwabAlaFHEp
mDXRGh9wrp9J7beAhBX/j2+esckiZbTEoFCe/DKi1JkEbT5qIgf7Um0KYns8rAj9
g/yx+BNpzXwFKn8vOMjvnyF/c2aQ2lwQIEcYOyW6RGMyCIsvV1g/AlVxynE66glR
QK7LvZCSysSj+pahuT5w2Rz7smQzmq+5hW5mL/Hgh9eczsLDrhqRTPGZAMZi/PTd
nfHZvwmknJZinIFOgZb0zUSnbwxe5gN71ex0TSH6KDXqts6x7XqylG4/QHDneUhY
df+EMcSv665VAshVg/jSYUTGtkX9bHVffXj2knUf7oeS6GgYake4vRnXzzsb5Uql
gJx54bgrELTl3llC/qohhQoy0qHzN+8+7bWu4/mhXkm7Zv6dhUNv/7DvOLZZAZQy
Y9XaTgTPrTsXTo8/n+8G8zH4wIndCIga874HA8TBpPc6w3sRmK3DktR2IfDfSosn
AYaqhO2k1b3PWImkc3IpyqzmxOICBBYVvLTSUeTd7pMCjcUMBxwjGw6t5q0e4+Nn
qwNvkZV2quEtoU0Dq4XTgJbCw/lJ+CaOyXIrxuJp4KTMT/EdoPcUyddo5vvhI2hw
Am9odQRtuRNzA7Go1pBlf6BLcoBl05vYgmzeKA7M+G6pswej8+x8Jfl6APrcVmuJ
Vsa1mK26AGIAUygked3JGI+KQ3aOVqX/z0SldAcaLx0h+SDWfGBEqFBCXBpnV8XI
pMYtqPkIT3LV4G2AlU2a96BCyVft0jE+wndihWI1ZTtGnR3e2MWx2yz2ATCLmrcX
GzcU+Zpuaz7GTz9C5dE667qX3nM+z6etPsy84Sa1Rm3f+PH1+YQ9OQnDZIvL55zZ
TYoskvNJN+a7N30kZ3ID9VhyfY0uYm6okacjM7Pr4ZMymDEUMn5mV1B/pdfaYyqq
U9PXvb4/bdepsgFwMkMrtpwC+RADSpx1V27NrNrucg76T6riQMW3aZAeKg20Cc4Q
0ReWT1rvA6nqWzphpsq4KWQZ9AUbMlJB+SX1HN0c9CgjKnYTJz4sm+78yRck0Yg4
uU9BItrqgfQPpHRYLX6oFSqx6kiKWIdN4mttWOG32THZiDGhtBm6+qX2rfLboXQE
yxfpCRFAXq4NnwwqIYq357BeAJ9VDd74IllobF7ByC4cOrBRnCfrZVo2Tvk/GmWY
iCHXMZKjqHhGFA+doVQEDkHAJr2ayXP4fkzrq+glO6qApOB9uEizp5M/tzkLKNY5
4HsX79FpjtNwcIkltKhpqSi4cPWDP379uDPmPeylWnSwcTdGWgAr8LaJIZyHcvXj
w7+mh5t/BQBdSAYeKDClAM1scXdeg0uoexR+howMn8yh0H1twevNRg19XmVaTol8
9yEc81KS0mR9LU5EgE3NLDN0JKm6ZbLCCRozKpul2VBPK+nnstjKL0q9rxgLrASn
73sPCYxCUrRXc2snnvkKByeifGh+sJ9zQNz2b8GhxJ9EFgtWGrhTZ3gAj6ibAxZp
F3jTjxWb+K5y+NriPt4HMta0Z631zWlkXBvTXSjH+hMAcc8lDhxGj499+B/WbUh/
AcYSx7ibIJOhwJyN5H0evn2PP6IGnxYvwTW+Aoab/2ykkwg5XprnKOO/kQOzP71W
6k1blWBCXS2zbclLyMq4OQqd9iYubzBayZPvtXr3stlhhqefddplZLuvFWPU+Af8
jh/cIXxqSJIiPboBu22Z1u22KX/HugorZJ9d1cTQqQI8YaXWa0IZWsOuOAls9Mxu
vKLhvzPBgBrpUIA9S/WMZZhHeS9MWUYwSI224BVG9ogOoWti3GihR6zHj/iQ4CeU
44wOms+JDrL7alsR0c9Eje8kCrDKbRb2/TrwQ1yuh/YQZaJfXS81wo9y4/73GC0/
TgpLl6qWEbt8KRZ79nL8CcUCmI/QysEy+nfTahlM783MUiej82S749NRJ0ei5ysL
GuQq4+njBfidgXJI8GA6RJO76AJiy64dG9EEzvpjV99I0g4h3+m6hvearVlc+Cy5
rv6R3JbwI/NR2lmhFSGCDBwoEI4VnrgFhlkM4ERv7B8QF/yBJa2Ts6xHwN2jQg0s
44h5j0Xp/LimMYdzIkLssbBR9XC6hzjKAOuht4q7ykT/5SWNlJo9No5riW0iKwY2
72eLU8AwldKLyaqDEtH2zo4n43STCCnzGXySpM+2zOePhE1Gy+e2CsHsyxkNkXrM
y/Au0csWhhA1EyGMFou311Qi/Yrc9NxC6dTGTlWziW0iOyDmkufpYXNaQTVPg/Ju
MC+acFlFG3IvD20POAp9zRDjkGmYnld98RNTnXlmrM1g86Vf5oIkMzpPLKYuiuYF
MeK/16XG66ZsytRxJdwOyxB0RlkcrgD4dtg4QeX2rANcmtGkFMkD7Tq1U2GS1b6I
Al8a5RW3JJfoTL2XY+30xQJFsn9Q4mcJRN9HvwASnzyE465gASiLWohoMnjDqoXm
zcCbjLpjSC9bBAiYoazo4CtwoZ78G+XipFZ3qZPgJDzlu7CqvJh2ionjO3usdM8R
OITu99ZFNHFdKZ8Ly3nt7FmL/tre2c5Ea5G1mtpWSf65e+0Dt31fxbxqWD5MseGY
fp3FzR1RHK/D9qHqmtu1FSynpSFXIm85LfhmGTeLip8kGxI+ldGO2HEL8Jgi4YGI
i+tQDf9fdH3alXjJapJrFL/LWlkH8REGFgf9Wc/0ZQDMD+OeT0cB+8S3uL031b1d
gzE7dNKGimNYGulihGG8soXpfwPgpQbRkRKxMo5J31EFSpLdXLIDP2eC1VwFXYiC
iLEdKt/UsS6Hw4HNga9ODhuec/HjDWAHedI7vahAhUgm8SSAJMDyui8IovWd71Kp
V3vdYOMhwgHar6od4RaWl+K+5bFJEeb5B5qsbeG8L+TRw4LwBR6ojpT7GE1zGMwy
hW8eXkBFkFpM1eHLWLFN4guezuIkOwtoTMUHQCD/dUaIKk0F4af5TPhu6sRAakc/
nvX5Y5aGFgC/nKRDgdKq7KjS+Kv4Z7Ww3Tmxpur5E3UQhf8M4ceMwz72liywP4TW
Yl7eKTsc3QfTR4ljhl5RGhN2X6SeD1qy28408NpLOc7Gom78XX2x95UB/TbFRz3y
Cimg6A/qZDUvKP/4uTXOuCKdLL/l//dRp3U2h8grwYOrM9pyn3TgJ5Xk+4Ghle8Y
k06NlJUCVKwNqPQKCPP86Kb/l5gWtHQZ8QltAkZqD8xvgyfzgPib1cGWgouC1FRb
F/YHqZBDTdPOyczjAk5vNdLPCC2Drg5s+MlVMRSIU82wnr9bu2/CqcwstKn+G7+6
DtgZlvakrU8rZQAZ1IbkBERq3evQS0lvxZ6JvkZz8Qmhi6LdvLyzK4+dsb3GcQDY
Zv8UleUVp+5PVlvz4ckrJd3Fs/WNn57YMKPAe7D44FQwio1N6azf7t+yOXVV+CBi
XQmCQ8qXxlr+VyfwgfGF0uvQ5JC6RADoHcNugTyb0oJZhpaOHU/YHlNGJPHuXNPn
AbI1LGzaYko+L+cY5EF0TmizMODzTqDBuocTyOTlrX5seEwM2qKT7VtmpRPyWnx7
yOT5ndqrG0qDobjDfEUDd6QgTgnMJUT2coMdswxzX9D/YHiSziHsv4IpFudhEASH
fHk99ckBfDEHS0/3w0yvZpFN5+yIS3Q1a3tWHM5z1F488YRPcTNNhFQWG665vizA
/5x0EIdvamBQoV5RcXQUU0HKSzxJcakrPmRM35w/FS3tDZ36QG4pyxXAD4hOzoTD
jFIE6PU7Jwix++v2dTh6ZhhliVQBTEG5yIFNNdjrMMcfuRLtmYaitX0xmO/AG7mk
WttQN/G8cv6Jlgmspyh+djGIr2BY5036rhEHP5JEY/iO4/fLIt6wXGrcExBc4Tip
CUasXiT6yKSP/EoKeGADxeChkLzkaLgxFwOrklhuHqIcIusFLX1bQsWfCHzRC5oM
fs5tf4BTYigclBTJMTXZ21HGB9o9nILUSf6y77zWvgDEaZFbEhaTIsr8Ic2TXcWs
Ymb5ao6mGU6YRREIKiMrY7r/RFj7Y+Bdmiuq10wknA0xFZieFX7ljhuWbfH2IcMK
/XAA6bvStB8femC1gsVAhJCgPOQFMAIq3ahQzDOSj8AsL8hPgu6RAWFApmQG1RVK
71kZi6zP24Be6uOPbfzkZrB4t84S4QDxlwtjYDLDwSLFOegJAX8AExKPJDm90j8x
Z+CWKBAONcrO7lv1nXNlYmo9P2czedTGhrcwmpqVRTkxevly0Qw8Sx942MteG7EO
VZVTDjH+J/Xe2tZurLo1JdUe5QREkkIzoOMX7fm52JDgR3umS2gKDEtvqo2mcszX
1UhKYv0M1bTBSFzRpsn6u0DlQaJKE56yKmzCMQUzBGp8eo10W5FGliawSIZtmXQD
7iSNv4nNHf83+T9mzFp7Fi8SSXDJg5OBdy1JGIv1x2DOHeaJwygPIeWd9VbN6fcM
Kng4iNPINGGhVCv5eYHaRpc0IwFl5brxGn+tnEHCapcRBZKVl3Rugf9zqeZchA+T
N9syduR5UwkmbUC/7a44sF8gYQ4MJhKAgdhoZA3lvzNIjTLNS+HjcGDV3GP9AcEd
BTi7EYYPlb5JetDR5XXIPqvjRPkI+me+X8JVjbFv5cA+H+tI7VtJgGSfQTKUe9V3
7LCYp7Vsn5iia6gBUxOsrMScapm0X4POrEcoYhFRYrNpVuCtkzDzgxup39Smq28R
OT1VRTbs+K5GchAhAYloA8T6S6tBI59yhu5KwSpGD0Gge9K3vb+v/2PSepqrE+Xe
rzoBevwdTiPGmkQf3shdb7gWKM3zAQtYZ+uLvTr1iyXCL4GWJmlSaZ/mdRXuIOR1
JiexgkdHMhMAn3+LNRVmr/oFn3iZJvgQt9kbYHVjYt793S/lpTopZG4M71R5pkG3
y8FtKc8bl72+y+sUl5IgKum7bDixdXHv4eQaUqfd344k0SQYrIikFkYrdmsHX0OU
SuBRHnFBg2U4kLQmiwicrNyGSJ2fWL//1s7y/jM3FEnD9aY5R2qlqvjA8hv+n2f5
sRVFHk0D1RhITC3Hu3X/NwkQIVkK0AwD8nNPE/ej9wI5ZGvj0SI109aS/cclTcX3
qICLSev7vrtOKQDxZwuPNDnRDUnzh1C8++5oNrC6ortIn9daBqSlit6TCAeKMh8o
qHfdlsTS6yHkuuOheLeP9cYZjjAg58+03caYu+V/vNxM+9lelor7sYBdfreDoqO5
FxvamGocUWaeMRsxEJ5cgRa89nD8CQsubP9BZ/dkH92Svy3uZPSgLpX8vjRtb1UJ
lyFIbFf+vzBKAKsDAW5cuivELe9hidFy+bPbUttorwt160RvEVCpEfsnJsFbNh+y
YDeOjEU+SS/angdAAo5NXvGKq/5Ajll8HSn0xex5+ohhb9VK/EN92Qmi8jl77F4R
GkATEhhhv1CCtgYconoNhv34uiqvYsRVfJWH5QdeROn95aQD5BcdUDZ+lGSYnQYw
lA8qdIIXWhbZZXIdAFZjOITd4kPxXyU2Tg51svLRlO+G5lrbkTfJOtP+uVWEBRSm
5Us7g1hMu1hgMKWAv4BCzPbDy0OV0evbYp9hPh1UtmTGWGrFFEewkkrA8Mp3AG9W
J5DHVOW1nrAqeiANgebvSsulA/2/Dj9sjPRqPihhzqvy3LXZBD82+uDb5o7IX2Jg
unMZ9Z3aVFce0OkEC6lgmgjd2xi8fN/M+jcrSy0/Dn256lfKR2QL+P8+FCL2sYMP
bGdv8ZVnz8Vt0XwjMjq6yCzC/jk4UJhd484KNpLs04HwXwgLSluV/XpDfFgota8M
XnPi9njBWp1e98bfMa7oeBgr8YVtkMKTvPtEL9bKu0OKcgHJTeVJv1+siDzqbdze
f+2avlGNCJuacv/lSGbx0bLIq7m9n5OuLglf6/RdRCQPWk4FYKpSCrjB4f0SuDOq
hq0voVhE2EerblZzi0oBbbX83e9hldw+2ZNblSOziBBGH0MtHFD9mAZmdLTidZIg
cVKlBxDMi5bqcAYaOpkslSr6QcZiJc3LiYJp8vapObwnnk4rwU0PN/Rd43ezGlkY
LCMATN8Gw62A7fzPpEx05RYPA3Ihlw6y/8xdSwNlqy0tmYGKwVsGN5o/KceSnJp+
PvFmE6b7JYpoPU0qEY/ob/qeKjJsg2G6r2biulkZBG3MySFYuYcu//GnssX9CXNp
JSMGHNtSDdm6g67mMzxnBuecmokl0jQq9yY94sw+E+dW41f46uJZjqGLZCWG+Ssu
TmD3lUTBv8pUKsffv14NdCY3gsTt7hfvjliJr+Wqk1Kw16egep7sB70se04pIR7/
HxhJDYROlVsXOVG57jMgfh3rmVg54u9HAEfLMs+Csi6yrotDar0YQtwxMj0kiTeh
MMeePs8/YtnxZy+m1k8ucSRGriZvZmsX7pcUkZLDYdksf9A+UkdXATaE+RdbNXoi
7xtWm6j4I2yMgl5uSLdurCWjvaKDSAcu7C+CFBga18Mpi7Hefu4NvVdZ79cD6LWm
wHECHT25oJTqBxzXeA4owDhuV5+btA964gadwde4Edg8fH6N24dau/2SYY7xcSer
OJCbq+B+PsYU5+MQh1OXGBCo7VfT+s+cLP5LtMVz4sHVDXb82s6EAUkDJ/+A/tp5
eXNz12nLMqXShcvI1YrPwSLqdBiyOOJzzs6Z5XJFXQwK4oWsoD9hETq8/Yq2vsFj
e7VZZ/xoexOKavP1KmVU/1S8iiZ83FgEV/11clWhBHiBDdDO8vDqVw6roLc/++Xc
XB6xQYv/nLuxkdLEQC80eA/FLNOJa/saIYmi1ulJJzTBNRZvhGWrBr6rcnIp1JIB
g3ofalBY0St5/BfCnQjro7tW3T9Q03HEvgYEHoA5lXVezTKef1ebH6DnKd/7rLqS
K6D49oE8CmtdOxFJSlfkui3zYcxeYMBYxuJU2LA0icI8H+9PalaY48CXUSGkFQXG
vXnXSWkB4Bqdu1hRZPbfE7iDQpn38kaiTI5EoXikf36gQiiNxEqoLi7E0vda8sEz
tQOIn+xWk0Uwb5Jp5rtjmMRWceLvTNMQNsueUjcFy6kdIUSVtImhClH99WMfNmYM
TkGN3cqlkRlRu0MCeJWNWd0tO2wLz8UxAWcZ8DnqsfZ83DqDg+0OtkqBeaGoqG44
8qnZsN5QnIj5lKB906kKkv4LsmiCQrbG5DelDj8g3iOdTa6h76bA3bF27kbtW4nM
QLSeC883JW5IZKXz2IDARbKigwhlk9/YtDDJq1rWTzjxly6WxUJQJFeksrymBhxE
zZ4Ax9vDV7WzzHSXl4wz+zyvNnsAYv1KKrcPBSWzjmrkoHW+tOI9wHabLyWUcK0a
qnI9AsjN9MsAOvZNqYnIpzPa71hGog6gtQ1mV7PRh9ofE5LEKdxDCz7tnSubFK3f
gcMDqPSdveGCBeYwBLfJlEIwaFae5YZRzsmUS/why9G2nGlx4EKfXCfnNVwNSOFF
4dwGMBBebGSNdp7W3Nc2308Ov+3ox4rVgg3xqmP/2i0kWl8fZqEXsfz3+NWs9HaE
wvAd59/RJ+Tsm16STv0YwL9veRX7HB97imYPAJm4LyIzIpFph2E6EKB2lKs+VLP7
ASBJGwq2jyvJjH2504Stim2V/zh/FIYTIzDbkjEo8C/JkrkQ4exKiU3z/OjJAEuQ
OW934MRlcJqinWu2ioyx3UfQPvvXDhm2+l2s+TAVmRs6eQe6hZd/yVfQBpP855d1
myjn6v05syG5iZsyrv1hxt8dzygYRiPm6z/tCSNbDflCjeSaCLRdg4BzYVCwBUde
fo191QwV+8nenaoNBiwRvBDMlPoCX1boiSmm2moGaRDqfzBJoxhOY2L3f1YJqNJC
wYOyubAPZCYt/oEavvY9ykPwpnNlayY2zr1nJDFNWu8LMX7iG+AnazVIz8xcRIjs
W1e9kKh8n9wu0C68kWedKqNblZYwsErKrKbOM/yMggIilEBlgBYAEdD9SpmUnWC+
CT3fNs09e98Hw17iaDpRpsIBPmRTh2FIhpg6cRaE7SCTR+qQL3c4eTLPQNMufpKK
nQCfrQTcvLwz/PBfg6NtE3msOg+pRhNyBpH1thX01sfMsUNJQMn/8qYtUJhQ8b48
o6QhONL7x4lAz3IfK/O0Ca8J2xzFzL3E2hQqAcJ2Bb777jIx+u4ZSwSC0A6PDkTC
O8wvbKEpFIs2zQGeA0Iuw7y4X7mgkIUsN2uqJPv3ROqHy6FHGJls7GiFvb56gIrC
oyaJmunSSyWeN07zuvFIVAURtMDfoGtNPf7aKHXwUDBHcHtce5zqKDI3D+C15w2g
G4fELTnTsOMrbt9FvkjHD4SJqV5NdbCwk/MgOgLP36zhGgkLN9zF29B+iDLJsAjg
X/ZRUpGdHcXvZBJbXnZN5PvnILoGEeJYbESnBiG7a/ehnUTBfmBqQdskJopNnoG3
MRpbnYSGl+PX0VhQgVQ09/N7ixG/34lcQUMOzTpaTObDOx8Gv6VKD5sKpSXG9oUZ
NCidjl2r7kNmXc4E1tLVBZceKC8GgCYMLk2hhgkBmstPOilzGNNIFROTMgCX9Mch
Xkmc7nG/aDwatY8jElmCVDj0jAzP0JYa8HBJfsLSideyrLnilGnMWRPYXh3WJd6U
uh6PSfJFBhZq9ru0RJMyhi7grf1Gwwf34XsaKV/bd1LvwBnxD9kUK8QHg6lcSaMd
dWXm+40HBp6963yl4NWJyv/L/b1BLlDsK3CKDZ/NimcA+bgqPvooHa4AVMRnwLNn
s8q8wxXfP7zwRsKjsuBkT5ScvRHom26IYavqwZuZKuJKX7Z40JeEUngtgmky9EID
INTEIXnnatLJRfbHZDRgegNiGp7WY0g7wqzjt6NKy5pv1/CaPMUbM+UOPZRODmVa
pWqVt2xV22QhUm8vbC27kj4c/PERPKx727vcWixSVE3HpKl8FXNifilBtY6BZnt/
jSrpA9MbHVIIzLCF65FI5y5Isxw2UB688FzRNTJzAuwefHUhjFbkXZmCdM93SVL5
0UxGmG/KMP5ZN5rTuBtVs27dhPbJ6i4QAtTQZEcs9HYJfeYiwhN4xqxs//VAFQtC
CuMWWc5E5F+1LD8fqHbQeLpahNZ5j3oNck/yA9nT2mpf/ZwxYhQWJv45oFDmcmxT
Gf31DVvweqI2UCANhaqoOvpfcwOWqx/nPija0XarKZAQZKTorOSO12i1Po4p3wCB
O6YcWlcS6QOV2e8oF4le2YSjxQ6WEMhiQfn5GS06uyy7rOYc1MFTCkTl3HNbe8mE
qiuaEuRKqu0RbC7WlK9jBBJAaJXGQp21UeX1FbKbm1W0NFhZbrTacQXA6yd+u0Jd
cejkqlm0R+825T+ZzV+47Sb8fLaOCzLQTxIcY4KjyBeYJn47BR06CBqMXh0X93hP
YgtcI8ftkeLbVvrY+b3KVHJnllOzOSjyqlN6XnvugKXGRm8fo7Bnuo1XWw6OnlXi
o2kt5YVY4iSjqtDzpGxNnwSxKHkNEKT2v3eIa0D6XifktHt9XZo0KlymPideDlDr
o1ib3+rgtaojnAjKNzkV5NjvXpRQFWTGCCiNr3qIGtszMns9zy8eKEV61R+1yX0g
DjUewYLLDXW4xzqsRV+Kuv43Bi4f/5ue/zq4w/8noyQ+vApGv0Yu9ZDjXJ+BEM81
0njuZ2hXY9kzh1ul/ekjEvZzp+UafjaRsDZhMl8+k7Kz8ROExyk5HQ4kUaGK5NQe
c+lpzMXyBn86KogPLoa34GaiMCvLdjaiPvML5dhobF0GXd4/m3fxXMkn3BregzhS
cwsxaH/+zGrIlCx6KechO9WwUml5NtDPOlLgzTlmje+5NTnZtCm/dxhqdhDA5ZuG
ZzJy2b91ZAvU0FsNwnzG3dbKBdSgBV31NZPhehZlIabsWfJvrncoGrsUd1ojFskU
XKOd6OW7A1n742Uo/zvfBHZV8ex0OoZyKC7cz3NnYGgZGh9ySd0y5WrTlL/NbH0U
cweCaZ+omHhO0pLhSYgyg0HOvU/Y9s6AnTsY146TL0kVE1w5S9cMpdFwXZeo9ztf
66/jW78kqzTOfqtK/OhYzhaXRuf9dOs2gd2KvAldryB6Xua8BNxh5Lizh/NIL7NC
+ymLdWUJRoCNbMbfa65yQwf/1CiQ4RnCOGMkJ/QyinmSOQcLA0a3J8MvgJkU8h5j
nFkZUdwape8+jElD+iV5eG8X7QKo31RAIV2Wbvon8PKrRzVDLMHUXuebgP0SzRBB
QAMqchcbM/M0A9Ik7f6C2NA4xbOBPPniKC1iuFVcBUtP32yt+u1xt1SGAei7aPT9
1HKeY4zAlAn5s9PD6JFqg1u3cUg1CnOFHlXfWIkSF745O/CqHH/PNcKObZvYatHQ
zQ7op6cXzAwGxStJLFfTfTJfEXSCJXpV+FxzRDlN2Z8Rdmz8VhunoJVvF16BhCEh
AMoYaaBibbEdSxwzdT0wedGNcqNmLPYS/4/KJZcXiV3yKXj86KxBM/1KTo1GvJr1
mpIHsQvq52Ec+bQbO1c4qZiBBsPfWsEz2u15o2TEQMAOpcWfBFcuHEj0A4L6fbfD
qcgxxp3pmK5155tnLT+JH1MiXMeqgz2Zaeq4M4eJCWrPeaCFUtA81hjpyeHfNi5a
eqbDaCAMMBTbSDmOswohmdx4vCzqUBkMJRjiTnNfRCmO8vhKQHuNdYWUWqwvrCvQ
M+PTq7MbgQpuXInzbBjGiFuiCfNRjlD/d02LO3VAlgk7/PnSEQnvGTL1VNrtjdQn
ZQDgghYdqlrai3IayK18B3N+PvdQ0vgEagGL6yqtbo+kt1foqi2dOdcU3oQ4cT+M
GosdcS3EqyCgjf01Hy5AAT65hEoKG3081M+cv7wLaYFchuZAqs2sYy3gN8Su9EDh
YcGljEl6LHz8lKIzkviO/k6wVwTb2f7AxTl3TN++vo8ve68al8vLmNI63YkaZCqS
MBoJuxuL3e0Lq6mjwj3X/Zqc5gH3e7M74NFsq2+zYZWmJkswciB90QnPiZrAjTig
L+s+H2pV0sDSKH/+PnMXo4BjTexwvqgHY/OOx/PdX8XmIpzw81GX0q7ojZR0EZsW
7QDn4XYuoL1H8bCMgyZ3L7CZ3h8jKiSPkkufmt+HU8UODhV0TcqFJS5yGz3tPM+o
iKT799Wu/IRJTovMeZ2viinImDjdEaXzIgI7af9XCNKykbCQKKeLPtxOviciFmNX
6V0lheMx9xWrl7TzX3KpaXp1QQWXZFRmRcqPWLZmUt+hEcZ166yirv3HNESDhe88
+6y1t+w1a1ifcn3InOoM4ST79V8/ht7yySmuPqO9hFKXfhWNw1Y0B2EX7mtHeIGV
ihegYzzF1YF0XXgfwpl5o8RYxUiLWQd5sHUrtRlO3WWAVN4q+kg0PFMHXOXfS1DG
68VBndJCRjESe1w5lYenWg2hpqHnxVwDENNJhC5m4e/o5U2ZglQ3Y7qLfzFpi1Bc
6v3OgCk4+HAw9vnTLUIBjH6Q0rzrYoGfmG8/tOdoAcbwksLaOe2AOUj6jpZlxDuc
xtCxQUX/3AJF56J3UnGJZrKRkPiYb+wb9eayDI2JLOlLCek+ajA47nLy0UZeFZTT
ipKy1EJf+emRfXeuweDYyiAVuD/whBgUnC5EVLsfdlU+hiwX8N+eyRi2Bj+NrVZL
g75ZZwixBaFgoyQdR9XOu7b7Wo7228sQkm/G9Oip0kBzzUd3jsROmwVk2MvyO7yr
7XGfFFjSm+cA7WLPI5XXHN63+GMOgUytpNmPgHD69tggFsrKXob1Xbz3npFGk7R6
70YgzMqoF61JYNALrQmGx8Xq0CIM8J482g0X2B0DD99Dck6AepeuT3qnendlByOe
9rbNQ5udy+rpbIxy/w9vXO19O/H1NyM7872pYUfD3VhLyYVq6czkaofNvgr2Yhgt
LLLpcMMLQRV/wl6N1HG/lxT2GRLIQz16dN9V7RFePYH4eSydZVm39PxKImc2aX5Z
3Nkv/LOGku4HsC/+wym7hQLkOYdYKXW0VwGHQSAfnfxXElYbGpPJmiRqxO4iF/Pj
L6uaml1UUc0weuqtnyn7amIjn8+mgGYsEeuD1kyAwDH6SKzoNlSLrBYzyTurKF8P
pse9/+BATxszm3hHTKk6b6+1DCYOSavFvY+XnBM1nSaWMmoqRTkM2TQ5lrI/5tNt
S37/0JUzY2z+EEsZjyw/iq6i/UojrcCkYekaW91+MJtGSNSmRlAr/I02dumuP20L
SPvcoIca3RNi7BeTw7YA/f5L5/uW2iN9NIm840OrWsndsfXM7zJoM7eOEHgIxZTG
TSlP1LwbuHUqmsrFrZI5rjT3g3kL9h/elSdO8kLaGe7O95pfVNpNm6Q2ilTRbnvw
jaqqJajgSe8/fvaOkAj0JVZFxuN2sKfELC9o4IaQHLc1ZucXAPKvA/jhKF/TSx4P
yrwHr9KVR7Asx+FGIGn0BECBHcV//ADu7+xe/SHxIGyMFocz0Fc8NhuK6CF+O+Vk
pT+mPp5NJujasbx9K5nzHst5vxRA/biWtx6Bw5x9cwmL5ztE3/30YFyV6ttm32Ya
sx2KTn7mCmUIfeiEpQRQa0JDmST4ddq6F761z2lke8zWEEeiqlWFujzVGNpTlWRA
wPLgA7mVXIjVshqscTiMuwfvQguVHXm6UZmxSknQRrrcLavgfcRn7SP4Be3jm/VG
1TajFtUbhwf508jFq/sQT/KGm0Tn+j9wFZyFBvB4weJKFzQg1LtyumZCLTCP0Ged
tvpz5a1BvBRuPWkNfzqOJhprguByLvG7HYA3kxhlqHfdeEQMSV/6kiHdA0bXUdDt
PnwDs8BKgdIitwFA3Fh4GQ/6FsW+iKiG0aJDMMPlk+a4X8YFFbWyH64YvbiWo4JS
RlMc/VRzuix/IwpqM9tihv3nznff2c5kLG7Y0df8v6zLhuX5b7eelujDWBWAnKPq
QkEp0o6TpcvYty+UCt73Hve8YM5RlQJ1EzCP5Oiyy0f/zOWhBPBK1fYqkHQRUOFX
nkUnG7pDkYIHp9CbNAtE4h8/CzT6QdKE3jXItVO9GllTNKCF47e2SCkOAe2XpSf5
2+J6y1TrvaOqYBoxfgqkrxEwdtDdW3WrCPxgoclnERD/BVaA/6EFKjYcIA+UiAdb
BTiqS5ZGn2/86n4Ue4KbAvOX8uJ/OyU+8Ad7qSzALIAyuX5ntBi68IM/6Y+t1TFB
Y1wXeyLPGXcbyludYuvzpMaodYyyKRA+qzMWu4kboNeYWJZd0GGx81MXwIF49aW3
Siyk5fKebh4bz956ek3twbZeAA8WadLkDUrdoxMW8JrBBTE2VvwLR1fhk5KQbjoH
mOboGGoi0L1N8u++jFBk0aNXMUb3RqGUgy4BM9lazSQUK5TkxJi3lHaNrAmF3EFa
XCBt8HWrNzVNHPgrfaqb3YPFP+IhzwXuRl2PYnVg4dIoHsTQ8oDWGctlOE3OwAvl
meD9Hgo9BWeCN8f8RiEqkHy5GV04gHNhEm3jo6OdPg5wONgvFyGz85ShRjRM0XgZ
EVuC1WkPZMbI5nGTNKvBiw3zEs64Pbb1LgTBSywmFcc9ylOuP3y7oAy6m4EdArUv
YtBU7sv5b7ZjXBooZBP0CC2CdKJHcx4knpnAP1V8YUvtFG6NpPgYw3/WmZmYJ3z8
34QCnOw2h4hp+nTg7dOnSF4eTcmfUt8BrMukIqGNuMRzw/ADtEMo6jpoAnVGBb6S
rpQnFgd/5zZdWZbZQbNJyagHdLQ6YoZixQrk6LKnDGBGVVSthH/YAH8daJpbm6fO
TdzO2ba/UtWi7CJdkxCUEmA4G3oO9G37MkgbHnDLRsm7x0viiYBh/nh46YPSZyHv
1zxnG+gBrjw5TyYBZZywgh21N36Skif4rdDlJy6IvDApw4WCwQ9JyG5Tg6b4gPBM
G2TfXYJcGPwL6zDqPUu4vUZNh3l5El4XKGSAbwYG7Nkur99MlWptlBTT+DrWzXBk
6Rn4tox7T8ltn2UzZF62n6I62uQOYJBwYmbW7kD0tXzWT+qvwOFytdaB5PfsoHaY
bcRKzYySPCb3x+4hY0LhOrf8XvT4BqDBXANQEa5saCWB+juj4jJjTgO3u+1ExBJC
EZKiZP62eRewIii2KLIEpjjc3MhF++GuwMsUvbTceIv6uRSd8jFkF5h2JiaqvVLH
wXfYwtATCgFFNlCn2Oyz0yoR4/Z0tOm6BCTX4Qkjjbg88EqxdC3DMqXV+WVRDKG8
xUnLady/+rYIGb1gdYym7gogAU5Chpv4GPeOEOINqovFiwv6mTn2KRpdSmnn+woc
/6mg5ZDaaZY/Vltys2I0TAoXtdmhqMEUNHF53vgFUnXMDizZARn8qtA2g0kGJpVN
ywzzMHXWlPTr9UGz0RVT0dDAzQkkw4xAiQLwgxDsobukweB35iw87rkN43bmRq3K
LjEINDAFmtf5XGWGwzen+srtg7JHR81BdVKWBsEdYuuqNjm9ae3K0bXCmyD1/oJD
dg0pXu7k/Hg3b9KMhjyzuCov6HZGFsGW3jM/0XxUnjYPJAusZt25lbFRXsc3LNYW
9rxzxD4r6ugHp6V5psH5sWoax6gPwM9xExd0+7p8CTc4k5H/gCNeLZ86SmVEF2F4
fVQ7Tq63CLIur71+Ha2wno+I/fPxBgbRok3aCYSRCLV5g5kId+7GcLEVjLS5iDvR
mOI6PbeZDdk2XlsP3nSD8+GXpJ4lfalEslXqWfMnbJ5dWqRcwJiRFsWHre8dgnJO
87QVL9MDpgUxK8w2i7jzxQ6qT7M/Dp1zL0VEUFqA5+eLkU+BESfWgg4OhZ+UgTg5
aM4Y/nR8PMoacmkYK74zzTh7UJQyZcg3cTsRWqIOgmg0wakfOgH6wng4lvsh1OnH
p26i1XBkktnS091+coMitCPq3FiaDAaA38K56uLqoBcCY+TXowNGRdkwoN+qA6vZ
1JwB25dOhdzXptITOOO6An/CfqyMXQ+ulJWYgxVgbITAdOXLGIjJg0ef9Z/O5qQ4
Z+iGj0gREY0pBraD4jAtKRQvIlQxapKhAFAmXuNAHsbuRd0Aw9QvVPDISJuSuyfr
1odWzSTq5PabNBt10DmpkEVbmPWu6apd/bU0DmlrJelbCneq5+878YTGc8ZyXatW
MKNagynkKe0shlJD7JTI8tT6hr+jpXKwnza3PxkjFy7DdWg+Snv3oDIv0L0lkISZ
c9QVkIMPLTbOPTzGOAq1ttR/yWMBmP0zGCcqAqSxnyb+vBl1WWvyCQezFzAk4Yy2
BIHHC/TULTXDW2QzGTFfCk8AytNDZDUXteW53y5kjqji0r2ZPlxaBT9OBuUfXGdY
EBJTZ8vmHG8DYmSnrIUxyAOUuSQsUocio5H1txGfIteGOxI37n0k11AM2TPc3PtA
zfZyw/rEHaCaut1An1yhzwwUYUQKtBer8OXhDCZ9VLUlnrhRmVk/EwvbPFZzXp/N
3Ui72ucJhhBD/i2V/UV0V7wMJ7peOSGdB70yTVEmOi7hcsE0axRhFEpJwxQkpxWV
1701jEXjRSyq6BgJyA4YqoL4pGNfvOOHjPy3VeIkBqRJz/bMv9P9pPULfOVkvrMP
QR1nd6oDzJVuCobA93VDjtLwtIWkmatbshtkfJp7zS1yv+87DQRSs/HG1FUvFiow
jpBtCRyVjEr4qiAsWChO9ZCsmq/Ve0ftHVO26wQ0Zo4xNEdwajxw13fid6QUFhAZ
bbmPLmAcXjIkd/stBBoMvvZJGlxy0WNB6vh+g5DYWquY27BmgpfbC1x1WMbbjpP/
bo9acDMvxPQZfU1ajpxaJvuYibXTqshqNlIEmBUC1FXX+yku1swG7C4dABg3GvjL
BM+0tmVdZn9lnnc2DmCazhMkSUzHQJeGlXVCCWBgApAIwTmFnNG6boSQ7Igfxtyt
AWebPgzCxDATfyLddb+FjhPOuhgk7ybRNxwBaTk/QJbM2Gm+sgeXjaIkHschq2/k
lCZDZL8Lf4dfLFr4QSGCEvJ1X0KFdaE5bqHsWzpORtGTf9PAqN7KbsJXXCtVmDWc
J+zVqOeME1zDVP4ReETRtT21lMT+iL75LG0kp8RwI2KIpeVgUPEwADw8I/qL6/JE
riFkwemHFz4tUmRPGJzP+ruJxRL1fkVP6ZOlF5+HTzLXID/dHApCb5xTP+ueRrwZ
5XYohU66JAA8BIPNP1DEgZ0KqdVOjeS2g+FLZ0lFK+amIOIn/t9YMg96BL/LFM3e
nGxjyJSDnLktG3+GiTeZgWqV8SHZjTY2DIkXX8Q9o+3PfCZQYa2YhT0zoyKYzBFd
IFww68bewUWZv7XLx9LhZLb/Z6GlSrS5URFJglvIVqNZnnZoMIOUz95KAHNjmPvp
zX12c6CM06l6AEa/7UWardbvzuLK8vuVDGc1/W4mkIY/g/BgI3MQusrnNCZjD8Y7
SMKrIF1dS/hGh/GrwJAET4nVyDcdoWCk0F8neSHLYUKqtVPU7LNJtR2trIOcB/J9
yi5AcMto2+3gBlKI0v1jsR+VkPeOlDuu9C6pgRTFeP1pgEPdIkORVu0nOOlDrj3w
s0KoLjFjiGEbiTnx+oEdkGkLykRjMS2LyzYAI5YuqqzE4VdBUxm72vB9kcC6nkWe
m/pGFdeWKuSwfE+lyKi4+FDhbHolXnCJYnqhmp5CB7VrhQYWYW5QAHCq2D5Cn27/
BgfhBIofU3QNTVGPmE/5jx41pBbBj52HC3fo6H6HlblguUeelNZh69Jj4we2LlI1
gXN/HxbgrP6KDtezOyRS8Ukb5cQLcNAcuG7vE5lo0NwnF7ADN+t326YEtcWNQNBv
PZWXFjvNulHa2/iyK9QkSSvXuARFaRyP4KHoCXvBLhACkQSZcGyrv0p5Z/t9xSnq
t+sQLFFN7NUGlQKSZPMccYv0JjeiqOns6KcaYTXeWtlXZsT+iQ0+yR+Ne08V/Rkq
dkQ37L9SsC12Ubb9p5WcV+zoPomp5wL5rcIzFunB4UbfpUnL+zxs8aIzSVCJby3/
6xpgt7DtndiC/FEhhWLCYqLj0kRajd2+ibfYK/YhzCdqoeXVmWfyKjaSliX/WFVj
+nsUEfNc4pujtDg89aVUdbjf+rlgEAjnNa5lgCoXXlZatCzznpuovH1XnYk/DdCu
TTpNiLbZA+pWV0g4CLnavSgSEw9scdNjGnW8P4mfWkLLobzR7r2oCoQUr9WRE1sT
mK9X0AJ4IAXj5KyBaW1jlQn7yOAD9eZty03agpbTycFa/q48vFKnv+0fsiroeneM
sZXdDDNqCIN/Ausxmmg88WEgUTXbYaA7aVNPOQgzYNSMvB5Xng/5atz/1S/h85rx
8RC1SX3liRxJXVp5GKut0ZzngCPmPz6N6Yc+W5AsGfFD5aHGBR1Z3yr1kh1Q2eIq
/+nCLZnchTbTNzr9K3t2VYYtI6G6dTU5cuWUUopjIZNDFyBBOTVYH1hhVqu3x06r
GJk5H15RENRZt+qMWTK7kse9KZ0eOHAwWTWZdyArcjyMlqA5uPNmXf7UPcWvLU+b
X2t/y5xlJodaAKvDzm/GvpdIPhp64WYEstlpsk/a0Gm+EmKOXhyqN8GkxIc9RvPZ
AmreKC7JXA3atU6Z/8rqbiSh7X9QyrSEtaH4z4+mW3fvAE0MfHeQoW0lllmvSVdV
2m3LQULK2zU83k7+ZY6ec4CMKBOpMYK0wnmlPHe/V0z+SpudWfj7X78fpEfqalcq
/SMiNXIKLn4028D4N4UKYUv6CjnvI6g0G9t0LT3Th9fA2FcSIE8JELF6kOGTi1TA
cHlRJMYLMfZ/OOBkww8BDzNu8nBn4IYR6HmGPXnsDqXokXek9e7mF9iw5J1xgadW
w63MY31uh54z7u4bF4nAQIzM/va5APbiGzpbSWrV87s785I3m1hYhh8S/DjICy3Y
AKf7OICGah2JmsxpsLMlB7CXQGPXS5bJYnHMtgi3Eyfgb7H8q+ceyUwDF8/4a53X
GZT1cuhFKHPpZQxbGwcJrrgys5Pqgwz9bV4w1/x/3ne1GX9qi34KBVIY8miOCHu2
gfl69He5wTnuTsuig4On4am8dirM8Ip4aAsVaFaz8emQFsF75Kdyf4JsG/iKJi/c
v2cAPbF4ZGAMVZqSyVoZy6alLEt2+Pa37Y9sGF69b8k7Sswsjftxoe7ngygtNeaQ
pmiVhutb3T4iR9gS9POH8Y+pOxlmIMq4ceBDlIVouof5qK1VvRo2xBTw8bh007+j
ndLT/TTADPrEM14XkWK1GqV123ibO+gUcinXFQLHJtRbVj1zn0Ww3lWM6YcjTHyX
Bx4o0FL5l/hzpLe2TSSB09ct6S2VfBWVsg42leNFTf+6+NsILObKvqIgSwyjOC3f
5g9y2NNmvazoTUV1WdICK11uCl3PxOQrVUFOHLSwZx9iV+YT44p9XH2qdpPg6nFJ
dEMWmXocFWQXeITbY4q2a8h5JDKGN8jGEOAXzI6cXX6zP9OcSvL/gBBqfNRs+wGm
sPNDVgGAQofhvHGwqk6wj33bGOLFL1OLF9rZsroG3GHiK+03qx7JAN4pPn4UD07c
AGUjMtxXAEsogKEB3pLxtEBbikR92CYyZPNukNiHH6Flw7B/7Drsd68apmc7pqpo
AWGUEWXXQ+skFVhbHMQnUhZBAGgasPTU84pXKE/Xd4xX/6x10emy0EObS+31iC66
9z0SpxqPMQNnYMkAT+/ZcBhjS0Pf3s3KMEm0QexEgqX9cpS5rKMOVv5zu8By6e5+
Ufr3gFpQ43/U+NP/uce+xzQDbSOdqrRQEqtqvWx5lEGeN+3Smz3giBJYwwTkGzvY
xlTKBY1MAMsc9XowRWwylHqbMF9sSrdMScwEs7QbV2x2lx3YF7IuoTD8kTzfEWSF
N0ro9iLqe96QiHFso/MlL6xm34TqzG/iLilxv279FnznG/yko2fiDhxBqhKNNYFW
bqPvONdXxRRBZ7yRDyt+B5C7BL8G2RwovXHo7pghhw5KAGyuwEotMfhk/ZcLGPPS
1AVGQc/xdESGrM4YKhD0R7J8WmSvQWNc/8R9ZLP6/KVp9fJ4NWsHf0eG4mRjVsG9
FeQg9IXG7Z7BETqMkqFSbkeVU88hBF7GlqlVDOY6yF+qmF9fuxxhNyOcHmSg2/LO
GuRw9SpqVyaXK0i5yqCZx2EBhSwc1jYwl6B56BHs0ixoMFmWn7AXrHR/xGH3nRdj
3lTYu8lJW0gaq9W5yrIAD9qSXWEuqgu65u5ii/3q9YLQ0ufkJppxJHlziMIymsAG
CQYrAExn3iQFGkzSp85f1ep0RNaLf7HGnEUVhS78AKXMWB1pQPUYmoRCS7ZdWiut
SSA7M33M9uvNpU4XCUhwwblM60+xlF0Cv8qYYkUuJFRo8mzf914Dy4iNwpcIDu9C
GGGp6Rzl4oZ3l4k9189BCI28QGTWZhWwuEOg+xRnPeg9bKiPDhzDTDaRx8SPnc8u
/mCbW71LA3ICMduS89zm+v09Uw1u5Rh8DtAVa333BFkqvRjo0dae+MdSCvGPMFt6
UgNZMzm9HYWVgo3ebGtYh3/zyyKcX7du0oGIqPxMo6+yGd2RSbyYNzCrbBH/xKh/
EZbPUDefCuQiz68/u+6l2sETHIgwhgM+USmf7YwPl4sxNx35BaY0n//ZP8kDiGxA
JIZvU82od4vipuf7b9UHMH9o7xoqKy5D3LpqTmukgJg7Qdk+YYR6P3nIS7yN2I60
YHwWgabRPzrs2QNWIg0lUeTVi1/iJNiOLnzygD+FGAutqT4KQNQTVhf69iRwYcOc
L0f88oVNAKHCUyPgLBPuyB5/dXQ8cGSyD8GGyglJtqhAXlmL2kRT4Xs6HAYe0Sgu
LKuvQQfEvgiBuQHW/xurG10g6IfRrKaXlL6+kQHqN40b1nG6V+HXIOQ8hk3PrYa2
WmTorjZ3jTLg5g0pBlFQX1biE1ISel7PSF58aiD9EbdZtFATfE+dVsMG5wKPa02T
8Veh45f/B/Bd+Sxi6RH+exy6gy41OltTTJa8MA0ZN1IJ+TKluKm3Ri/1zmY2LpKM
G090PL++vHA5tVSdXipQxZW/+jCULUH1lUm9T9uYofslIV5uW9jXYsfd5V8C07N0
Gnwbvcvyxto+YGraxv+dRzjQtktQ5FH5HvyFmR6cqHMJFObQ9qtCEXqa+RmUTsL/
5YBTMVfJvgEvHx4Ao1OQOcwCvb5HYl7CKl0CEdNHJfk003M8IFQtIxkr34ecMBi5
xHCbhDrZp2G7o6lBbXkCAlQJ8U+PGmC8qIcYMUlaRjpmWSOz0tYcinxhLnjhhqoj
3sIGguEzyNeramScp3NyGFD9dShZpsYK278HoPN1PYj87dYS43UGreZF0TJN9yD/
uu66j/8EDspRrFc4tu1kCftQICrOdYtShOhdpRhtgRY4OtjLC9IfjfDnD0c5nm79
knUsSIYD/b8SAHntENgIq8v4a6BM4mjTLzyY0rthFMiCoEatO158B1QSKLX35tIh
SapUAmJ6NGtR8MNG7bs3TaXE1VKOX3skjqFHQJ9LkoOt9rxQTSvxWEYuRK4lhY+8
sbGBouj0CFo06i/ylnpShSNn9CPLsBKkjqGVDx3lOJWi6HXvnGUVtaJXz4it5E9W
HPRm9ADL+PfIMN/IJh+qPlhoniKNvdJaUkNAsX3+0zWDIY9BgL2yQdFDTESZZcpa
BVDHj2Yq0adUvsdaFIrkOHdAOi4SnPCZovOj6mE8bpPPM/pWh/igcR53XHGkggUa
QSV00DIpTxmU9lD+smycs/mX9Ul3q7QYlr21ihJ2F8hdz7CZyC9SNXR6+bd2Rn4c
x9iCrTxFWKEsZM0T/oWE2NIR8hP4MtaYAROqmeNhj/bT0ZGFjKhjqi9CiBsNhm7B
FS4MAeXF3wtuKBLmSertWdUWeQIOO1LVCSDL42FW3sJk16uF77G1c/SpilYUBOl4
yLI9q26OIkum3WCep4F2k8GT/HdTYUqhTmdgC0ltTN97H+x7Wzr0cQoYbp6r0uoP
FcxEiIUG/KZzgYkxRZ1tRJ6qNK8YMGCIawDENzRUmYVAxwxk4CD5Px/dqVhB+EAi
Am0Sunwr500lPbiAqFDIoka+LVDhAEzyiMU1fXOHeQz9gH2aZVALmTp6z7MpK6+i
sGIVV3GTVP5+toVTC8K9lgp4LSiZcDjohYrPP1pNkjchKYh5/dp1z1KD8HQA4kSc
lEX27ecqmePLJTkLTWEqSG81U9GSpTbNZyTXdPdotZ/awpYzuml0GEewvp5DRhBz
wDt8EnwWStMhAAFUmicH62OVbS9+PuNkxbIPkbSjxDzKhYUHzWvjj5wKkHoQO2cq
BpO9pc5sSSjTzPjU+jxAgF1/u2JAdgxhMifSEkHkJ/IpXB4yDuv5w5x7vL6g+dhr
faOxoK/8+d7Q3rCSx24jau23kNykcJL7dcoFWeNbbNYqcdCQG08cbSgN/yNJ4xnX
Ge2ZZWAyanIgj5SZ4sR8JRmZpcor8xlXftubGN0kt0Gg0Tzkmr2wgKQkpMJvl0RU
/by8ay1UPFUs3fA91NsP2Ex0Cofx16Pzg7be20Fu3n3h8iNe0c/u0RYUpJy/oual
5Qd2dg5OVBGExgeCOlBTD3m5aaNsVf+3qElDL6u1CMNUHj0dA1HaLko0DUd3gb8J
EC631o0+2kuGRN5OvnNX67U6ilxuIY4JV1+xRKv+hQSorWLk54NdjSXVjd5UeR/Y
iUuqAqY8HZhX8SjuRvjPU906wBIcnAgbTnKi5eLuEsFe6Ch6Z93QdAL5QnDFTGaj
z23Zrpp9rYC7Hsvz4d6nzDanDfpN+62nWwxQ7He1nxiGNMQNHI5Dw6xOVo+ejQSr
tTj+Ky0knyh4r0NfGLf4lRK36ARDMwFKk0o2T0N7S4ijdFdwsnHtEHJ+gezf71wL
FpcM62/Y2Ol32VP7ny+zSZxEDkjdXO45A2m+kMMVSUIce+l6QHc1VJTkDgd/lnQm
mtmfCvkmV3o7R2mdp9+M+Sd6YgXAFIvEJ7N30bT+u84kS3QxxqLqGNIkqaR4ilz/
EOilrsI8N+Bg7Ak1ta4iu55MdCX3vTD6FdaDyxWMgUFNLhMpywJXZmLN4ZudIfL7
xyc9pzYFS7ApsaVeXgRbAxQ2/eu2MDdVdJJd3JL+mPWpDKwfBwotQM0tlBIaeG0A
jauhu2EnvjmrfjinMi5reqWlROodZGtAoC3X0KFPu+n7dUXBj2KY7z6IujQmnAm1
1BTj4HNwo4JjuaaJJSoTuZWw1GAjfL0EEfkFtqGGLzcMsjYqYF19+gAmjdoH53us
vxM8iW1mIz8wBgzhKGN7x68nhiQeumFdcyvMD59F14pfj5NeElWNZaF9WNbZlrbx
jzoYlh7FVI3jxUMD8ifDEBndphPni6ybQ6Ihi73GxLyJnwgBvvqAC2PFY2o+SYGQ
VWTVqiUoFr3371sk+QbtbZ34uwqpYEow0iUTvmu0gGF2HH8m4ywNERigM2tr377B
dc6Fh4Bd3aV1ecedliyzEdt/60u1FpQ/PO33qdWVxG8n+G436TXZufeUSqYCUuJF
ExImQFV+ldrxx6tl1Ue+JswhZjdutI3DcD2X5dLBQYBcFv+ZMI5C6CqjWPzgZp16
4Vz2TGHH1sc/zi7uecNdVDgTLhTXnTU6SPAh3muWEUBPvjCfSuXoAVjsNbYP2f5m
sRRWZwLWjbNC0Ir4a7ro9eN2v+L4iL18ylKMxBw41s+Q0h9GOxvpW2wnCdrUL5bf
aoezPTHnK5gd3+MxAI/eMSK2cicMWPbI7T+B3LTjF/TFUaTlyjn6azdWipC0Wtvz
Z2ZujCelwhkYNDgBrDAz6cltYnCDF7EQjB97DuE+wjBkFsMxqV368sAwBNXxoSqY
oSbFu1n2pCP0mtp7oNGDmsZ2Cj7cuFTUiPUO/yKLKRT5h1okJuPv6dkLmGufuMlj
ZVSO8HQVGyJ884yrwkhvQ1PSCbDlZXpkcERHkVaYYHt67N+wUefrbZNc79O2OA01
4ghwa48HOg2Wx6ZoPfoS0gLbKJU29/YjjIFZ1wJ3VQOmw0uMhSkT9XlPIv0eVQFx
UWC6h+lNbRf37jngGLx2DNbKpxq+nG6A3S9Vv/StVXQX0wBv6vDlpTZNvo8KNapa
l0s/NhXbjj5+7MSqzMhLAKNUSOb8Ujy+aAVtrv5kjPWFgXFLQXzSQZnwxTA78Mz2
q/XyATWRclvBLE2jxUJuNikw7PCm9F/6jb4Fh/9iq5fsjhAFE2fYFcygEyCVdvnT
LPOtNDiFIHRLAdOHo44XHzt4KF2NHKUhPGEmOh4nGtb8u6jli0Do8E2Kf2jBZOuR
34K2dXsx1x9E2pEMY6LNha09WUPY+COIKKSixQHnaEmdEpsufYb9MGsMSPS+fr5+
VlmQVGrhZke9hURE5DIWf3LGY4itxg7AuancDWIz9zoa/8aWdDqC2A/f5XsVMU3/
rjF2Sdc0uVTHp9zhdmhGEdYC9OKSHWgzz6XeLEkRKtve7RGVGUgjy/LQQXuxaJVp
MTdyYuNGSQUG9UWaZGfn+Ttwy96GnpirIxbnPQNdsjKYg24uU1DAsHlb9MoPDvzR
rNoqUPfabAezTMJuXjGoIU1jHXCeNZuvbqf5IK3LnY4jXGZmOmijVu3Spp3TSc2U
eBSAqK7rBmpDA7YsWxG03nLIXqFLAtqY6UJo2ixOiJx9DlDI2ZkbVvFOa7bkxSz/
qeRXeZcLQGu8Nkj9nbQb/LpGvAWnz6jKcch4xtQbXLiGlVgiTzDLWR1AYS+BACIM
XHOXtd49JUfJ+rKWZtWz9DMc7Jghy+jfll3gNvR0YrepIbhJ76FgNq3Jzh0mnfPL
5Qzaw00UW8S49Qh5IdmVCHhOKn+NZD7FTBhwVRZIeRRwP+z5Z1k27qNwgCwdZWho
54V7HZB7UUnUbmuF4qcUgNClci10WLijo5Epk4ZbzAc42NToL0bd/Lx2TAm4TNfe
IT4CtTTqv+G7SO7x7rDdzWZ1WRFX5HEybyLxYEgJA6t548xOZFaH1wiNnQT9KRPI
CiDaP++US1Aq4VhtzA8LqiLQ7/u9rhGf3ovmXKFKZqzvS91yxdrH0sQxyasZJ2hs
gyD1HrbYHNzULb/eapNlINCizze83WlarFG6u8CmFCvORVk4XJl4/wegu81rz+x/
K4Kq+sE2ADbUEsmGK23oljivkNkQrWnGGoeLTZHMAQHaYi62+8ZYL3o2zKUrbaTf
PXsGqDY5Yca6VVEYLlz+m9VpjSHtPqduynTZjhNTozheoiwcaPWljkuZFYoyRxO7
cxfXgrAczx/p6pfOcGFfOnUbEAmBmSK5yC1x1iRuwlQPDJ1Lbf4mZK+HWKJ8z5bG
exuaKE3aRDZ5NUdBw/zklkQ3WpifDfM2X98oOfsffnZBGCs4OWbI330xQfRsjnuv
xHkYASeXylbH1StGhHupIqw5/X4WgOlpqYKNlaRfU01XVgvD0No39dY1sJu57F4+
T4q3bTWbYeLyYeJVOG5a4KVBhYYwYqOL76imulkv2KrUL7+1ApQaQQC2m+VH+rlH
/RwVbL0tlgxr7bX3Kyp5GyzxlCzNcb2UZH6IasfVWTf912P6i3itBgYQIagumM0H
yfA9ugRicX0eergjYPdhfMLEW3ExExiVBgEk3tLHf0ZElk74zTk7MiYUj9lvQ7tq
XNUJm04dIRHnfD+u5coWiiN9q2Z0QPEhGxOmTUAq+iTBT9uTy3DtdbwZRabD2twE
Fba3EmaMoP4hVzx2ggt+cs52pR5e9KzNZ3aJVutlwsSe+tmIBlhYjVLVsY/KM0Vn
RnyUPMK+l2D1Q20dGv/CTW7x4cGlYRaaIdamvHmhhue8OXbX6m4OLEpWMB5F28lm
9Bx/AM2JDfwb9MKM3ZEX/GeLqYfVeoo3WQBHYfx3ec5Ii5riL35ivWHQM9g07pRi
cs0iVuu8YKHAuGqx5Lqoirf5HbmG/x6NGn4Db6s/5CMVXtXljSBSxEK23dnmC8WC
ogLTlyFsgmM90SmCfogcY9ggFZXNz0Ch3YKvBKWHDEXeqGzIEsox3CForrplWH1u
5/zCL2dbemxDUjs7kC4xo2vg2RpkQSKhkr4hmqudAjxIbKOaQsIYaKdfu5uNkWYH
uw0XoGuzVKthhRDcylYEiVRhK4A+4p45DkT1Bl5dkkqDV1Q7WjiTUMq3rfjuk1Wv
7TUnQiqrOUdKd5z48OTZz6rsn+h6cx/hJwEoIqvCOOtUaar1ddHldcHOXGfFw3EM
c75FtCQrpPmO8PpcLPLDicvJOV0XH3EhIm+zfogK6p20p/jl1S2yAkcYG2DcCbz3
DveDePDagyv0JpkJfcrNW0D9x0idiAu4gHOAH3e4JK6FL0AdT0nZ6673IueG7Nlq
IH/WaYfEIqdLLbWt5M+8D0k6BrWMLoVWx+7w6q7dYt2UUstFwamMU+5QxLOtmcEq
FpAvvz3B2amYUdpty1ei/90dO1MjHUrl8M98B2pcNvo8EHcDLt7vznZy3JYewPtt
6381mtlgk3WqZYlwHiKpTxAnwCmDHNWkcVkz4pD0xCZZY2343sSExDSGp5UOR0pr
Emm/qyASCGXp8gt0ikH2ZC0ZqjJzksfsPD1SoNmR7SQpOfPHD7t+vc29F3TubvHc
DkLFvzgeYYPTUOzWjloDuMpVwe1o2mQQwbMHaFAJ+pCJDirp0cEvSJStVVEFIg6R
9Hmr9i1k2t9R0ifagsIxkkaz6JKbS2D5hnxe6FNxRxH50oNvfolpPJseEWKXIv2N
cue5kPX0jUHsCVN7Su/bVC3BA798Ih+a0mX88y0zXXQuNkIGkiwKLjx2HF5D0yF5
51Kq/7eg04IcjQUtuJW9evRpTtWO/AN9f+Se0korLJD9qw8nW44eRC/hRwlPgC/t
k5Gom8ALBvU0EOnzPrn8FzRdkW6z74N84b5P0GeLzTQ27/KGMlXnTAaO/uC0oSEd
zx+oDGgHFPLmQe/tUONi2huuc9DuYqZf5CrD1OfWRUSObkT6bhjJQsHfHlYRQGCd
p067Qinnzj5F4sRJ59NnoQf8ieBBlkODrqM0w8MqUerXFHADKnKTVOe1WrFwEzfL
F/FXfusyYeSYZJoT2S57fyAlYtr81Y41+OF4lmXHbUkWftY4Wve/MAVLO5cUZem5
EVt6poLchJ8Sm5cmxI5p/3XxVjK37ZgfKI92s4Iv1sLVn8O1gXnuh7dURnKFVsV4
4GZodoormakIanKQq32YyfMtKuP3m6rR4QiheBcnBRyX4semI2UVtqbcu7DSyqSX
4vzgkiyWJ+2HnQ6wCExzjtpcX4t2SF7SEx/NYyjgKgukX2dr07hn21HALWNJLe+9
up5C0Mo2z/novU2NBtzFI4Z1ie8ZJ5YjpKPSNYXwfgWN9QbN4AqU12y4JiuNN3vc
n9Z7ndlwIBsJucokYEJ2uIXFq55nwbl1G00Ex9fk4rP2EfocW24mUVjdxJXkgjct
YmonwllVcnG2XM9pMdChJoXOpO3xwu37234+GSF795H0+zxpN2Uk9seqXU6kujN5
CWaoQtOa3QTujuhFXZyFlS4kuczKGEQOwI2Ss5qN49y6UszV7wj2lJBJ9rhSjhkH
IEHL2GupzXSRuMCaiEz/s0pGiPNjP9l0PYfyefnFxyoeqauJCxeKDihpPLhvrGdM
WIIkMnERngQxSqwPYu5E9RX3j24xe3cm8Wl9unme3DVwfUe7JB70EOewUZeawqb0
yIKsL1372wm441C5EkGj0bocpyBA+ousbQLYmDTVPJyqKEQfatXg5WsdUwi/NV9U
vVA04eX3jQinyvNWhq5KSZbY106zEHPpNXQmYHDQEgB67jH2uVMjYTKlI8KSG0p0
nXHqnzCO1SSwxDAZi7VhavABHMGqnE9OxLLJLUZUdhxISRD2Etnr40UMNRs9gP9r
CkvUCkFLuWhd06SOPWI5yL7Pavmcfvr+a+w8DCI15MjA6HUzzz/auBsLGouGkNPD
FK06JrGajMaVgrSYaEs1gHhGcgKn+eunvVMOiENRHKwuxGJMBzJiE/lRodn82d9D
QhIdfbBqyIseyOyS9rVbilbAEf+frw8ndaajALfX2KtY33ufrV18cJRu4ZNCzDeE
Ppm9R6HwcQfWNoP0HBR9Ucu53nGPs+7e87iBwU7uIsW+W3006Dt7uiFaRzZT6p82
Ywsomf5CZJuKoHgeZAQj4EFqbkZBEPCviP0Y/6eZ6DbcntlrPQWQhKZ8aPtYZPZo
BJZzMiBwTnu3LJ07eu7Ig3Bnd1wib0yqRl7/9uXS7TPlNaSFwcZnSVSOHnHamV3/
7iN9zErYvODUVW8uJcPsU+GEmyHDCeQmlixwcZwGcvPFqnTLcs6LSyMdrpITWs/g
RpJ1zZVYqDFXktN6wDyXpKVSKdc4U48xGwR9dY5ta2VJcHe7fuoA1dkdAPDkLfeC
edtDBqnhteLLZ9hvUOaj7VbHdVABS2awBXQK8jo2AqfsX29gWvIZHCaUzLdNJBkG
D7xDJ0gKm73vTpQL/Wj8AiL5rPB4HPnGD5KMz6OMYRrw5um89zbdUJ2XuQptfnCe
Gw1pKqQpzRewUallHeHTeTiDbdyZGleOoJCBNg7XLm8eZsi/HisL7I5Xfh9H+ZH0
8AjseZf5Tcqev0GZ+74dgrNcoS0f8DNv2g9HcweHHlI9fvXFgQEx2SHpHxfnchbr
Slhz76Cou0skSNorFRAOveTQWXRW9jiEArn4YDh91kc/Bke1mZQj9SHityy+DYyt
N5f88Rg+B6KNWALXKP0LhIpktuphfHCcP//KB+7CAWeVP6kxK4LUieyEbJyNr9xp
CPPiK8JLXy9rKOdVvzHhh0fh6VhW1fEOkhhCWPxUOnZxyUaeOIzZO3J6XAdbpuTB
2470h7A/tK6x0rp5T5xA6XRFzmrQOki4hIV2j+unUTIP8KsphVFxPYfFMlDWpk6h
avkiLHE8op2YnO6oYPcG1IiayeQDujzgwhSa2MiXH4hsWjc2YyLbTYcmb0x4pRkt
hjIC6jgXHrHCzwp5AzUCkLZAa9o/tR/NGghMlXhgahtj9YCwUcuWUVBNJDkc3tm7
zJJghUzO4gTqvehsAyCcsHkTd4KI6D9qwwxqcv4pCrWOeDt1gVFf1Epa1JEaTexj
bhhnM3+dy9w5QKL9qpg8q6QnXhiLlNkW1p/fVmfeRZ2kK/hWT4m7PusA6AO8hfmE
KrPXh9YJYJAf4IgG5CadUvKWbBczGBx+4t5nYXvcX/KgQxR3AGDqePv1g9WCrx9v
b2oxkAnmq3V6Mbu6EjbRqG1VMcGafuIEmcsWMc1qmhbf7rVR5gOcxDNtqsKx3SRq
dsenqKCVrjkiWhC1pTy8qjD36WZUnl900sQlB2ZQNH7eAEdwzrckIefmVEIPi0k1
4tX0BzWa0fzPNizOPT3ak5GgXFv05kw4ACPucaKftBbGaqkEbb+B694Nbcm6OQ0H
NKphjMxZzk4TyrBEgPstSNA2kh/XIGjhJ2txAmEVnK4RzFm4zG/WQm3B8MTrdb7X
zwKegk0oqew/YHw2bMDvm/R855uWpN6Pi2r4Bh9OICrSQixCBiw3KUteknfuQoaC
5uWZpkR/SjU9ehjeY3CWhNed24jzgp2tVJ2N5Xtxu8Iv24hNTEtKRTqArBOevTi/
TFF/Hcf39shQ9RxQyT/SBbH/DKyikmKCswMfbqDXhXH2ol8ZaGoB/fuPy2Z0d/zo
HvSIPBh6zPQ0j0IPcAWUUe2JQgYzo0htFcM2BxHY5fDM6xfYSeM9ff0+KglFnJpk
PLpiJeW/nmKveI7Pl8p5EsDX02epXjzRmU1vcT+X+UCHrvHuESDe2PMwi517ntaJ
BWEVa6gNl4mPT4Fv3G7otUPaceydVVgNn9LHMQ4E5HJW+qULZObNCu0Lj+9hZsAa
BW0QoZ0wwdauzof95zLLZZwMKoX1vG41jbsAMm411ktoeJCOoEXAAjElF+NOL67W
7DpNKZZNsKhP9UxaRoOfjlJQ0j617L/pWBQ09OxKB8C2aU2IjyJVB7eBpivco3KH
+Nl3BPudq16U+V68PFS9OW1R6Q/KgFXnxFmVaL5/m9JkYV+mCugJ6Fh9j7Or2pop
ypalDPVvueeEJv58G7clzclxa5ArYWllJmY6HOKbOxEFYo2NfYnxVb7tI7yKyOLX
xRP9txZyWRHv7WkLXC3qcMBfgIb59wSwgi3X2tbrk1lEsubTIb7dLyUhIJNkfYbq
UPCWsY0hKjn+iN/Gd4GJSZ+mBujPtJLEjR3byiKUYH+SDpvY7/R97NnlJcKMBThU
QOkgznQsAolG+9rGAXZ7xFgrXO6JVGcOUP+LW8Dwj+MZv9SX2aH83RZFumzPdTpe
tyzXaM8tS2sbCwIB7WSEhnYUGTA2S7eQSB3PMUSxlM3d9dmjq0ccL2oqxGddVK10
gqmRtgo/NIaINeX9099N9Zy8NOxwvnhxFjMtUKFWDP4rjpwj5UQzfHyWg+GID1il
0sgnVAf1M5RHwGJB7XR1fKWCvQzbXz3QKdEVLSudOm4vjpmxt+pi8P5ibuuESXbu
kihDlR2RUuRHbTaGaL6ABCb/lmJLXs1fZlA6IqZ7dei692aDR11O1B9TPS3TN3RP
eAx8kSv6KzaThdBR+dqxAqYCgdB7JAe/GhrVWlY0coglyyPdF6JExJCgP5ymAIqp
7kpmS4mUxPvM57hvOKKK/4lga5nFuyF+HLeEPzeS3C6uOObBBJHauMVu9y9Kf3VJ
+EENlHMCoBzm9h708B6JhiGZJiblys2tkKyXL6yQ30/IZHJLVdXQe/acNUap93O9
m73J6xsnrHDaFcjjphGBYMdgw5/a3BpQuY8MP/g3foSn+xrUC96cARoNFTkTeSL9
q9OJzf2BC0y4Aid1R534+9qMyYZ0hzDtqEioa6M6OFXyPgOMngXyJeGnUW3Sf+7J
hH530OEbM1G2mMWkBEiWTEQ+bvcXu5k4Lux9yqQ799riK69jnN+qS+4ECyKCuX3l
+yWyraoCuwYI3Pt0d0FGL9F4jj0lm7IRes2oVOqg0UTeRkq5W9mhEVWXd4AhcHqQ
5RSswDSbTxMBlZxOY21lj1qIxsf01/6vI9xiBK4UVivMEQ6VI4BtG/jxuFKpnQtr
ggGpIZlqtOKj2ntnpLQBcNdnZMCCjmcmxh2OYhk8mkjeTtnXPbCNOPvtNjUzoioU
vnF5EvVfex75El+meZLSZr8Kvd27zQWG1SSmCMP7PZcZakEdUQ9/TXizVKDKNoza
y2DfVog20PnIocJHbN3mQojqmeUwbo6KJM0vqLeKgmIWsvg67B8F34ind5ZdZbji
bXAvgpad3irRXkUqF9pbQTwbmcEhHv9kVmLU4KVg3src7vdps1ZqTu+qg5dDp4dw
ARrfnIkZlFYXX4lwqMVZ+o/tr9i/Kz99UH4oAkdS9vGBWbH2o1YDBtUyLCulln2+
XvM5xr3cNDSJNi4yMu74sYixA3htbRMgq8abYmF6pD8msHhqPDqU2Aiy1YvYH+KZ
8AerJzFVqBYzXZt8gIuO7ujidaJHYh6JzGQm7xflXujqxbPNP2s/AYC54ekBwGc3
zpnLBHBfKc3zI7eoTxeBPvZAY0bDbm0TODdzeKfst9KG8eVsPTb4Xc6RxUnKMy/3
Ogi0ZXcD/I9Sxtrh9b6L8MoM2phabU2Pe25yOSJwSul0FCtiv/oDBfIbwpihfyII
2jyLrhnpnzevOEMSG4muT8CyQkOg1a26cPHYvEKAwWvCHPiCya6jdbJWh1/xXmUh
b7Jp9p2xauJZZl20B2Wm2kHgphL1H3940j27V5wIraslGBrfeGeNeUuHBX0CFyp8
8FQXy1m1PPd9GKKlMBicLcVKxl99ij+fHCKAR3QnTD7rFPJcWJCc1ylLs0UgJ2td
1xTRR6t0PLsQ+Uc4OahT4hxK4xqaCGAHbULBOelliDD6PO6nKWr1X6Sif1KKdJ0j
y0c9lh2sUY74EUdjQ2uszca3WATVh3GijKE/0g90XIrRKbPa2am/xQpWOE2fKOri
Ui+SMpnqMY//wIKOuF1sgCo6o8DfvNi6TUU3Ii/xeIwq/B5cD5TWVxmqQoBDzP7v
KGcVT6edWcyUGR/WexM4H4BMTfNcvwUMOyL6zi0ZMBzyFwterj5Gyl9LsyUFSNnb
G4En+dphBRpCrooO9K+4C3g1LTfVJhxl2UtLXCjtfLnCukYdB/SXSwka16G2uK8P
6omn6FV3YYUWVIbUSbqbysBEGd90E66j7BIRDvqQgz+eQQyEos4Qh0P3G8OQBRER
XLb3WYT8R1aUFEHBBaurN7wRZlCj2VyJzkx4M08HgtDcjfyBLITrS4xB/cQ0IiuD
sh1sFsE+xdhaP4Fy2OCCJCit/HXPqp6TkOEDp4ihk/fvQyycr9cEYeTsB4itFml7
yP62qvglYdRxfv/7oN2lQ1NGlXmkvz32xYvCaDV8vOiteGX6Bw76N3FABeMx/BVr
OQeDZP3ZGq4hh62EnnyL/iTGdstOGju7lAD1WfKM5AS5tRpT2xwImFx+svPZ7tt6
2onH/HhVYptgETtIJtoVAOXy8YUIN6CXqB/Kj5eEJx870rhK6HFRADeE0iz4MSza
jHzBcM9m/5h30M4JzAKdfJy/kForOnjrCYpL/AI/mbkqJg/6NPyCgcOCgwfWSmW/
axBAlXLEDoCC+JMaJHzkp3SAk9lMVaZ8WWQXbMsuvPB2XhxweI6oUlEclN48gp5i
Een0DyS1yXO8JTkpnEBzKBCUtDoXjNYS3jW5PYZlYY06HrRw5y2VPz+46jkGSOB8
CgI1pgYxnjAn6ZBqGQn3WtA6TwfR7QzH3Fj3cVzCzMFpZaR8RogsU5xYgx+7qJtx
u/wfXtoQS2/RcysQQc5SXh+nhvc4BvVfXbmtMxAtYsxv4BkP/nlcK37e38CSf7Ir
0UdZtx+ZGFSh8qqacsSkx5hjp41rxZMsVMMzQtYiygJKrepRc13eBeUFNep/AMbX
fxZ3TSGoieLJZ2CZ0u2uw241q9RAXd23VRLryfMnOtikwWKnQHv1eAoPk03fFcE+
tPcAEdJw7oEXUhw7iWB0odbSxZdDmeELEqRZ19yf9Ot8o1+EUV2PU1yjfePxIB7M
+CzTUK2Fx5Mag2JYw9r8+zAbh2T6BXebibLiEYMkCvsSFbSzq4h567rJ2gt9ZwVW
SeydV1YJdyatuLHKuTqvLTdZaB18arSNpcKfwC8cfifiLjzh1j/k9XSrzp7ZJIe+
JIe9zmxsoW0ziCPm/YjKK+qyfPBZM4wTPyPRf59aoENHYPeD5P0aC0ThkqSaiD6U
JMIzqioeBd+Xl6hZDW11wlxbARsIli9UWeygNBcDZZ9DCchGoU4Yj4jt2lWUPiBy
Ad6ZbHEZKLA+3vji3EnR9kE5BdAL3d5iIRhgyGgbzXzwgHUyL3p+UOGX/DyZ4sPO
1b5RaK9YyjuVI6aZznyteJCpEFRcp4LN+SCbxJbEDZoFCA2IjHJ3ysStEWN1cX4z
0leOS4hXsCC3OGiP0wi15KTB5TkH5My7vd4V4uz8AWLCo6QIOxr0HOQ81K1jPDeq
+PEOQuEJojyKDXeZau5BPiRNpf1JDofIOrvVGEO+ZfM129m/nyODuh0iluVwrA+A
XoQ/CHXWzzVEnF2wWhYY8ssYOWqqSBwXRFxoB0bKwSho049Rna7cGdX+kwdhNh2Y
90oaX9cOBdt8IsuPHMMs29rHLdkkaOVP5+htoMaw7ZF3ikBSgq64FTYztU8Hp004
V3ITomCATooyLrLmGVWkT6uab+M56TSpuoG4c4cnzxPdRtuRbcLriZQ35QPE8Fya
rhx+WJrvuz5InXYrj+XHevxfCmhDZzGBEnWBhtvCGXrdA2kwEFw7a2ZEbbCq+gnO
pGIWynLMdREjvguN+rtxQ2mkAOVPzUg3DJfXA3tbelrviL78WF73GOQxVoyCk6jG
r1NIQ1zu6PYjKqRIztyJuDbhRPXAoLBBBY56bkyXj4vUdyy76aNFI3NBb6hcfMuy
pN27CmmabA2F03rqbGaOZeuWX61ywmEfDAtEJdaMcx5fOA9plFSU83/R4SyKcnJb
JkNFwW9KCO0SzRi4TaFnPSH3qSMM99bsWHZ6pI6+iLV7azVSLYMfW2rZwYVxAxPK
idrsSNgwdYAbfaB6QhldQHElz/AAyZtEETvOZC7h+CzXmzqK5UOJVwYbwRwvG2No
r2FCp5GbljvKhhVXOWcQR5G9miJsh6H0twRUr+Vd+c99PucAa+N9fp596keLKwvY
vYvzzovzyoXcJeYA0l3VUgI7Onp57RaU+Dju2AWPSwdEWho7sT9fOUsm2MaupW2M
Djq8hFS6wyxvEVztHInRHNL22vKfAPSkq6ERa1H1MTFsTn/+ZbtQv8BOTWeK38QS
UiT+Ni8y26HwDRB1VA0h96P/onPYj+rkwJ2q0gHDY/OPlvSknYHWFeK2Pl5x6+bR
ljJ0i+8ojEG1aBkCm6XumtaGViLoErrtcCs+UQlhSyt2ExL8mB3UnLd7z7Dzpsbv
hoflukkArB7GC3vx1KAomAsNThyPCnGAot7ODEZKINlG9Z6AzhlKk9rxARx2T6kc
KDg9itHBWN8QBNtR/P9xSWAXSaf7OK7rAZ1EcRqDYS1Qd7AnnljdboSFrCzqKQZ6
cnxhNs8RphHUauzTf9ixUMoYYJgGyvHHSvNriB8UJHO6/GIduqUloqaJ0WQT/rtR
teuhAGIVOvNouBlyKJYuge7Vll5qEi/CJsk0+vhFHOCTT9iOL8M5lKkREITNPRPz
AQyRyVb5HHWA3VAt0jU99spyobsTNUxMGH/Whd24jK1aBMDJ0oY6GLxTrx80ej9X
HY7ryf2aWwS4VSHhvD0e7fAY08EwUGDjR2EC1Ym9ZzgvhmVGbPuoR+FfdzKfujwJ
8OrF3EGdwQpraA/X4Uj25zITeBQ0iXr0Mdmqar5rwUKOBCJS+uSveKUgq11am0Nd
M5TWXgcxLHeSGZltySGAdC/uXScXwjf0Iux9j6dXReNX3a9wAolCntFmaZkoVA4k
BIvi0A46K7aDCB10P02i4NXJYtKcTHaaWKKRUo8qkUJ7qjf38aMj/EvqgM4ke0Q8
dtZOquPETCv018cvzxF9eNwzaKMDKszmpB5KTZ82b9nCqqCTvJaR9V7S+6w0ozt0
PglJMrtsEWZU3REcPUkxOmo2Q8Yk6Ajtrk3l5zspSmrkq/VO2oFzy+G5OPnvMGB5
wKONUaQ0Ry9KxnLFQFAWLEG39gBwA56bpRY41QLB7e0TLKxiwIZn4A9/5ku9OP4b
vLcotHOGNO9EQ8CEY0ULDUukvDMoPyLJsr0O3Bi3UsGShbrJmCsgyjNbYV0iTGBK
MQDgUJ5IvrHeqQsVhLXMwnZN6ohxb27caRZZs0VohUs4t6aU3MPlSPQXAqkGsbXU
s8D0PGbPgSa5dZWBchaFyIl4X82Fv7O2n+ACU1eTuGqHZ6bmv3FpvnrWV92FPWzX
SO2QCfjGZoXbyDwgsfBGxNarx6z6QIwigR0g7rj5X6WdXD2EpiPg+TXr81KPZ0s2
9EfGx4VV5EuCyNRVp85vkUSpx+ShvsgiYTMN5XnaoX6cRTgDiwUr5pbF1MrSFTQJ
zAKiH9Y/yXVl0ca67X7sMofZSXeUwsGmHp9xhsH242mXe9L/+f7Y49ILl6dtKCZQ
jx+j9GbH5qYPI25/zol1q8ZytWd2OrErqPRIlD7ulYwUENsS6UsMh+xozZrxszNI
exLHnGNC7FY6Z5ocCRk6rcVnD6nzDtaTCQ4aeWefRfNMd8eXkEEp0AQvFFjo5qAV
pFSeI7IBvL/cLn+XO63aNI2FkocodfZ5pGXxoJWmnlmyfU+fx6hGGZzFI7fSOATb
a4s9E7TAQFaULFYdQ5mJIVeE2cPjvv0KQhlYweuZpZV4W9mSIMLGPEevlH3y041K
PaAcK73F6ooVdXMY4kAXQYvuY4qX+dQgq9ESc6+96HWg7K1jprLs4fpVCKh7ZO6y
Sxok++Q4IA/bkrppP3VOiULeWbfC4o1eZ3te68Moqtf2aD8niyQ5Ss10xr7aZ63A
+h4WwSsy1pQIoLUB7iKV1nWDVfJXiDEGD1cN1ySpsfuDIj7e/6cIl89sEAp1c20T
deb6QVOEEkkHgFfWspnYDyMlLav2fg2n6AMVDlOERr0zUCJSgmafT67MmxbMNABF
PCbPqe8/dBI122Vxey1xPuRdxuWVYWZyCoAWyC5oirgrfBflA97ElHqlm2Wn83wH
TLI1xmIjOO/BDdChjKBr5iZl8GneauwjVkKDtgUGQnpy5Dfz3nM8hT2A5ahYRKVw
R7KKW9u5uY46SW6dica7rVw+ZstzVfEz4N7MGv5UTy1eVUmJ0dlBmL6vqK5SDy5z
VJw9w3tutUlfFjtmBtkLMaB5pAY5r44JfykPVvikg1yBkO3EAx4c40sEGGmLwd/Y
2e5/FZ4ylUvtHR7lcJ4WxpZXw0j45Um7gi3GCvT7R4wVR5Zw23efIBS9Pj9+4lj6
uy6Tqp0+z1W83wREQOFGIy7J23LhOhwjrot6FMOH/Cu3knA/T7Fto8NBPYHCAuyb
LZuVR1EHTJ8kFOGsneIuH/UrmQwMv2Fo/UcufN0dyU8TljVz6DAwUIEvrGVbKFRj
ZXyxNDfYIKKunhEb1jCEXUIDeHKnuASETKlxumKGrJb6OIqJEzaW4kW9GoMIUuNC
xZX9RYYcxgvK2lHFLzU+ZEdVAwktJ10xSSN1hhdNh0RQO15hTnJOb1ZjquUe9Et+
Sty+hmcfznTztp9P6tqhU82freTtb7DPY2oEsu18AH9biOGqeb/KSQYFUkDGykvt
ajgwcjHi7SVuYfNX2BDBcyf7RSnkCoLvYLKvPoHf4f5WeAP12xmv+wTLKpbFu4Ik
qKpkkD0CpG3P/mLJe+FcxHuWQZvwGG04DLEBKrVNIVmkcb45Qp2jv3rj0y9LnU8i
HpEA9ho9OOpcx+IoSls9rMwdlrYsOliWmOGeLxtiKgilw+saygyHDbnLQVr7iZmM
jP445mEZ3MwhJwBT3EzKXKn0AmENP5DT1AIsGXkZ9KAPDwzTuzNqyHvACmNjtQdz
OaKqRZGc0l5sx1qbJt32yfvS2wW8vH7HLBANCMT6GmKEjaO4oQ2Ae4ohq91KGH8Q
caADCTEk4loucD6G0OOT8NbqO5hsvszJHqPJGKJRxdAtiF56eppVSY8AQPUnvu6a
SLVl8rmfhSMyOuG0tWxq+1iLi2gRHTBVCcDmB6fNOK1tNHa7WzXUl7wgb/F2a+fj
s65+/NKFAVWGo1rMW08ouVCiMTyi5zSrfUSiLwH+8H0b/3qdoLFzKd3QeYDg2RCp
QC7+ORx4MeYiwi5kWf7A0q8OHLkFISIPyXknDbRnJ81BIR5x2jGL4fmSMm8Ajnr0
uyGS1uRr7ZWcMbNBgJaaYR0LT/fIG7g6deJnYUAhOJ+pG0WKyKUDzgOeARXaGODZ
UpK60DL+yVB34iK6xAneDPk9cShL0sZtI3LwMVK4KaIqImWqPIrt17Dsq5kb4qmb
JhS8GI4/EmVNRr1QfQ2XQHEaset/Oi9JS6NA6hMUn6OJhbyMsdp2PCQWEN6fEnkK
Pd5ygQlR/mpq9wmAHFZun8xAWQhASmaYgyLDzeoTSzklNtnF+QotUof4DMdcqK9I
p9eUJKs4DdHszIO/mEDLlXo5EL3iqjf+p7SoMGnqNtcHjIyi2qldkC6i7rXVlkrj
SvmNp8HD/iEVrRg12jDyjujtZUe3U8nrJ1xMu0+oMGO24XZIDU3chwfvPkM7pPRe
sdC34k5hPMtv3ckkAondWPA/MrLVfyHyAYm7EQe5FAcoyhfmszbwDp+WNAYlYp4p
RIDCzEt6BGDIJ3MmyXVEqRFK2nydERVb6FPmHH+abfMywWu7C6TFNADUT/4JPl2W
RIP2+swmAJfNkibV4oOUUSsFD7Tp5Z8kp+9k2ufP9MJygegCv+DLY2T1+6RUGUZQ
3ahxBCIH8C8p/XPxiPiCyJE3Ze+n0RuQLZ6LPCBurmLvXpodo4nmuFWBDAz1bzLV
FCACAK5YYJUXqz8OMJnxPrLxfNpwpHbBwnmDLu7okBvDTFcurGDAPEBcX2+tdJVT
BMx8guyC8l0iHpUv/N87BP7naveqRWNCS5g4xrMBJt0QwCPzcI53Dr/ltx0BpM78
38Kq4a4bbGvgYy9pqiNuuIoEP0QFrJ78KEWA3gt/oZJH2LQLI3iscLfV9f8SooDW
6vRzrwZ8eJYSL+Ze3VxdZxi3jlXZLfn+Yv570uVRVdK7TZlsG3M32bSkK4PNxREc
HPvIxlUYQNVge6SPqw9XXBvdH0SPV1h9/oBmukno3d4JIRslOvydLl5E+uXr6ssN
8sOA1e6ZKiKItIWkVX+aUiEHEZ0PN2W986WJVgA81aaX6GWiEbC01l7jVN1V1At+
wANrVvYKaUlnGeXAcOMhRis+WDwBCMSGIk+2X2SOLKXYU9NAE9ZZ+EUAkwpKtlnH
WJBFb3yggoKevhMW2NH1WzuOHEEoNHkF5I5Aso3cCCtJfZCqqNPPSrjMOzWmPif4
e+Vx3P5x1kZqp2l2MaCHlNqMF786JYbR2oVrvJ/pPPWnJ3pU7mgBF4fVjhwkBRlF
F/q0rG9R/q/IHOA1kc4nZ2sMnldlXT5lNQ+NKapJxwBAVC6XGcfNKrK9yJ2ZhtZY
/yXzbFJrDLTRhobi8KxtyFVS8iJ6scSV3ih1PkqCG4tPSXghkeH1IhOGMFSB7O90
w+Xpz3t0QMMY9lDXQpr1L0v9NHT2H/c5icvN211fCBWOEa0QCMgOn6/ZFdn5t8+t
+Yt5vBYLMRmIv01i2MLLrrmj1646gtqMd9PdfbKrDxtV7L7WM5LiO1O7sbgKlwA6
5kMhKFUYoJmUmJFJE5v/oA4Y9ys6Y1mC8odUc8RECVD87lttaEpISAV73x+3RzcQ
oEyvcdhkC/jp9niOxD1pT5YzhU8RvgF+tw5gsdtMqwY53syzqqT1YVVatfHEPJO3
hWAQ4FLBeBbh+YrxBVTc8x36g1Fj5XovFxSFRe3PXvEsC1wy5eguLn4OI3Mt3GyL
8hgZM3Fp6HGkoXwNz0OQvq8yULL6u4TMIRplNT2alyh1fD3EIYZsv4FOfsW1tpLY
VQWSji1FPd53TeJgA8bKEzRox22MYRUTcR0LeTaGss0E4dVHTDGP22zyD6/hBkCL
FnEk2mDTPIXGPMzJ40PgBkwc6gDOLfVi4B3lt5XBPwdyW9WIIHT9v+QO/ZG5b3e3
uaoSIGeDOtLhn+O8HXdd7esDS04ZjZgh/jlsbY5tc+iNly2UB5aAO+Piy/u8wVkF
AcrxV3aJgTyIQygQhcp4auKrM/9tXSjJN/IdMYckIjAtMz2oTZpB/MIeozI/DrOl
y4YoTovpdR7syhGuMf1OQegn3zpS6UAVA0CUTtGoJzxIaBIJtIy2ddaKZxruzkgA
btW8fm9m91UmQU3+/0wug7/pueXT9a2sqvp2HsuZM7DxdZelWpw9Uf/MJWhxzF8n
5rsY9dJyB8HnQJs49bX7TcS1w67uy9w7+7YIqgzI6oZH1BSooVdlXDTPeosEQcIc
Lqfpc6SGf+lusYFmuFdGZBEqm4kXVRDk4ldWLt62EUr/VjMLuZKRohgHL9NRlIx9
uWntd0J5rD8eRRUJ2MjyvzQczrZR4FhkYN1VXtLUZ4DbFtO2NcflJ5BG4FBfp7ad
GETrAl6Sji/om150kpA8WT668OyeON7hNegiXH3UW0TYoQ/i/3tAepjev7V5h8BF
riWuf3q3llXknm/LioEwQ14n5ZyHobsAXWhkL5DcPPxDav60N+ffFg0vA0i7un1R
6BYRM2At812Sd9NpMRyTiAz8QeDUapIpKFbtLe4D69a71FJnTARaN3N4Pgukprxh
LPNAUQHN2L8Y0oE/drq2qdF3AWJX5g2mVtQeXVzmXF0pUfbo/n0pOmOF5sMoQAn5
p/DFr0Z+2zFD8yhP7frY4I3AMU1gCgkDWv3Yj7m0su47f65FrWA8WtgK6w6fOJ0m
El8S41h1fSAb1tPBcpbU5XW2vLNFcUi5i49VZ5ce/MmA55pFccl40aRJdHtWnDj+
iMk90UXtAZNHbyIyzp6GLqQL+am/Fi7Y8mnRrCyaei2jB0s+FsvIA/1+2ownErKJ
k0LC0C++ojji6ts3gSNz5yROiE14Ve2CwGKt66EpN82KPRX5FQDVXD95VKLG3CE5
MtqFPoV0Dq8kdZSe5f/A5YxkatY2igDCzzn5SkQASqu0vbNiJiUtBYPuXDsulMEo
pC12evRDdpZd+lNBQolmcG5a0tCZsOvNrLiLDkBmYFynPmTwkpp/jcZcRaXECWhs
eCtEqJuDecaRcei1Ym8Su7sPL7Cpk9ndK6t4pAavshUuvPquBnJqVt7UI9FmaWwy
0i6tTctSVNUx3V7dLcXH1Z1jM7HcEZ78RP24M7M59c6yNTRLybwMJ49CUAFwUS3E
hQV2n7xLMTNosv4BvwVK6mRDbKExDQ4az6CFE+7+GWoNQdLZdzXMjNWMZByAJZE6
hDHbyES3cAJOndmCR2MJ0iGp/Lv2xBCQ3VRoezKHACMgCT4vO0nxYq1m+g/KBErP
z63lbIOQZMCyGKrYzhyjZk+x2pbkTIQ24gPgNUAjPk7xLVU5emzHTnmED7u1MGZy
a8I/hsZAwY8HPLp6VUfZyPMJqkT0Q8Pl0CAV3f6orouPj+pptEH9ojIgjwtPTKt4
YK0qLT0KTWCdMG9NfYeG6v3EB3ZT4dJwwHR+LlfIHm/A/e1NYqza7qvwkySarXYm
VlbGE+onGlgY8qgjWhrT8TkPiKmqW6Wcge8rOEyrzSQmCa7TpuBryqyeqZIVVedh
NR+0H5UYBkqGB5pCk4MWgO+bZS68cOB4el6HSFkxliranwH+eMFibsnJVqUTRsod
j8/lf1WxlZenjcpIOONBubyLtG1aBO2E7Orpso6MQNodSq0UFas5MDYr3wJLVkqt
EbbvqJmUrwfyYuRtLbznkd+zK6M4b5yKj1SRNwtNrpz16FrllzrMEMIfa7kaq35w
3OhAGk9aw6ktiMMKD3XTbdfKFrIgJm2b1dlT2EpzYNB2CQwVjit//BplQmyMZ1jX
SSTvN1CZZQ4C9DbJSnhJZKlPJoadMKZ354mdB/9X4MOC/Yy4xzaPv3BqpB2XHG2r
tEfAl5P9Y6jcavADV9MLF8yKtla2G4zlfg0wHrtreO9hJ7HDQM29ftJwtQyMjNSK
vxQI2eEz+ll3KMiGms2E5l1ii6WO4Qv3TlkNGnsb6Tp4pjDC82qwPhPJQ09Khtud
S5mxTZ64jKMI3MdlcMfbhlNXxo1XhZ3vcvLmbaLwJEFVyLFMTSVPwuGFww7HB01j
cw4j7kLiDXexqB0E4hLX4enPpqPptFyd0QkHd+xo8LVsGAGGjQjoCjf9CvN7216J
eWDnySj31T5iWwKIwr+35cGCruIInRHGTI/QIs1RpSuN0dSRufI9xYPksxkZ07nv
p6p+aarpP/oadz8hKNDQP9SaicrMr6mksAlg2ljFSmAHS6er6yynj829BNUzQD/A
1Wws9OmbFfHXlC6tCMUqQIjriD2Mcd9apcAYISyb3J2ex7T7upKL0zJ0TdhGuGqj
PbaAvpi8H61d2hMOq56T7EK0cmwQ8li82e/qx5KbM2F61l05UdOGJvXDsJaWotVx
4J7fbn6nIUyM9RmOQpXt9eqtwHGliJ48EcnAP/S0LW3tPF5juBvBRe2Gt2xKw5L5
rzTt9ljiu8/MTbDmW+qqVoGWziPJ9er7zv5J2+VRWNT7RAbbSKL+Z3FPROjuxlA/
gS+VE7Kkhlo373bZ5FO/W+5Ljt03Bo2BGhcA/nzDyn/bhxVEcnF2Y9n+PmzOZ3Ez
f6bFJ8VyXhbTZba0VshLvAondOFTHMUd9fFRVfQKuaNep0ppnYgXj2itMC2zOFwr
tYjRXFIRlnUI1lZMChjpDKh1JmroSc4ip19OCP/dwOVNXlcd/otv8yzTwGmmdyw/
YXsX2G1s9yQMPESTvd6mDN8M6fPzcLC4My7RMKSxvln0X4yKGBEhgQLW2lCf2E/C
IW/Q3OlGNAec1lYTlgkpV8YX6C/QP0RPCwy4qN6XIWD+3N9ZNjVHaVBuejIXRVat
x2iyT7+jlm8rr1vNBQjdpiORZ+TDtxa69bM5jhDdC+3aUPZ8uiT3wz/f6UplPvPI
ML/5h3qEGE6nk5/LLm5//tRl9KWRc1gtahsqL41PSj6uWAtIbzNkOnO7QeijqeN0
ZuRUnhsN1+qhHXHjocrLuV8WsaCYglAxRikn7tuTHa6+wfEIrH/wjFSZ3JNTbwM8
zAggvUKMfIBSKMlHFwUyXVbTm+GlfQxxF9O3y0WBlxkmmY0NU8NviZQro12ABl2e
/brv++6SY0klYL81a8Kbrpxhj9snIGRXGKA2wP44nKKRcCtVi2z0YgRa69eiQE4s
EojFWvYco+7B73ifOZUO62I1Szoz7zcxHMgRFL5SLIbzl8lnql5qSBk+uqN5bl+V
2YZCrbSnQkNou4qlQVW+Uqj1OmlNXYKtHs+IQpH+0tKlRkFCeyZ2aRZSIu80jjqP
TvqPT0rQju5Bh23a3vK765UWYOmbeB6rTirOSe9htVj+/5COmcV1CQuU7+xGbm2j
LDRqaZhMBO6pyxEGSIPcO/eF+5+foBqUWiC6/zziR71OJJB9plg0HS0v8vw8oeUE
GpYGF6J8/sKV+EZAO8MUrXDTDmq/6zWVKlqQxV7rUrYfx8SJkOSMaeY04zjQZ1th
8GzAtWqqB0Du9thloObNRTZhA0ouv4XwLWEUEmaikMtKbFmWtezhreHSVuuVL7hO
Th0MOXI6nnQS/wGAsb8knKPhW0UA2sPQm0+nFJUMYKZF1cy40eF5MqwwAl8ASFA+
k6v8xJ3i5dgAtvBVZx1/9KTaFlffqu0mWruK3Ljw+Y8shyffEyLR/Sit2vCsYu7C
N3aGnf1ySWuZaudMjUc+CYI8pTRQwG8fpw5TF9Nk9M4tdgnjRZVDFYRyocjO2m1y
6XWtqCZRPZJ3DF+3GIUBabf/wrL+DczdQpsKtXSlcEkAdBsJ9QR5uMd9jmnBOlHF
sJzkOkmejoPMRu14LhQHCIwwgsVBziTXD9oLzgV5kUBn0eIjfqPzM0k9rXigaGhW
MCCAn2uIiwBM9bj1ATwX4AJxw+W31ENaYzn3UvfZNTK8KShvDjyZ0LWkKgIfuEI2
Cd8ZGe2Ah4VmFhfZIVDITTU0pnxeUW0hk1ygLIqgKQP/JbKPp/UgQRYHQKnUfkQH
uK5UfKYUh7WJzb64cOqzf1AYRojNaLWhlrIeeDRy0y16o/4gXN2b+9HU4/v/nhxQ
T2DQlpG4fw6sOqMYuL4yfOYxoKNl9VOwq0ynd/ccDG/8QcHR22wMlwa1ow1yT9L6
k4ZCTB8JWQm0a2DxZUSwLveIsws3v6cpf+CnhU2JGoBA44Bkk5GKJ8J2V7ww3uww
RJQzBW4jNXxnPFN/w1Iyu53hBNbZ/+zy/cmccGiBxyrO6TCASMa496t+jdJsYbNe
tvtg7qtWGVFbSSuBo1nSBJ3KD3R/25/S/Gw9RScpgHLFQ1yKpLjhxHiKc2gIGTcl
BIggG861NXF3ZA94WmDjjD80+4jkwH7jqCZJyQct+/tJV/cQ6Bj8+xUvaGXW/CxU
Bd7bp1mQaMGn75/nKmjI4Kt5Z1YKGQqExcI3TXQ8OAJvGfznSE0mS+Lnz2I5pHZc
Y51G8+1kTtUWamwVLbTjkr8KWG/CFgfgWfYjVSeyLsAMTGgGHargOl0dfLFE+FgL
/PaZhJthVrlYqTmzQqLfprp08DwcYrETP8PKarLJ/Gv0qGQ8oSFTu/sroyRI13GB
z2CgzgdloMQzw9NKZGnZeAAfWBQdkCVUlbjWtsQGmufaKAXh7sE5R2uws0pf68Ky
KybCve9zCqzbuCySGC7CcesgzUrLCqcknnJnjbZ+tf+tWT8upgX0Q4DYqYufSl1s
rBgaWhCyu1HjWb9P9rRnACsuBKuo52UCrn+ajnNLT4WVaEZOV3eNFSGLE2KFFKaM
jcAvdNvBBeJPASxPLEr3iurEXhESM/KLVb9WmWjs4Gu47F0zK11H5tvUqWmvMtfS
kTBnek4uN+Hll0xLCyeAZMqetXDHK6W0tbuUxRbll1K7Z1tJ+aAhfVqQ1RULSFqq
l9wVVA+lS1Q5yfFTEnCEmcToWgkkqbQm/aWMl/nwHBFPSjy+cCfG24vsrvsUJ5+q
7mRNK+JDJDsxWrBRtpJb8pJ5ChajyDqxyTEXB9rplMiY6KKIY+3yyAUIIVm9nj/x
5cOrAJkcB0WyOVSSQChyAsKzJC0yGO0WLWfp1hHLNixvQ2AMApzoQmwm5lwjswMs
jLT7QRi/gsNWCQRHuNYwPdlfrWEks3SQUA+xcG1OkEJMxTcNL4+yjLMcKIMItLY8
liCbTlmhBhAkuOVL32+jsAe1llyZ/pujY2q6RJjEBaOzqb4PWsvEXQjKD5ElQoZw
GeqXggSMwtjgPtijagJO0fdn+aZdCACwF70p/a2yltu6BkdmLyJzbipDpwUuGUDA
URoyxbb4Z3+T1VpA5KyEUdUXlo/giEa+zTchd95+GrV2Hs+gye5rTMLdr5uGcdnr
sM77+G/166+mdsMK5hCD0qYlmCp35g+u7vxeyGvOPx4abaUu9JHNN0Q90w6x81mh
nNXHE8VivcDvwpLiK/vhTMsC//Xiu+icHdtLHelcbXYieLL0diJQW9jLIk+wsoHR
jCdj82ScJvnI8leAZbpDWLFPIoAMAI2qRNaWEm9OeEDbyhPDdbPGryqWZQiVbp66
aEDAhSA+Tq8+DxHZZi8Wers8gyA+G2DVaFDm5Zy2nsuBLx/MMCyIAWgRmajnPm23
/rMc/GYzPBk6nouPn9OIQ9rowDkqzVwzdtHBgEaInb1dsadBL1k8k/8v72W0MFj0
e8kUxqn6Qvukv8I597DFwscEQmHl0wCG4KOTiAdw0Ve9AEb1QAsbF6HT/kEwbSPH
bcOQQnW3gKx8x5B1tVqghzH1lkTF4JhvWhAhIHSfKF6JnR4vhXfkTfy61wwYKV7C
Cf+FcRroOu0bFHMaGXy7aQ8ZvvdFP4eeszAKKo+8aw+6P8VlSkLox40Twe3SBs5U
stj1JKnS37D5FS2DpfMq4MqJRjDhbhJ9tqJf/bG7jP7fO4tPi0OC9cpMODhIm5PX
fbnXaqwpsZc7k38FCib2+qH1q6P+gcqaGdJ+qYMqKFBfx+Vyqad9E85yuONShtyx
RMucKo7+m5XA2PBta0JdMA6AgsnMQ7Eaf5c/q4WcrifEPrPOi2S2QiXh53rREkWW
x7/sN4lEVqKzJQzcrTzzl0B8K8WFwuuyecYw1HePaTsplX2qdC5mD+C87izsKdnH
kmYCBcEsvMxfW0w3XQHBb8TmVn5Fdtam+O5r2ze7xxyZ76Nmi1LHyVXKVg+kcr4m
xqtJhSXR39V49x43hltGeIytknV5ls6WhUr/MmsS6jTD24kFh3nLOheEvN9g3ocn
EhZrhuBVa4J5G1CEIDdpSg2cXUCYO83Cxi6ryxeyjukgxEPKX2fLHbrWVIniR0jE
WkmDt3xJ96DfBLEZL0J/JIS4SBTIaqHxEhRgARoTPhlvi/4UHTn4oNJxn0UrRskH
y7aJSn+PXSTObxrGn9ZiborOq0tTIrPb4yT3HfhWoQTJS/Joreh6AUbsKF0AgRXd
Y33v+ADQAcOSVcGfK2xZhYup8H+rpD2sewBUb7+mUKgfYAKPhIgf2hHpSqcNSOZG
MDfx8LlKu5Ur8C/tXqFueINMqTvbigQj4qfQjZ9w4DyLan6TW4mnT/pIxhyF3BVv
meMvBcnhNz6B3BAmqKfjubx9RVqke9Ip7TgogeJYiWf5XRN5dhdhfgNP1YczOF53
Z1n4IvvXA+SEQ+LDhwuCbPfE9OMoSYFNnRh12p90ahHniUdwi1d6eTUbwa2KJ83F
+94okwb+gPYa5uJRxgWS1eMRlLo2o5G3cy6xLTtrmmjvrjoH8nOWpXWpw9jNTgrh
QsUGS60ULDgvRg9cdKLE2gk/d1nEEk/d6hSXHU1j/zkBIZ4VCiZEc4nyBuBJKhEu
uChOv4AvXudG0DgHvTOtNDQvmr7sIt6cs1Boa4R27iL2RBktYL10CAzbNxEE8K2d
s3OKvb/nsIHwmiJgfjXDIJDy6oALEKl50XgcXU7RCm/QW/9kSiTh0URZI6/b4h59
3Vr8WbuATLeuk29D5YLc79X7CQWgOX/OtAW2Me8wFt78PHu8tqEzez9IGachJ1cL
YQRwAhuBtMW242ZqFrmj/8ppM944PyuG8d/ZZyqIxKIFW2V76w8nnNNCpn3V5sMx
40dDU2W5FbKMkggYK83iAtrABV0P7+847Qmwv57TU4dKEN/JVZ7KV+xRTxnkfyCZ
dw3ZCLoMGAusoxbtDoFTBtXe7cykmUlXPFmvArXJ45HpQ1gxIiV/teAOUcWgTEzC
I/p070dngQrPnRkTyHfBVby81KNUvMDlNTcK2zWsIb/Xgg3OZVHn3SGAHtCvKzzy
rdNanTuwLvcs4rnrgEBz7MazSXbwhG4ZWsHhX6CVfkwlkWuwCZ+E74IImPVqNjEs
2+7KcP+oRwmUXE3Nqww4ry0YXrOiQVtqToWBj1i4JdmS5esz5cvm47gDCaNqE5yk
rAK/wClFUzPCQOqQIv1mVUjSgtJcfBCxtDW1qHMUNzwpkhaSUz5vDAHBi0Ox3b68
yubPsZLfqDHjT4A2SB5LGEBzNGM5w3WNIbyZXXHq3qbfGifSgpEUl8FMe0r4hmUg
bUok1RQNd5iC+561JSJbcOckvyoWe2lWyhGlv6VH1hHz03WS7KqxAeqWSYIGvWZk
j6gGI5n9tt6B67npsnWxGBV92V7xXFfkiTehjqGcZRv3vTLd1Ej1S3HnGOYWgAS4
tG+3ZAwiiD2Tjhl1/3pvdaHndvVKJILGvq49arbGPw8SRkiBWrIAlcZQkeiaUoGh
v6Uxw4cfauTp9OrSuU6282MJLCifaWn9I+6yVVnZslgxgvLf8JAph7jsz5BDsj9Z
CI2xIpbrg0R0QfHzU4fRjXvRVSU/Ld2zoOr9OVWYobdAJeFAb95yRcDFMJGWh9Iv
QECXs4cGMfocZ70cHqsgDPMnV/Qer9FulAbjhAA/Nz0LRsVewn7ub9XjEe7iNttX
2tD7xw/fdvrA0uynCC8jQ7z5YdUPnof6oA2oFMqcrP1W6zMiZyblJoNlNlzYEpTn
SewIbuyQGqVsp2hrjTP3QE4YET9nUEiGkDrqTVLzuzhaZVOU4AZ3fCg/iEzTilcz
gtelEo0rak/RvRGl8PGs9zyeZ/CtoYeXgMoSD/xHYe20dDYJdzvoiV/1r4cc7D8U
FzQUMk3neYFRK+5nZmtwYrdUSQxUBWmoF1LVQmMtj0vNfenwq82+CjuE8ijrwr42
dMIuq055bPkI2iseNfcRUbQhSkHmJLX+1IhmLXh4noZF+GNpf0P1w3xORhy3X7M5
tpjEf4ZsSOm/dnpj4fj7Q5Le80fXYHvqJO8ZQ/7fKCaS3loyFmWqZy59EP29IIUl
q5bJB6kHgTWSfTp2iBb3CpJCXeoW8ZArG/ixqyRMGG4ku1YDG+NJI9aZ819OActh
SgCpex7jNUQLaGA5nR2oDBcFKSymBQkbDsrh5FYBn7cEcOdlA0IlvGuSpnt1tBBY
ykGz6cdZZtkQP6p6/hiS572eCXsR5eYZa9md4IWtVX0UtgB3+E5SriXlR9k5rHYP
9bCQ90anW9Po2FtKn3in4p7aRwNTSRFm2nQFQq4WwEtWT66BjFjdLf6jECRbOxDx
Mwfv5oQrhaINiXFr2gj22555Vv3WDV1gI2Ocgyygnbmuk6F4HXXQUKq/yPegChw/
soR6ZsOfL182CavapavOSZgTfQXb3bCZYIQgxkxrly8c9yP1H7o9JYQM4DsBk4TY
Ug1MsU5+aaSY4SqDqt2FFFc0dGwRLCqf8IXXeQtsB28HNqjVKNJTAX05seQB8MWf
dUemISlcA6ZQHOZVavWFj9CjofMrSAVQNy0t/R72rup60Q6mKRZ7y+jASAyPX/2q
OGBD499ffZVMUeTGgfY25sXnTSuNwOygraDPU3/iIhlEARpLF9uBYNyIW/hjDnk9
4QL3lK3HhwkYE9HEfLbwKBiBtB6ym8xZMCig82ucqnB7ZcT2b1DAzZorQq7Wnpl5
+V6CKy6dYydxUW1cZeNlcLiSKcsdC+b92l2rorJkdZ8yzRFW1BinliU7thq8gtid
f2ZcgMktd+as+EB6XCU3fm29YaDxxyUdclR3cG2bPYJubsBmdyjot6Bq3T/9btgz
NDDJbwvHz7SuqU1NKcEVISnHELNCKkXcLxrSodHN4Rj0balXaMtiPPtDfG5v+l9y
z0DqJqyTWAMe44M2uCzu1IM8Y3rZrDOD3oWfuh2MT/9IFWuAXL0jL3OSSNbbByez
IZ/hpbdfyVpFQeDWUIwcqjzXRbWIUgYd/atnCIT38ns2N/vSl362SkvzVbAIncGc
T9v9s8TM2fRZfo9L2VB7fybnI5l4SJe8s0ImSeu/q+f/izZl17KM1VVaa2v9QxQ5
hJFmHKqIGbnkl6r691vKMHXfRqLGiW3BW9IG0yMPzm7nzjIaeVeCMRmSxre/Xso8
kgQnrhdEzMvr+G+4egs6SWVxhKjHYG8NSe/zAo35IaqS8NnioBuPhIQPNWsycE4b
Y62h22Ci3rjo41z2nZK03C3VMTwukKl2I0Y9Ll2IyRBevcuJIaPbkgiRqsMApzr0
ZMI5WrS4XBLEma2bZNo+k8GogSPBFb4yiInlbdLQcV7R++4uWNLqB6n/qfptrPLP
PnB83v8QJ233ibaA52VzoyOU9eGCZ+APEF5ih+3qLYOEXuUsjagXunh2uZfYDtLr
4dTj3+GavgOrEJvvRW2mIrz//wu4Jkeahy7uSwTyUTWA7pxwmiQhIzDkh7+p0yXC
RMySb8Kqlhxr1I4Mtz7ozW2PCNMZDMUGHLHQ7yGbNC1+jnSmpHNjtIwK8YEbBOsC
9SawkVn/sYQVAgmFrP92O5kBX682eml5GlPaNDEOHRrdSId5OcudTbj/SdtxGL0M
ZKKUSquR6qm29V4EMeyiOS+7YjU/K4OTnO+K+Dcg+oKmP/DGeFwGwNwtM/uv3uJf
R5iL1i5fxwx2Kjt+1Y5+1Ip0uV/SdoVZdJyQUU7MPe96x9HhM7sUzKb5R8GFAK6F
HaDYISKYf+WBMMuHMly14vBBnmiB5J01nHwP5MHH9ZDNPtdu3zs2OCNn/FsmYtyG
+Op+jYdvqXh/ZjPy5X/6znnON4VssvjLp+YxRQjss1n39lPNxvcgiT2t2ndYTyrJ
IM1zQAN6nN7Ix+/OJI+VOu+WC56j66Bbwm7MDubQDldftTbtEEyUOG1Lr66guoy7
k9FDMVGnbmSy+5KmVh5LnE+yqSOH48FiYbshHyzJ7TAxFZHQ9FSmJ07sUQfvs6Ec
xiOFISjLYRTHp6TDC5Vt5Hk5lNxaP1vga/1H5XbYQUedlf8iZ81L61eqwdfopCMy
/8l8ZWF0gPE70ocU1+sBc0GmrdZ0T6kUsqFyhRQvCVrfRWqzNXnpb/hjPdb+9HTc
jTn57YLFVBEBQozg3ggv6AGaZZvnrfcVqZz5/ValPswo7wHOlQ+Q9Px1zb8NnjdH
+yeRtpZlHQwCutjxVV+uBNs7t4/ydrTycqelNkWDWIb13LR4hOJU0oQx/lz2l4s6
P3/oPbsaoLa1r11RiY1tjtqfsfQ4IVdcBZqzR3HEPAncIffvLMd2jJjyQjQIQHMn
569pteJ3m6o2tQPXJhbK0VQFx9vuYeX5/5s7ibH0dFcbOvh+NrJSZoajSNh05kDe
JRu7KZt+0/GyztQw+cNgnabrDbx5IwZeMVQl6eBVy5xo27bQ6rShlsJRlaxX/O7F
7w0NqzKC8c6zhV4jrp8JhpYqb7RM5lyTqzbWmywkdW1LBM0vrqkUPPFQty5XOxKH
tNupUi6nNLE5JjEMlaKTpfXstVIY3CLhAtUXICEXM5quUSHGIQMKBEPSKBgsDucQ
Ko3zfc/WnuYPuLW/vIaNGjszw5vQUaRoEOm6P4MQ18m0rEy5xcUAAZ/q0qAPLvkc
QvkLnMEGvzhySHVbj2zfXCBmT0prHR4dAHCX5ndMCc45R3F9rXi26FMyOAl6jZcg
szALIgXfKJ9alsQfexHZzGnJs3xYSvBcapmMZ4ZugCJC/OVXj5k9B6RDf2enRTco
mbZpZfboeX+o4WiqnaDF1+OgttcfVNDhlX0mWZIJi42am0QqlImCs5kOBTG2rLmi
ubeMDYfsVzKJ4mco9m8oeLpiVGSpOeOF89c37tv90XabnovNzTWzShIG8i1XtvyY
tr8ZBmH7yIbUvhmmRVJD6WTMFngZ47cRHuKEFLf5MeaRKseKq+0Tv68WczCFs5ZU
LsDOUNpYPRUeXPKpRQ5E/lytuMvw6U0H0qwTomalgcAymB9a6P1IfXteInIXnTX5
QegyFfKKYzRvooN1eY8DQm2KqQFnbb2/SCVBl1rJRKXFEEzNKywAVyacB6cuJizy
o5wqvZuw83ca6hirZzVrF+Iz9LCTJ9EX8I5Nmi+6gNk/C9oFlfTCzztDlLmFaTKW
X9hVohf0RhbwGPxz0R8Qirq3C6pj5/RihFyVA6YVFYvPb/M4HxFrHos2fYaJoyxU
wMVZydexTx0zcPNQRzNwcj1oAyrhcybpj9DOIx1VowfqwD90B2dVdkk6gpwRtM2/
NAXBMja5xVCpM+C/0W7Rtotg5icqHS2oTlasPsye5pH1E41/Ovco/BGBjAEvvBsh
rZIvgsFVVpyfqWsN06NpiqZQetN7I2/ien6ET1bsecX8XpYEJi+NxsTsVjMPUEtH
lqaFnlFyoI3akdr6RjzrTCigbxsn0e9wKFENDmlWxijLF+otFoB1e8by2E/22m4w
81jqcrv95Zx/UDluBxtaZ3sM/NslDaoHfF1tlHJv8Y/tiyj3Wz7tywI+KnuN17A+
REVvpXsMJ/+07abAgEkQYrBK6gU7oPri4CzpHrYKC8vK3h/wj3S54Q5tBQLWbXDq
Gc78ZPZpnBXkzVjK6jhJigU1XYh7h4edU7ZQZaHHA+5Pr+PqDM9Xgcco8SrxnDKw
GH/pvwKHki31oz8tOQ16b2lVUCbrA26K228o4FspyvrUdpTOutkQZXtsrhqo9Uct
XzX2Z192BoWiPchkrF7wZcahRxy5Iu4kQOnXVyyVx1BU/SPLcb4TrLz5sl31Yt0g
3f8qgsmBUANcpgc2a7G3svAM1iwy7xp66cdG2mQgB6Br7fQqEZTSYHU5/hlV9aj1
cSv8cKbQjsottMP7TkTum24Nhus2IAiQFAvP0MoMfKwJ+UoX202+tPE2LbH0OOgm
bsLMQ7P9svCpNj12tVoCInmt9PC5uAVkWi/D8M3lb+kRxDvKBf3lUQaVt0JjVyaN
qlSyCcqIQWVjyX03gMKpq9MuLprofjp2Tiq9Fd7iMBk6GHRgb0miTa2OcwpxLv3+
5fEHJLZEETwWOOHsMkoO8yCyPI0nsH4tqKCzeCwX+jqYWJG/8zACtlSrNfB21BGt
497C209K6UBEd3LptCZnT8BLCldNIUSQienPA/tR1vtob6SFGkmMm6m57z45RHls
pK1tr214dnuj4LY8UImbgBhV/LzcSnuF5F6aIhMHARj3Ix9HStvVpdHiY/75fgdf
sZe/20LAf1zfL84av/V2Wk981wwKxDwePbbVmSajoEOcec7SE6Z4M6nsOvzV8vLs
oBpot47QVU01z7exx+OIDuPNoI+EQibXYHKmOUyNSpPFyKXcQqpani1G19nDQVUE
vJPA2sJWSfeoIb+LuAfkLz+Q7XfebMIKOH+J+df3zOOYS2pzoj7homYKUQ03y1Rb
E4uDuuzCnND31/RPM83S+MEc8eoOq1iVA1khryQz8kBnyOn2r6qP52vIXDfPUJTE
eisoZzTVl4zB49PqQZqagCJB0ndUzoXfJ75udPbG33ja5OYfds2+CDMuXZuSWmT3
vyoyEvMNnNyxXOojYVRfPcyEW8IjKWfL8ms9kCNfB5KTReLV15GcDmR7SQyr+lPf
e+4sVsZR42NFUkGDFODNJJfU/fztvbl5rGPEZRaem3UENiE8goWejp24ByhuQ7HR
nWIpAgUv4vtrJZI3dNm749crlx6WurcMc+HDSnD3eJAwTIoAo5JO1CRmtgFOEdwX
agR/AfYnroI80fcsgjscE5kefvL8/K16FWjP4fxBBsmYFIr1/qnFP5BlaKl9cJKy
nBhx3P9SN82N6H8juxVlZ3wwHAeXTx/GC0//f1U1+UXrL2splx2nWiCPbBiwv4R/
J6u45JiUtPqaO81uKxbtwHOnUK33VJxT81JFjjjErvLaLJz6UBzEjj1uaMtg/i/w
02sdsJws6Bu5a0rwCgBnY2jVFyJhG48ZE7iaQMkPhSGGg5JndSiQ1Dc3tQ2b1Szh
iAxuZRiD1NNPS2a/1pgjP7ceSGoXiBdW6Z1XJ0g8I8MYc8qkzIzYiskQ5zN9yDgJ
P2kYev3xDecnW1+OSJrl9YOsBMm+dsFdFZ06hR0/1saV+eIj58EYF7Gufx5evUkU
lx1LbQ96WJMuN6mf00k9qDEOOXe1PhratTFo2mIj8u7ePEuga8DsxnmGHhfQq4wJ
HD6vbNWlNetjhi6w1z5Bap77I/s+YUkS8CckAgLvVvda7/DC+hZ6H+mIF0+Ec4Qe
83AxCJ21oFJXX2ezTMcPk6Fa09QkcvtK5MEFlMXtl8ZGrdoPFNoculqhZcrAM/p8
G1u7fLKZ2vEbsokyz5yHpuRL1OtZe5+9MrWMvkuQrBH6h6pn0/1Xpo6WJCAFZjwF
Qwins2aARYov2GenACXfVaNv61xdJMUX0lxWnXjRnrF6NPD3Le70myfjpdAZFV+m
L4zJqIa7UcX0OfrjVvjpEoX2Q0U6q2wTcOYk+jSVi3stvuWath3iP6oTARj2qffh
PXdwCfRvXUDRfnBGJvfGEq9RG/y4Vpha4AB4pqiHwFMkzOTGAszXv3uaPXyWyCiF
GslXuzqDNVvse4nhIjXbwdCdgC8/erNiKrLr2Y1tbyskITByIzHUnARtQGeFVolk
18gXDPpRKTkKySBQqOMUrV4oq7UgF9mcT9LNgloU29iUfyN6vujYQ961JesegV6x
FHw2lLq2zrkR4uI2jjs7NAHUJtxxIrJWkp18c6xBhYio9HWO7PanXFsm+Kwm1gcw
wcTB6+hkMcjcISx1YObfsGaCUSBW25Ptl7YxVLjQAZsPh0rvxs1+aMnN2v6krKvL
pOyNpYAh7RiDTpW8sBXUfaEBTNT3wP6MMur6zGKHpYrGpVs0DduSQeZV9mdmcgQu
Et1TsROob3pmBoga3B/RpidchZDfNUzXPmZOdh7uBGbxvEvQzzs8YoGhqBGS21yt
qzm7Ye9fe/Zf5DTSoQnM262npIc+bWTfOAENgtzSntV37puNHh1DZEECncKNkDwq
vzNGqExP2s20EZpU2sF7itXvPn57MMUdq8SZtlzi2BgsLPMzwDMU/9kanKR9Dh0b
2lq1MYNGgBgHAZS+7IZwQobnQIqVnxv7xUee0tXJKAzlQk+uquO+LHx2Ino6ydrA
6IZcQkdvlMy3ToDDRcS3tX5ka6RFhnn5r4M4atGelgakHjasHOjN0sa93L1bn0RI
aOIqaxknHpW706jHK272ye7FGiScOU9VxoviuDXy+u5+AytmM8pGCdR+6g9TSC4y
SGXesroU9dy7mI3cKkVw/ACg+CsXSBHtPezUuzVNJnAlc/+ytcxqkESlWqYi6DYX
WQWG5qhTiWu70TEsC9LcVUQ1s0tonsRmqHEEohMHmisYk2irn9KjrHGs3r7CUPjE
ZNwHcdHIJvH5l+qhN0uJDqUbg18hxOkMl2vUK2OeVhMILPn0CGZA2pfSPV+QyHQj
jm6HdJ/2M8igZ6Af1cPxN+b559siDDKegH9naz3PSbuXYn2lUzAhaNvOEAIAeEJx
oas8xeig7wSGPGcxsr9HG2Cppl8CAZEhhZdM4+lIdWAd9uCaAL0sqO6FeNxplcdo
jy5T/wPBghX39AwRxm2GrXq3VrKpSzYDfn9q90IhqBJPuZU5UB8q6by0u4z69tpo
K/cxlA3FRtFzkjKKgqdvNJO+xtuFzwc/DFenD9jO+botb2t3D7phKgXXG8CG04de
z0wnWmbgy3vjJIwM1F/xeJaQNMpnbqaSJM5Ftq3F+SzkljydtuP6AlvD1dzjU81S
jcmcbfodrfkXVqS3ZxT73TuQsOWL1PY7vCR6kI2N9rSvPe9Wo7DpBOnb/Ytjb1kl
i/hf0XMf9+kKo8qpN+y6xXbDDRrdcepa+iXCKwJlee6Uhmjd6L1SMINaxon3O2fM
jQxEPc3+bAj/7Cd/jPK29hvB7xBrh4zb1EwYZfc/NXklA63eudIbDr5TrG84wUpb
xafjOeWwFs7Y3GHn0Et5KA7UEuMrYMGcJBHvdlt96Pu0VnHX3aHx49Tq0s8FOafs
ZhOLaWP+/eYMOtIlxz3aXwZ6hTYnQ4M3Vnh4KkpcSHfCXH33ljz27BBIerJAmwjb
7AmaY8t00BnvbtfvvPQYI9YII6EoMj5B4L5qHryZHdQcqW0fI5lWV3Sdl2Vd3Cnq
hL01yjotjj+6t66K41y95r1fODdakNxawI2FXcaWNIDADDOeQk7XrC3KT2z48JJn
2LCswAvik/pvfUXvThf5jXvavOazLlB2qyvIwo1+m/SzcJyuoY87Ov2PzWX2XkGq
vqrQFP9A9p+hesBmZG9kw9wN++1OwtDPyMLWQ45Mp1EAaWGP8SGI2o/kEP1Ip9vg
fM7ekGKNnKwu9Zfj4uRBr5mEEH56ZmPnrm/IG2NwSlIBpgpWb41rDjwv5ypCTAWx
SYwmikTVAifXWswCm8A3aColsaAVW439M32InFxseumX0KfpGBXwvwK669sE45TH
ofM0NrxaJ4qh2KJeqZlfekHWJhdh0tBpeRKJrc9DrBXpnLBt04iSHhBUD7496GTa
/ZjoF/0yzrGMUb/nDBGFCEDmu4MJb2nzVdBiGPBf81jd/gPHOOW+v7JgMgmFEv8G
vgpyP8h/DCbWs53cXh5GodOyWmOygxrCqWjHQpX0gzvWEhXZ257BM5gjiEbLiCJ6
ln140XP7eoRXuPNPf77OlYpUz3FKRUVN9n42s4P68Zi4fliyENc8GbUl243T9UZ6
/HvY2ot3Z/WmrYFW5Qfm8vhZT87dhMea5W4ZJlUX2hXaT5inbfXunF3kachbvxW6
ZlAMke+lhhWn0PpaH/ocoSdyA7+wZoLvZ5zLorn+NSFoJl1G/NAmdj0mWXZHRU4c
E3r1fQ+7UkWy2Z3ZUt0ZaHLqWxoG/Q71UtfVLRVN6GUjLMnHXZbeMbIMRE/XbZ51
BHgNhB86eWPOZ2lZ1RzPEVK+KYqt+feiSiVd51OnwvpHqgOO6jNIWOHBRy2Feb0I
X6SO5rlyblvESM/lWBOmepev8NslP2wgYWbdWi3M9eQtohU60WlQZiV7pZKY+QAq
rYtfEV4ucQ4wryIAgQyrZsugHM1xxIOneIG+jjm72y/YD5U25b9RnxkhI59tOp3z
OdpV0wzAucf8JzsJxgc2hS5YAh3dq0GXpUFwnXshX3oAF3bS0WEFlCj1RQ0ccawC
efPFbPDcu4Q01Mrhb44SPRlgpwBUUfB8q9mxzBlvh3Al1w/jT/pTq2eWJ97AqRoK
xmpCk/8IHImJ26RBiLce8O22CsaZHLnn+NnFjGbTEOiDoEOF8jAC2dtljt+vtVgn
tO7OLNKiKePijg4aiSZ9AkFWgiDm0datOSU3LkUcoFpFvYXNCgJR5ICGJeIdzO62
/lM63SwBZ6LiZUB0h5cyvC7xtf1QUV4DaVGQeqS0/uaqLIfmLui3QSQ78rohxfBy
qaPssqQQjriPN92s4rtLEuotnrB9Aeidi4MaCrVhSfwNRFQ7UqqMzZx6p/hAwkbI
ndoLuZAMycfZaybLSykGzteLnQU6sjPrZIyaeNfsZlrqfbfUxuHgOohV3cHDmJ1Y
WXq805r2safPgraB4PgtJtZeSrpsbMv7pNZ51WtaCNWBv+/hYX/wftDKbp281A1/
xUuAJYd85lcVVpbh1B1l9ixkFz8nSkcvomeGC36F872f2gS8YR2dbHxV0odD1FMB
acKuWgHUqrcaQPMuMQQ5wuEkP2EZWnuGuH9F9ClALrlr0xbINf+zgsLXsf9DviBW
fAdzgDdMuY8Riy1s2zgr6mffEmmGjLTMHQka8vGuK2Rxpy0zIeRubXbwuh+H9A/E
+HlxGGPIGoPntZG8ivbjEutPGwJI6hjKEH4w0Gb3u+cA7xBTuk8L64P437xZB4h5
9qcj73lyiCyRV+IQyc6dIiLJifgcu+JBbMNEZZ58N9yipO3VgfHJ0ZfFkm0JPxFr
WGZjVjd66hJ5UQs8TezkEtX+nUpMMSGuf1hILysI1RGK3E7uOAlAmwmqTO8MuwXw
xXl5+YtYNg4NqYxfl4VMiIdnKn72g1Jm7EsqU7+s6qbItM2ajCf1Ni//3luMYE3U
2OyNLhSSVVWwotbqkjeEwtJ765iR+3NJ0I9SzF4oz+6zrp7ZlzElzytbG4mXasK/
AVtFFMFxsOIrdPvU5eJkDSb5+rPLuUrvHMFveidUdtuzUEXW2cJZs9Nj/boRYBo+
diM35d0tmo45RpBVTmNGlGmoeN1ONG+nQtIGU+FCU2yi0OmJpvSuJ6SOmeTrxPW7
HYJmj2CoJzHZd/kDozlwob4H7IWRGbax9Z3fLmVXvqgnYC43zsbv5YXnO7zyweZB
SyHDX4zzU0k6qv01LmR6Nf7vnRE2TIuRa6w52+l+yN4ueeCcYwwoe4GCegyZ1/nM
gc1KkiMAgR3q7Y2nKnAtThozpFAYa8fkotK8QRdkJMrgsR4M8djiNeii7XiLjEwd
xAD2WZEqf7YUJolX1C/YEozMgIDcv4XVp3PBrc+pLDgPp1nKgSnDUW69diHN9Hdu
NE8/DvuJJ89Zpm7YO4X9iYfiMl7CQgZ7y+VFryYMFKOMz5M1sTpCV0TU8oZwnX7G
tKlgD5BnfzjN9/0KBYMjr3Y7ObIn+p5BMh6qBphbOooLvYrH7mAAjQlEiiouQqhW
LQh+WUCZXP3RUZoONa80AOFXsINq7DLH/8C041wN9lSXwmSfztw/fqQEC/bLxfr8
qMZbeRYYmE+hwIcppBV+/TvDtleGC2ZHYyhnmBi+9dZ9WsOAiimTBw26Wvw3UqzP
jBdGI+3nLsiDn1Ji0gDX+U05fVE06111yk7JO1Pc/ntPofnJCX4O7B/qSS6vMf3Z
TAuL0TczV/DpZvS8WM/hwGNXXN+w7C7Sd6Gc5UxCEpYoHf0moETcdHrWUU7HZLR0
fKJ+/w+aFWftvispZaU4RAyYh1IgjxJjV8EEPBav9sj/7XT/spRvMbu1LjfGxSat
BNoOPT1pE+D65lMyCdxYo2r4qiEco/v7YA+8yw9s2+iNOwDBevX3GE847Dt2PHnP
CFqgJKYwyO+RNqpFxcRE01/iPN9tOt70snXhtR1BC8NRlGXygrh4LkXG266S4rR+
mkH9+tte4KgcZkRHlf0VAzocjFZhXrV/99Ttdy0f+Ia/5UDs0+Xivq+95u7E64Ny
PGr+Se5exEYtV+e37aMJ4Ty8i44Vi0oIhMU+WlZ4xsu22eygjKyJNwPZXggoVBWW
5XOak33LuQxhQn0COvNrckgeuFeNFbsr6WdJxwFNIr84OLV76CsI9jZKMg5uhE0s
EP3HMG0vh7DOjsHPHjmNGnDd9qgTEi8oXCQAdq7Jx5zQatyrca5jerVMuwnLk4M7
s75KVjvS5LUyiVXgZlJwMN0THscvBZ+yHDW1VuL6SFmmLf36rbY9nXufDM69x7QK
bYCVFT2oO3yKyKjRucBqIRPwaGhKMgktzzxYUHzG2avlbRPWLvaITk9ylKO0UaSm
D1SR5i8mf528PPAQdaYkV8p3OJMDtAxUD32zaisQrHQgXGhnE2k4LTvJWNP/+Yp5
lZrGxvA0AkeIboFMNQm/CmstfogQrKAAryZs/M9BmzThONONacdaEXq8N/EVp1hx
Z+9w8MijaqjkEfsdJMs5YhlC9jOrvgOWlRckQkIu3TmuYZlqEnaFjZYz4U2FTxEy
b7w/XzejphkzYidi6J0hplO5LOhI+PPF0458BWeCpkp8AdC9+5StFGCuQBK4ShjL
YT58La1mfhZ6/V2RsGbkOZ3zDhebA6pXEW50ktijb5J3zJZejxo83XJ2qFC4HstA
EhUgzwKhvgWcd7MeTSGl57EglG9UfMaymrdsY90uw3IMSvROnefNzK/hkig9damX
vybBF9+qdSujkqZYJyx9K8RaDqpg4gDMIdXiWlZrT7fwycWfmZuKWP4fxns15PGz
lTHxRUJhYpAKnAQSezKEW8zzmhaoSG5E/a8vzPQtCLyd91qc4J0Y4UHFg9yAWCkj
llUZzrHgQk1ZXXq7CtU+hx4LNLl4Tg/Gj+uTtzlDzjhnTWz+D3yetz9M16w9ePUx
XzL8qy/tdFobY4aG0BU3K63V9aKcoURhu9jrPKN+I5ZS9baGD11Jr2dRhbyv9bAT
9RTtpcXdfrdQRnvdkXnikHajUCyqKsz5nFN08TbFmbWiv68IoSBUBdNRTkOBvA6n
UbSy0ENC7FN5HYxvoTGaVXQEx+OLz3G5sN5kCLcvZFovGkUvq/fdg3UXTJVkcX/i
In1PJOwXYesuQhM+8olgGcgXxJ3LW6kFwJ5K2eZO0Fy6v6PwISbPLWAZrnMs5efa
oPD95yS+/UfMVbGUih6PgnVPBvNZX9+j/Dx1+7Q2N76i0r5DW/7rLDpzaUtBMvsU
Xd6v03zDEtrVIyUw6zFpVClHUIq4bOhzsJPhxQqFq0rKE926CjQRuu1gbCsF3ZpC
59GW6ITa+byjMvNQoVtd6RgHHKSBe0lo5cP/Q+ukqXOAoEp4eATbZ88TVUyeR5F6
vACRKTJlxvhjs5L/qvt09mr5px8hjcjyATBi9aYTb5ds7REh5N1Op9KvBBd7cr/o
ob8lAhB5pttXIntLcyQ8iLsjGxg44url4aDJMq6V0xJpSPwAi9NZobw5POQcXAYy
sOpGDJ/HXZRIwOkTCtE1wpe9DKDXQw+Gea2ymA+snqedYSS0zmzBuj+l2qmgYspl
383Mcikefh0UyzziUzl7nvIbPr7kUqLgr86hiBcS8vqRRuvR3sewDL3NfwFUpaY9
V9BJHXc/+plGrdHYBKrsTU2gRMv9R3yUVtTpmpBMZP8mbsL1U1oT8mZQlB73Ko2Q
2+Ox+V5YxtcL29IyP99ISpUnZTW9mU7sHv9X0JdBZNANxJu/NSJXiWNkBkX0ne2C
oMCXGoZZzMwA9ApQk593mI2UFN3KKUgjrtSIuWwOBwgZ9IH6AYPYThAbNFreHZIp
rkEKps2XKKbX2v/GPQ0VPtts4Wcxb8M1eAjBLkOqZhXtWf0VjNz7iGH7BapAWdIK
tmTR3FrNHRmXc7oznhIVFRZ72UE4gJyQu+hSZ4/Bn7UyNGrIUC0ZSJyUeHiHvWR+
xjyZeu7ib7CrmHJAWo/rAbjqY/Hnd7fzO31fR+VusMx2/B1pEJBTVKC9i+9+nsyQ
a8//xoAia0Qo6BjaKV/HwMj8QrkGe+b/M5GLDEFRnDeZze2wJ06MZcZQShXCGwlR
ceENOvOwYNTr5o78jAFvOur2MUwTUxXoMP6udcghgFhwmvTV5iBXAshAEFbrw69R
sMKVBhnhhvLAefB7DsFExt4AYRT2B+YzCmHBu5N5HCXzXTIIdSKbuR0Rg7pyUlSh
3GPkMWCPEv3gyJv5YckSXwHdC+5v7OlB2NPrDlkgbduPOcVZz2jVXdqPnQ5kDM7+
6981CHAztjyFuRbRuXh1hMpv7pihZY4muN8M/DOCu+ZXBZI84h2hCBssnw00eMBQ
ChmeK4t39VCUgmN44+wOoyHeTwOWkKAFi8poHRdj0yLmJfw8rToIngeeCdpHvmeV
fxENnQo6wt3kjK7QM9N3M+m9d/19Xyj0SJAckXTYQD3ClI5LSH0YkufHhFKEL6Rv
ZgYc9U6l44M3k1vhayi3J+8qin1yS7EhPC4q9hzgnRMVlvp5RIOa0lQfTEqqDsoX
m5GZgnqXKuNxMrRW0QBw/pfwb5+VoX1L0tqGRoYcnpsQvy5ttNRABheYU1UK6EqB
ZFUiUX0S6kDmGkAXbeIYssscTkqkSZIs6x6pWD+oRfTLlIG4FuhCx46tsI/JHioN
5NBcmzSN5xvtcs43apRtWX5xkfXJ4bAqTEVeAUFp4cLEkr3Ks1Yp1WU5ZCWr6mmg
/hOz23yyEGILF+hexV8PZW6MWIOqnEMyZq4f7ZeoXnCUhSzgrionxjeY3FzdDCj7
2arnyNMaEEAaBV8H+dBNCmpoUavitHm662Z1rGlJFXetiaguJohD5NgChngZ8ovr
kAFa9u2e8KA/QhBqR2qUhCFTl0x0Uf61fbgICo91LMmoh46B2cWNLPIlM4Tz0luI
lK4oK2ydazBFhGBn3K93PcO0fhydouNviJT+8VWINj4QnK7j4Io5KJgUQsf30pOM
v4K9VLgT9jMbZ9UQYlQdrgHB/gbVX6Z2j01OPeYWswOgeRBMSSTto3921tv7JLa4
ryxZ7IFuGPwCuNpgU0RgCPi3cL+iDPbQo7l0NMU9Q01q5ocfEHYXP0D26S6lre9c
8G640D+L3NWe7sD9H2F1lhNuLFaNGcEMhGyn8snl9D2GUNu/FkCLfYjOHgqFRN5h
G98F50d8N9KlyskU4AyveRLzCuNivYPiNrQzxkJCCMrUem9Ohcsb0npGn18e5Xj4
yUH5yeDVsMIktCSmzVE0bAoCs11ANPahWAgzgXJWzgQjCwgrErJLDFJ5Sa35Zbke
Hx5bFJw+UjH1npAi55c5TGNydA+P5ZCHkwt6tNSNgMUAbJ4fKIs4SGAUvrjzjIIZ
4yfsJY6hOUMHqXCbRcYdXsi8E7nzyp/3xfIdI2PV8+7HT5AAn3gagQsl/hy/vY1L
VxCmlbQXjfSY/2ixSZOw7pIZ2BeUglSJ7QqpRrEj7fktlUYwpdHHTq/NSWKh4MKZ
6mSyCjS+JbCyBqpFeKC/LaECZHBhiNocIRBNcn1eC7Icvkw7P6Lz9YmSc6pfc+Sq
qwrIKkqfdR89ihNSiYC308E2hT5lxOHPjOocgg3HyZNMsjXYNJ0YiKsLQmn9HeNB
9VdoQHRdPPBwI/UmvQfMH2/EZ/eYOZ8ZfXvWcpxXCjYhnJ+45IO5dGob8cGcusWO
s1w7nvlcQZxh0DX6GSGAAibtzqpHL0iTj0TgfzULRiObxuPI/Qw8NT0xdTqYXGfJ
gETNEUwJ/5oTmgJECzBqRhHfOJxX9501qs+nZCx9tuvh1A5Y98tWppyzao6zCxSu
esq1fZ2hMVQQmMUQx5uGMekH2BwMbUfHjBhwZOcio+EaOm7vWEIYePE2iN0MGyHg
xjiCTFcGGzvWohdCP1IWPRfeOMfB2bYgxdi2KVB+Ca2nNCDXLNm6sb+MzTnB55zx
BJJwjQxoi2uPa1QHSwntfcD6BkZHe1KB73wCtlIhmiipwrURiwDfMFSoBD5O6txB
X8Cs2w6posXNK8psdp++VjllLnFAzwQqr3q5nao68hbU4vuk16JajSwYrS6Y4jWc
wPohTP4UZIjVSsJIQcpCKvaMIje7wLNtGC62f/gnsKWRROsKzZ85Or11AMpPwWlA
ZVV/MNwVg+b6vJvEbtS/ijXfTryAjG7EhHX8eOYx7fRNZ46aJ2itfUDt6oVHOjDr
eidDwBJ6D7yyhNjtpua0xYF5n20NTZXoRklky95/x6Kg9wK5YkD/Hcijq86BtW6o
hPCwVXy7eg1WmyYP2gll7osIbogQBII0l3bhkzWTx3CuJa6NxfJAI1W7BbzWbEcx
aFhjKB4sL8Qh2O2ik+IeeD7FTY+TS/5Oj/IVQms2eyOUPOKLhyAuYbMUIPtzlQp2
heQQnubiI2JGitzwVCQfMKRRXKnTbU02oN0qtNtxKOmcpSo+Uhm8J0LLp2+RTizi
UymeoyC+riTRVhteaMe5vzaev7eIfgitcZ1luJwDSxV4oxMSrA2j5dmQQsMu3Try
1Wnz9F0S4lCkXNb6K5Mmvaj1TAbfz7ZiXx9BMDzKCTK34dCmrGfIRaMcnB/jKwWt
WFa3wl3dLMzUdvsTgOpVJK4pyrnPWMeM+wxU2iREhfcApgjSrTd8kyblnu04HQVj
73KYPOBRqJQ6nI/ZazwWP5hXFowT/CIw5ZqKaSuO9xpDXgI9WhKl6wOuNfp4FN1i
lOjEn2AJei4JOXDden2cMKlZvTzXF6SQnUyOWGRYWWA5zxDwfIa3sFpJc65HKbV2
MxhtlBFijgq1y2oLM3C5ptfobdlKiAotlB9RhQbuyhw/fJIy099djfQ+KOTQqITs
tXIVoAwWXCfEaibUH4p5c3miOzfFKP+2r3/6wu+Z9wEpXsf1m5r/QD/sb4lJHgrk
CpzmvjQvey1b4xd+T6IUICoY03CqROjsDkGJsj85rPgf5t33P1h/6iVPx4Kq1qGT
BQQ4HyFqZGJOMXovAhD+R+eJ5oAapoc54PgArsBxhF9VOFycpYlyLEraWt519Ahv
y12vUFhQHlr3o0Vk6DqzVMI5fDXbcTvoqLsn4J5cjP7uUJHxOK6vSyD9UVE058CS
oPeU4RViTIjaT1eBaINHrSyjS33FuKlEuRxTiFuhwEOM2WX4rspGTqJtwZim6xuW
eY6fJKIJ+zp6VESaur32AOIgi55VkrbKipFu7PmLkXrPpvmXlU2psTmwjdCb258I
svUW82g5uEtT4LB5PsVfQ/BkJhszzlSCll+G7F0Rw9Ui4NL/cjY0dc2yD1lNvBT8
zVpdS9ZIGTNoqjVuvXrOIyiUQyrbNqWt5RJQdLTi5P69/Igj0s6UOLc6tFTOFEq4
d0HYRdqk/rRdnndwk31rfS/rPPoucTunekap24XzIzCN9bm5vlVpFq/ju/EIDZHo
+E5ZJXYZUnN0kYsqumzrzWsxfOvfHnbrqqMyeaNfHHIqfs+1s+DSpi5HCsMo31G+
hJZwnpk/XoCDs1hyN0CXQpmYoGMBAVag2y7cxPawvckvWaNG+ABwbWUTvYk2RGUT
VMLkcjaTYCDi+veyQ+CiZ8Ltg2VmHMpqeGPER8PS03GPcUWHWFBuiRXVWfKNgeqm
gmVQ3H7UOe6VZJMSLryiNzBZwjUREAvsj77YYw+Bf1WkxDtSmOlJ/2O0P4F11g9q
CciSfKVKKciBUyZq+Gj3h8QnZs3z2vlwJMjzBVLSm7St4AwYA9Vk8XqxF1G4sNeY
2BFNpSA9FFegYFPxYRDymO5hK7Azqwvl/pE5yszXHivhxA2CAKcvymXeUtkP+2IV
v6DgfiMLU+j9NLzwSCndXQnRrkyVsfLlxyjBpP7cJQpwRoMZO6DowvWZe3ZOrANZ
bOtVMYdJiGORdX3Vw7sZYve2VyHl08K5LmFi11evPAioaAJZjFy+yWtVi8s09Uzq
670r+Slxnj9FmZfDK8hnN6WmBL+84Nq7cuvEFw69fS/Twj4bvYLVv0EhK01ljL43
cQnlA3bEf43JyxNAB+p2qlLRvKwov8yq8xYC2NtrWKLJPmrjnfUUCbqQ4OyiAe89
bffCtqhjheVRbwXnt9aTMKTKEwxv3pA67Z5nxNGFcl6cXOkHDQdAdQywA9mDzxdP
8XmmnCCy9UFKzJio4ooa1XwKIX7xgSqHJ1Hve4iQOCjQ9wGbzFl7dL1GYEwapJvG
JVka6a9jxfBuRtsbLrE1XFnZ0M8+eAMrzGjp9N9e+Eqbl2y4pPCgUYg10XHWX1wc
UU4VVU/wptzQrl0niAa0P6bP/tNDHfkcxfjmUint90Igp09wpL3KqW5ZXNvxY01K
AvKBdiQOPo55m/KQQtc5LYxRggjix4EWHQRUMcZ9uxr0Nx5gXnyseCddV0ceJd7g
orKtp8r60+wlZihWQR5n1DU+jn2u4EcD3KP3Ukif8++H+adeYbDWJlaNBZLtEZ2c
wakFfpRiJ7zuJ3nNrNuSsjSw2JxsIKvJ/TX386bLnsubI6BgvCiaLcaMjbpM5SiG
LmhqPTKCQYDtNH2PmrTKzrHRpvppi128b7eZNLlNaPN2ahRJGuJqSEW18T49qLKH
SxsVLa2Gvc31OitE2+vmbK6P5xpf3jzwVvZEXUfhWOOxRNNQhFtU+G/6RJk9Avga
hp/eE1/phFgdq0VnZwiPH+gBVfYO/oe/mqQVNFLmsh0HaxjaSEAT3qMd1JBVRtjc
Zpv8rCuPm9YcDcvkRkp14+fpHAvM7O4rcWIFkbgCfiiWy7o1Lp2iovCMkfK312Uk
jd92HgEgEJmce1k0LswbSmUxDkerXEq2eRZd3Kr3P1zM7NJ1GD3gf+MuRUx9UjjN
G23HKDks6dtEZazE9O8w/lVrw5b2bDmV2N4T3T0SigPtPKjnCmPYHIq/QEDJFiFt
UL70CXBjoghPkuhSmIJKrmjaNF6TSDi+R3u1xhuebVFh/KkgDE03+yQlVitamOxQ
sL85P3ts00PRrE6IA4lQFMD33Y1HPtrsyeWbNKTiZyoau8nyIyY9DOlW4p91w0kp
Uf5RRp+BvwRAWQGSi1U+qVKqvV2EfZooWVZeqby3uOP56yelpXLGtb4/er0gCP2D
QeqSXlTXHIkJTSm/T+PsC0/oIB98YzuvUQFv9/wsJaCTR5V2rx02Q2sRbyUONttE
9NDqPcpV/2XYcW+RURA1nBRnOlMjQiVcCK3q0qdg5/EzMk3WBZz9qzSwY1xLvROM
hAa54AkLJUq2VzqMX5/wXMNy1+ZFb/JnW3i0yQR3cQYfKVL0SJ+GKHOtlYwvJdqu
tqojX5jo8/3c5MqtlxWxyXR6FwA6Q8ICRVWwmh1ZNKUYRMMgQSTrcykszr2e4hWp
bAnCa4uwxtLvWeKJnlCF5GeXwY85Rn5HNKHBZmH8QpR9gNTcE7ZxdGpslDv4B3hD
pYHQSB7/NMw6HhmQly2GmO/+Qyz6agpM0XOshUNk/uSC8e1MjpokY5ZG7mZ1w5TK
SRY0wepcUsNkOwj8T9uJeoCLAUg4A8/RSzdz3Lq2yVYcIAxga4HM70UelhY5CXRZ
vHrZL7/yAPxjhmDLk5XuMERlm1zZbiRsvO7lobWi28qAvzmNKBFV3ZNByYF2xhVT
Xgt4XZCPkcxqTrTFNCRA8+R135PlodUCFntFumkC/Qh2vylmIHp5oE4/+vFzytVA
1mJy22dVrYFFJnKnrCHvVBJvdymrxjUDayDXyGStG1lY1hu1R2t0GjiGVkAd+ZB9
3s0n6CQwbzECbZyzifJtRyqdcVqjr2hgL5goVrM+BLCB7rAEwVdjq4eOUXEDKYV/
du+KDxuGt+pYuhZo34Nl4WMZjDuapUcHR3Sn80twKuo9JrLCa5bjxs++PI5mZuDS
rqUrEETMnmAjQtOEPt/DiXbGN8iCJQWwaW1fOTz6YOYg7GchkMP6GgvwJx/udIPv
DiSz/SYZ/jUgYmQaZRwPusICE6D+Bb5JC8Sg1MF+PXsAhSOiH+yCZ37ImLo4mQ8l
wS89Vp7jaYw5kRxHGfdqut8Hfk9YH+KO+kH/y3H5Nf+mZG1whPD4dR83sTZjyNT5
XlcJub99dOPZd2YQACZysZVRI1OWDxiqTgMcrovWvWzMypFFL3iyILubYVbtf2bz
u+WT8KNTME4LWLGKn4dVOXltbUNAvMwTuKX1OL6UmPSafx2KE42E9+mT+91e0n8h
vIsyeKbq8vgpWCHalWs1C1tFW+d0l6a2FRFCcIMY91whWY4ocQfmdzDApRZZaThF
JDrKwsx1XTyls42QH3QKh8CNE1kJKAlUN619cmTSzmAl/ZS++fs20ZWLA7NTnJLZ
nYY31sE/nGIzxv4TvXEIN1OqOQMGtNsh6xWq6C1Sz5dlG0VCUxmDKqPSmHatPMZv
d5ssLmKMbjxYz6IbF8lxH+H0e3wWHEyWWOcG5sJDnUCya7TIOtHjAAjzkiyPNohZ
WE5wjL2mZPIdym38S2wTCSVRMymNvun38fiDRfAYghWE7kgEqdttzudopY4b98CP
hnZ5msKlr5VQAWSPxWdN0n8klm3B3oxWnSGfoKbb/ahGOCkkm6ISLd8ipDMd+OLk
0vTiuEaUEVtZxgKMNvAvSySJXRi1vIWB+JBj4wMQsXOsMgyS2J/u9BghCZ9nDJSA
U9tvMlTKvU28hPAgNpOmT2iLdMdKWugx/XWDBtOu1BpRk0vz8id4NXDsUoGTcRc1
hcVEkYeWj8qvL/I/QAdxrc4SGN4WXUrJoGbLG5nNYXPzu7/748/9Qq+siIDebDW9
QesGWoDNEO4HxxegLeXMVZigr2H54LI7J9njBnoBOOWDra7COj4utVx3iIqVjAVW
JTnfuRxnGam8XI6JbTUMR0aoUBMftUH1KDDdH3GkIwORLBskNsvX0YRVi7Abu76u
0w22G4alQx9WtDamp8pVHFvRllPzGI2iPYzGTvW9ra0bdeHYTDiVgGPR+9bXcmgO
RnIU42BK62+KZZfhu37zgKrZ0wdGoY2M96l/Z26Gt1nWYf/vy+5RFbkX7JEDGMp8
uPF0cjJ6OmIry//XlxJDUp9plTEs2V1l6NZ/RvacbXSogz9qJf8I7aq8YFg52KBQ
dgVne2zYiC0HIvm7M46B3/yLkAeh6rJkwm5wu/UMfpjXmzifGzHMjiLTUXnTIuYu
RN5EZOhP6JEvwJwTQeMfycrEeQH6k+EoSrnZXuw1D7OnhtP443fLvBKWaNpiZRVR
xTR04D2FZg0MfXLRaOzFyzLgrufG9Nhjpkvll/veX2UkQuLYNZ872ZlFhJTsIxfY
TpUtFArJgeBp5BoaWpz7TMAtirf3/OKhivwPFnfj72W7tb+Tq2FGZgHbz9kHZPns
CQtUZu8ujBpptym8YXD8TukDDUVq+Z62AUYNBDnlZXNNJyr8w4F6ZnLXbZe+1NLq
oWLs5Pko8D9sleIKL1oftUqG08ZnilbbLidLk4HVh1spsxo7uq6yFS3hDripMQC9
yUoPL/iNBHl9BMMHuB3r2QBjIDFDaIuUKFSIrbyqipa+CxReB3DAl72GL0tWosdd
XBfNbxUXXK40f/nBNXUHeOI1O42fw+ltx96LCxXW1jnPGx1tTdwoaz+YM0IbX2Ht
242aODtE+k1uOxZv+wZJLZKo43wUXtOajRZTyea9xYqZpMax58QTIFRygshehTdO
MXtofGFzPAAUd0xQtCLu/K5SUgGeiFvGd+U6SNyrMRwyzeYvs4K4yeB1EB/nL/fi
ZkhjP+k8SZW46W70i9L4rzADQnNPHp6FyROxXWHKisZoZEHUZS4z6GlcQ8TkFQMu
N5sNIEptwDIJaw1c3Gaen0MW9P8tyS1ltaKjDpbojQ+GgZNEoQxWwaO1agjX/TAV
fWUn439cGIEkfcfVsFcDqJdsy4EFXauwDa9bu3xCCtkxXFCsrFh+swMcRU3Xxc9p
OdGe8Ol+aXPIFOcCJZNWK+UyZ2H/Xg+DaZHOU56KUHJ8/PNdkBvfdhnXFuP0Vfwv
i73sg4yZxD5FVN7ofYemCljpoNzwCKpnLaRiViNzO1XdGPBlgG/ccCvTh7a+8hv9
eOetNU4AJWMSqcmDwCDLzWHivxMPwg9M3TOy5vs+vOgPqxju1df/NCGavxcFSxjK
EOejPAMkpghRBgciCI1NbjKk6adZRMHbbyVZEZ18sHvEDgtAREg7JOsWuq7D6tye
cGZOO/jDUkVEwDTiPH8HzY3clbFMxDldGHhi0fVCtFxHKXJDkioIrnk+VSsMYJ70
roPOwICqJqBLJ7H0Cc5ou26kIH+SkOy4b00M9C4FukdfAYwiYqyT89gGI3h5IisX
biP6/urR9jTjF/KowDGh3ijiQskIvgxZ9fUwqZPimqFuS0EqsT9jd3XsUzN8bOdB
l33/axd24kr3d3nFzRuY8ErdA+Btze3caSzP3f6bmNqQ14jZh/gPnmx9llPKhjTg
gxuJOLtpPr5YzD6rCTD2gwb5FUqy+7cSDXrrssDyjeLNCQl4mTLZnRgPAZMUFZ3b
tZlELCHhnrw5/WV/O0btdGtQD62p7eyPwOByO6jG57+VV/MrYWefWtzM1PiMGnJR
Eg1qYcUiTIGnYkfENUM7uhGIDm8E5Mnpy1E+zBdrNxNZu20N/uSdUDRgYs4Y4s5P
+06ImhQtjP+WDXUFGMze5jVo2WNOyfdySA/zJwV4q5+6Zck4BtObF2DE1PzyHi/h
G3FwUMIjMcKfp49TFPC0qvrzoO8qoT7OcvG6hgnHMxXGzW2fFoOZC9sJJLqHT55c
weBfVmtuokK+JfEREOr/Br3VuztW7lLxS0oeu0dgMQhxpJn0kka33c6PXm6IRUSS
nJSTatOE/PHkS3qZMaaqjTvhpQduecya6RRygn3KueyG+DiZkshRapbElLpHI6sD
Z3vvJBWFmobNp+neNwRi5LCoc9iP6XeO1+EInUYSJKXpdjIZ+aaQo5Rqk3bDj2mD
PGhYIwuN/mpoKFtrUqLM+vOwHYuFf42Ja8626rqzzhUT6wS8lk7jIaOJUQmtvCgk
2VitT7v8MPzy2FgUJNmOfYk1ODqUTEC8GC7+xANqtpDOjfXGoXqbku0jYc34tGCs
zXwabw6sO0kFDz+9OAGXwuofDRj+/CDWsfxQFS74vYXjf5fuFq9UqoKN1wkMm7pD
rQq7+n3I2W6oTJZhliYygRgzDpeYASK8Fq/WS9qrxdVU5a8+l0jxbuPsBt2j6izc
5WXx99+usu3NDN5X3SXEeuUxvl1E5vlYFClfa4Ppl7+QekrDKpD14qlyyrUO6Y4f
UzUXYlxRMnYxHokH2jgBPAx0mH0KPehoTL2omsy8YcKwF4HeovWAjEdz58ruau3V
8yGuIenmIq/X4uMhrNBrze4MIx8A43MWURXD3u1bvIuFjZ7j1aLkvFVL0whcoEPy
GsWbo/qvr2z5uDClN7B6ev5SQ9WVg4z3YBXPDgr4VyM6uVL6V/dCbwrWWN6dXrEh
e3yfaB6H7I6vsnwTyl2MAFIBIeYpILvjjVLsmwAaMab1n/UlSnvmU7vpuhKzJa/L
56V+J5/t+Q4Vr33JOsDGTnQJGhw2X9+XKyb3gYPDPhoR+wQwpCSG618AmWqyHcTM
q53bUfuKHPw63cW9eEdN5m9EmITE755eGzyj07P+C9l7WQaeyCLvTA3v6kN7LQbC
j5tGicWtsuEPSIBBl6IN0fpyKWqPtDvJ5KLXNqD7yA2w9+eoAYIPv8qtn49P4HfF
7+0EVS2IXx6vagi6aTPs1NEy5vbuW9LvCxgkgXY2fGfEinTH171/K6Q0cCgmgBx8
7Sa7lCyO+pVblGUfaSDmnw9shhVI+UAuSngOCLZlPntV0Scy+au2EAZi5S1WxfHG
1/ZRpzIW/9DsOsGTGs9J+n6LztSYSFFzMgwbjMS6eIIyUH1sx6Gswz9JGlDwFxzq
2BjL2Ud6QJ21iUyKYVB/xgURL47jJPhMi//uC2hcZZwbsxFqK8UCMIvZXhrjkOCf
wYl/huP5idPltA1qLN3b+nS7KNRPeIJRR6KoDtGn09ZD16sMB1JDuyytoxEKfy6l
7w3/K/mqv4o9ydhBqysroGTEvtFNtusQe3EGZ0fE73AWdR68CjIYKkD++uNI3ZM1
WqepfWtegqy9o9pxugTfajAvFDMd2cDeUuR44qS+7+DmlMQfbc8mjLwyXEUBPZpl
DXFDRLQfNUcFZYvppKXUFNUG2U5+GSzeclwCkYDuTXUodDTjV9PtJhjziSqLo44f
+hDrJQU1y7zMzAYsIDc4SvZtop/n6vZ4LjB4oFeqTfezANVehB0LpNgiuO4ymxgn
uD6WIMH7WKPslBIqL8ZgeDmNfmby/ATZ+OJ4kBGUlrAGUaXxp2QPhiVItGSqUPSy
AAEStAjv02oK/OrPwgUplfqgB51GTWg6q+v9SH3hlqVmHArBWV5/cnsDSBemfhyv
lkinn0++uVENjWxxwS+XJXQVhXLWVjRlvevtZpUQQ3VP4Qgrn8JJe6H11brcRVKP
3k5v3UgbFg++ABEte51A+xQc0DK8BK1eiaqkG1EohY6chq/BwISXDch2CC1/unuG
B8h7E6PqfScKDT1IWM+mJlr1yzD6y+bH0ZMgOnIho4rVXTH9v+7L8uka/MO064ss
Yw8dAfwBcZPhDO9TuBFutjGZQthg5pDZ2ySpNaoVphxU28elWSgFr1knHxiHjZZ8
I4fUVRLzdLNoutuX2kZ9A3wIyVqegiLp4ti6pKooDC3O+9A4/vMtRll3+O/74X1i
b5kg/TVW6pO6YnDXPaZcJBhsaGZbTZp+rVZ493zRMr9hPVVstdnjLs4l6kRcBo2l
Qyn9p1Xs3RmW3b6t+FJQuwoMVhjWhHxny2YI6pqhpcYRQi2QZpNNfrARqxY/SFds
nUD7tYU4i5hJH/CzUamkvnOGfnRhOmUpMTrGJICN1jaChGIhU0nzvFO+o3zr7Pu9
NtuudrEwbUOUWbkgyYjCQS+I4tzL0PS+r8sqk11paLJQNEVyybAfvYgcHknyhOM4
5HxJ+E6B7FacDK0gy5tF+g95dSf9BF+4jcHAvkMAm4IdYVNAwVYFvqYh693JUbp+
+jbPG0rATsqFKuV7PXjRCYxRLg7cad42It6kNcVGtkEiYduBpecXXx/DEpu4clUZ
QQ+mKAVhBfGpYnBEj6Mzu0XhRYUgXrEJNWalVMU0xTRfG8+wqQtysTnVMfFdp+oE
w9l4Jf9roq7bUKIjExlgaJmSjXdnDcPVJwKA0K607bZtIn3eg9pWEr2VV40qFio+
+zuG7x4Oa7uhu7fA+rOzlWx9F5EcYzh8j7l/KFyf5g79lvHyVr9DHzP7cleKex+C
9aoo+SAo2SUiKovgCHqHVdP6q7xMKFqzWQlzVE+1a6LexY1drPpEyIyiRWwEhGcu
FK41mThaCPhWH00gpVZP8QhUBW1eb8aoAyOHGW6f6cTGS1i47v3woQS9MrbtkcJD
JjpUctpy8T7vsvffRHhCsog7vsJAau7oK7aLGG3t1+FFEnHDOCaPj6KSUmUiX3jQ
bC5yIw3QhqJRk9JkIqXzZB+a6wnmfBgoZREwql+++x3oyOqzRA7/XN8LcIOfGbNz
TXiJvZ8OYceBwXfnDGQCEqvxJZ7uYxdh+2Blv2ZNgKx2NrBTW0mBE6QQsteJxDEj
TsQIA6VAMrMYCudPqKPKSCeCFHZOqEL5w7tolPBz45FpnV60L1t80Le+Af+vUB5m
Dp9dEx+d52LnOwb2dOM3gnLh5h29SPTzQJTU3kB71z2o5YWbfONO0prAeFtVffZM
BJIb8sJNCpy1HRmUiAK79gqY/m4UzxNFm2viOXUxw4LaQUbzFJq1xfY/Zg/KeSG0
Taf605QFqDZkhk0NWWW6oHgAgpqwUFc62qRxMbk6ln5yTKQ6+eu6YOG5jyxs0UjZ
uHMhdwOXbrU6gVPhiVxDIe/S19KD+JmBNkRCmIzDMvQincU+XUQrQJo+Fb033kkM
SsJrF7LPTbAhHuuRAHg9+9hNJ2BtT29Tq8MA0XeOnHc9KDq+ignNfKl7K9oQ3P1y
ouV4rByRt4NNo2bbLPpeoAIionr89jekYyWIa9wxB+DzIb3NGCwr0y8CMmS3t8SI
nqVEjuNNn/ejgfVMHJh8Nym6mbJrh/Bcgiqv/4ZedXlI0prP9N0q8w2dDJJKoHr7
Nd6d97bQvi9eTV9kQ8h5+OdDHv8IDOoIibZSiPGM6i/kK5RjbOYCf2s/MdrO9NHo
wL0OswHP9086KUQrggAkUX9FjFgniv/4CYD6puGiCZmf3E+esHF0q7cQGggWE8sm
EHmZMgahGv9dbbrDO4xbsHNE+okYF76nuWmvwGaB2vsp2YQM/XKyTPaRtvzn8Yss
Wx57IBQu79ffmKaeyPaLljxt/bamwzFSsPYs79RQG1pEzAgkQvWkBgbmddMUBxY4
8SRiV5r2gX93urifg846pF6hUcc3ZKXMZ0ByMMKWqeNKpDm8A89GcdbamjWSy7bZ
tUngqOmYi5x6Xe58WYTnnUrdYs5OXhfFMVRsLAESgsFZcnvT4e5W5kys/LZmkmaP
OhEF6LWm30hw14zvyxzdy70B31iconJCifjH3QL7DAwP9DIrxKfDmn5Vr9JFTZoa
MfP8pgcsv4wAEMguKtPfiQDQHnfFYRolGxoNUOPBP3Yv0OuQ9LAbsWth421CPzWJ
XPySEOfsli8rfNioHuntiaa/T/YgTJ+B+MZ/6EZmDuFJD7C7Aq35EDhJL+JcFgrQ
ZjTda1XW/iHk6Us203bNpiUfdAFPeKX0+VpwcF2Ce/VkCbyzOpvi+WJXWHu8Fgnr
zdpZ/tSHfKjFlj7BCv9z2LdP5j2d+0jeV8YDnTv6+Fr13BVcy9Dnnkj45hHjexoS
2amxc9CZHPpFyOS6Q0W5TpxkLA0ZJ4xgGjc1XMvOjrPs380z6+4dQHJw6h/3fzHy
f4ngkrQGkrP90FyZvn/YTipn4MKjmZ2uQss0Idf3947cFms8ne56rwJBWNz2aLom
6GB4Kifp1Bma/ldE5fpvEdLJsn7bI2spD4wKjQJh760MJE3HL0hMT1uOXcxZWRHp
6g1OgcwUE80ClZy57fgC+Qw8rDP/f4F8/TMajgPKt3C8Sy0qdb0uyuXsV/QQ1ZTG
qqYvG2VfUvAXNEv4MTo2kr3dugyXp6WW/1JDaW8XHhSavgkpSOe6ENm3u1f5+nEo
CvN7PVfKQfjpTwer7k6TdSw1k3Ux6xCPoqdV8/cHeabo4FQYnQLkKCGbs/z5rZro
2bJFyyp/2uZU3wCuFqR0YQLiOsBUHPOeSG/5zCWtF3o49KsqWMk32mNukNYpK0sD
oAmqB1a1KzmVvoBnpNG+S045F3wHTpzQ7j0lNmGpx3duEXFH3iRyFBw2xiAOr2Jv
9lChEtLqsN/MV63akJPOvZFp2txm66EcuCaQI3OUPGaFUL6QAus/CeJckNoxsf27
QQaB2qYOdMbjJi+gmZmCzDDVcEPe5eOo3OLt8jw/25ryQqmLAwKqVqHzwN+MBKHm
Bvb3KQlofehBFXBRgCYLmjgTY+qsoDuBh4gvIs1r+GSgSvEEPVx/wQGQ2PnpyTPP
VMCRFZmGd7TTGUnL0kOKTx/BibY9QQc5eP0J7VqmfpS9F0mTzUS3mXxVNTwMxY6U
r/tVBEX82U/m5/z5prT8gJojxn4dV3tn0Ro21Sqf7BMJu70AXYkO84Kme1AY3F5O
zCyzhtVFVaWdt68GLgiupjYw0xT4WmCFMOQfUhWUklEWxlX1JkQFQq5bsrp9px5+
OeHrrTbtxFXp6daByvPqBtqU4fW5mTfcBR40/T/q5EnGLu7LtvbJOfMdarKKlX44
IP41BK4GacFhX/dcU58gQK1hGo3dIHO/RK9h5waldYiizNsZDkpFG/5op/BKmQ3C
6rIIWGK0SKzV93Po8lWwzN9YP7A1V11BkDvAhOHisqc6xm0fu2cD3ID4IPj0CeZG
1cB5YSUuFw6NLlo5P9v1yXIrbOcdeJCB1vvRGle+y5XFTHiHHDzDuxYiHOn5u5BA
ij+4STWeIosqOla9b0oGLyl/PZF60pez7hVVH8Diowy9Qf43CPPR5xI34rfQwWC4
96Iq4DQjpX+IEOoHBKDwR+o13elyv5mm7IFgFBuSmbKy9OKQczKlXWMV9R9xwZqW
CS6NP3xsw6u+eoiWfLtYlZ0HeD4UYXC9r8i5rVpTPX76WWS+DxC+V2dgSZj8cx1v
bE0rOFjWr0ikLT1DCfusKP7Ci+SiWr2E9g3ZmpJU8UZCo2IpjAi1ycTt+UURNX3S
SKdYZ1Ot1RuvnMkNvLUCX47jwh0zRpoWX1EJELya0skU4yhkU5A4q6Ibu7/pO38o
PnP+GZhRnaouDyPbd+LmKU2RnTc+VJg/5vLZIAPPEAfTEE5E2SZsLeQaNZzr9GHB
HsBCCWjs/1oovZ9PBYhq9A6rAU6hGJ6odYETBQY19JuIJ3DAqAIYQ7oHQ6JkXfeJ
ssvGk9cRQFsicO3F9bZKs31M+hCxFtXjhKPpswJy7Kfc1mkCROcuYJT3CSRyaSGi
cM2jiY2m0cGKr/iZrp7vfrakz+feIWlvesHFPROUdBt4YggnZrpEwpks5y58wMZu
Vx+bTU3nHG5DHahKPPHCq+IGlIWlTRHu+avfA+CoNQH1WD+fEVnhZpNwhpVc2aWh
vY2Y4rPXX2k8Q+ZOiCLMKa0ZhPSFgp7N4UULAGo+sVt2XmvCVIQjyhzyRMrzKNhM
C2lc2GVl/EkYY+FcculsRJ7mZuIWM21x0wU30zDkVEN3Fsnby27MB5dUI/jZlHWW
Gja0qEYk9UJ2AV/5hFnsO2ajqXv13qnYjGjJW3+TkRwOZnE2GkDHF3a4i8bBybpK
isy8HJoMw+Mo1k8dl0QFKvTA2UhyViaTi9SraksA4dYRmmIS6f09+7VOdZgEHEQK
3XqTgl4RhW4hPszMxJcOR8spLOYX1calBp/WSJoNZYG5td5Dde4H4HMBfQxSFjhC
13c6DR+2xJhzc07cx2Vjn2BC9DprWJS6zBkzYBsGiQlxwZhRZClFUAfzTESo6ETT
cK1dHvLcK1qehTJ25OUyeI2o2hoye8ugMZ51JqG37xjwQM+W0a1NEC5uiavdkDHO
UNDyGpGZraGVikuLWoeJtSDf3/RWezfY81NVm6tBZK0kQfDpN+cUxsRcdZfE4Bjf
ev5phVGn4hO5zoWm78eeJdCk0JtGzoR42f/jEtzbGlNapl8o1g04CSs1Awd61gWz
8gn6ENgXeK7ch+hKPuEY4Y71djWMRvpmkRdsTB5BOZkF4Yj0gQmQrQNXAk6CaDiF
LLV7ZCkLdr22otNxUQGfLA3HiEPoql/zmfthGBK61TH/5Nw+cYQrNXDSAZEhWlB3
2gVTKOGuNiJh7kHn3nituwTee4VvRmPn+ZpFEobKs+R4x2cvU/lD9xTnUg61Q+vQ
ILLIxFsWQOAim4jxKdeKRFClqgBldSg8cU+RwO2ECW7oVXauQ5c8U/jiQWAA0uwd
rCMb6/b+pvqmXItTRTCgN7Bg9Dqoz7SmQvTlN/j1z9Cq3+zeEczQ554Wu6PzSV1v
csPnZIgMiy5qItPPgj2Lyl/ySssbKKtqh9fA/wyuFHXWElAtzr9ZMj4vWsdGoKTo
QI0Tk8NwmJN2ZazJ0L7JBwne3lVIr151J9Q7b+HcPa38Y3bO6/LZ7XAno1JR2IVK
ZITdJJHI2LtUoYm51opV2h6vIvgU+vJLSY31gsiqvaNVQvtYoGU/Z8ME68ZUK8zM
z/jioCD3Eaf5CU46JuUTrlqi16dBYZlhV+mtQKvOlAgS76cxHqTYWhW6Z9U7CLVA
hG/aAZ84+ggovfTf3pIZh1SxfE5gpWjOmUiP2GQWqRSatnJypykPzgla7XrO8bix
UesjFYG5yh0Hc7pIl0F/hkhwh6Ac6zEu2jxLNeYGKuoEa34BqJXPWD0guM4B3QaM
IwBJivGQlXgUPS9l41l5Dr+gdwQrCTECv7bKZzGRA41zlEY70q24QD9MZRyBldZn
o6dTqITS2jysVPuvjQnytDvFi3jreWLQDHNdyfRocobh4dn77ZW3JSkfTTz0BwVu
Bs0A7H4TuUstYAX6edqjXEmhVmm14Re15S1ABUM3FlZcrfbRMfH9aBuBsBnnQtuo
tMl9r9Ju8bofemmRvRffUEJjodu7Fg9q+DtyIR7a7IlobJNkLh7evX7H2Foo9BoV
OMoRHPKFt7BsQ2DdjIQlE0J08vfVw/24iPUFTGQVAB7AGG6KoVan23FVHKTMxwN2
RGtjjcGIXcJZlloIP/NYCSKZrBYShQCTVz2+8F3ixfvksUk/gUA3L1LpUUy44cl8
skUxAYdrIVTjK1adu7HG3xzldvAhlM6aDsSYgnyH9HVcQ63G1P5V0Qujs8nna1Jn
h8ndCdXTvGgoPWA4SIfsYNdZYfw9AX+Vsp3GWIFY1VO7wco1R57DBF6TWUVpxCJ0
CXFHItdYRklRA0NArKvkicLskgyls1+lqWYSPSEjZk3acV/253NSK/x+EJW+EyQj
NJv2PMWQnYpg80BtKSwOXM6yjoa2dv8iJTj9gkHU7p3W+8DS1xD2MqAllkAQ8YuI
/sOTGxsBau2EMHDdDXWAraYtXvhrgX8KRTqYlfSXP9bKgzS2JRQl7jTHDqB4mczP
VlgWRBjGjugUteB3zSAy7JMd7RHT95HxFQK/vb6zqj9rckq0T1mfbIvb13KM9uSy
S99zx3zZ6fbld4/J9jzWRI5AHgXiSiGv1Wj0svwTaMyEpb5kytR2fFb4N0EaEc72
gcnlM33RbC0zdd+eFXjNVVN8GSs3HpSE/WWddp7BQaSr29CtF35bwPQDvc2o2ATA
pAXQHNovYO9vjMLIdL6Q6u8jf9oF8PwBhX4f5fRfpb+YbktedsVX5pcLfA8dKLwC
xMipqrZyhGH1j0e4KH2TitGVgFnNdAY1dKqCj3jYde3f+5rmeF5Rl4uZJC0lOJC4
Wg3N1JLPuzYxlfrw9F2HrLzdKaHC9QpAS9xWcEVVzuZQeq8tV4lcwmcer7Da8VMY
VDC9aKUHJ2kaKl9vnzGpGJSxGSGeMp5c44c1E0AoJueJAFdUniVRbeQ/oYzkwasK
666nP2jAxfW4CH5T/2FFd1FD/DSrs4waJYDYfYDjv5K043OIeJqX2Tee74x3h7wH
eeErJROMP26qKBLC1kSJSQvNBvH3t0k4WZ8pYrg6F0WFew1orLV1a01x9V0UIluc
Igi4fEN9xtLRD6B1peDTG9g1kKXTFCKFZtdeKqalZZee0G0KiUhsmtk0ucrXgXph
RerFIX/FLXIfXswlLPV/o3b2Ia172TsnOI/dhCcyD2AwOTO8xnvKl4p6o9MVjQ4b
BRuTIExnSmyCk77OWcrMe8//sdlokIYhQAW033dxDNBXvI4UYq7dzqaaTaQBhtgo
YG2BqTs62OrkrO+bqwnH/jAkLz4KkL28oA4CpntbUTmCbU4ckIslMJXvdq3UwCO5
KMwzpkl+xGwiF7wyn1n00sjuvu91vJR8AeyLozhIXpYqs0RMxE9XDJwwU0vfie52
wsMA+jA5DUdI5xBq51zWHKqbftn8E5QPEDaz93B847GMK4wAoeJ9xqxr2nk+HzcC
mhuAFygIEcRdpWjoQczX1N9Xc/Cf2drmWA+PIQYLTF24dt1IUrtqDai1/lDGcUz0
Bcy0enSL69/uUbIr+5KMoVRcAML8fP3iBNtEed6xUUsq+keoXbk3WTxoobvaxUsG
6kZLxVXpoP8Gn7vH0x9IO6VyKhpUBSsRWoQCAogYgJu35+Q/csOS3w/We2uIquCh
5nMc2oRmhznUNENU+hKPGXJMrZVao6GzTVqlLFLfBmU4zjFHp2BBSZWtUuqabgSF
EWnHzXy29gV1aZBeMhqWDYQw6xjJ0ntABmU12sYtLZrcn+IAgn0aVwWssqVLN2A6
3SW7k+zVhk6AJ44/teh+nSv4HH15uuDR+m5emUkcXWsa5t+0c54x9VLV1OFTKNBl
bsYnghIo8ed00/7+j9NpRY57shMlv1wDJud2QEbG9uoz4tjceM+cknHc0W2sJm7j
okrhsz24mxzQ/pQ8YaHe+Jb/MjMvqbg7lhv2cXJDJ78bIzzH2Smt60ZsnTjydFzb
Ice2FRekQa+BoghsGzFDoVrflzv897xOsGw6FVpivYVQOI2Tq+XXOi9gxo0OpcvV
nVmiQCS52gZPGGl2jLGlCk7hP/jSHNHE4fT/me07FmpoAZFph5QAEaaZDYh4M2pf
cuu9wTE5hkIfe118kfE5Flhmqv00vLcb3uVa/LYGO7DE6RngkpDViD5ZehGhdVt1
WH11IpkiQzILYjUFhzqiFk5ap+Z+8l8+RNleK4ROAo7FNbYvVtB16jefuTrBWN/z
HsDVUGWF8lxoL2IeRR2e/c5JfL4JOxIncp+eaLTFPRP6KvdYaLOgSnQe7PTcIwut
S4YNEbQPmKcg06jIiVJu64RA7En9GC0zoY5yW5MU+i2agYX7bHvZdwXgauyldJX9
1K52Qlgi5bXE/omUJZ3yVipmCi9fgfg3XcnKEKnZ6bPLZY5lJKOE7kdkZaPCcibP
aLoITRi19VPu1PhtXYIPd4JUqVXxlWuL42NW0bFvPMaY8I1qw/ZhYwhiaNvzVUk+
13R28vR2poEAY66G19ebiEUQI7AZ8EU80ZXvijmQypCVAkblECMz53br1lUTjlTJ
oOtU5YHs9++y/jO6cgU9NZv9UXP0RYbQEd90V/s9fa9VdVO5PRkL+QCESCYEW6tY
mJ2tmMMnP+xj6JVrLC04DspS1CIc6sRncGbHYFkhxBDRPnw8EWCucnqt3dAO3qN+
e9IzdrFvEcYiUzceHdxJ/3wyxaQKmLi9NjbeFL31wMtXflsv1KB3BXBdvLFgYg+S
Xtoa4t/kTsa0HXAxxTHnh4WLsFp6nVvZhg9iKOdvmJxXluB/6pBSOzyft/w+/wPn
9XHxm3XxqEJNEt56MPA9j5OWCBSMB3v5OLMQ4ahGE/KM6DKqZ5Rup7Nz6VS3oVAT
Hoy01GmfMSZzpw61V1hiEYV0AK0UUGo4FeZgs4z7HPtE/KFv1ddyS/ZqGiA6T7Fy
cspf5u9ErVJ0MP4gPnn4Nkv7iwPpNNVkXcAi3qIOLGtOFMrk76xRkSdOkL2oe9AJ
GK7ZWF8ejiNCqLAimrGqtS0WNcVeBThoitzH4pPOVGrM/oXHuFT3KEVskEeK6Jij
ixT396kExnouTuKLaTWeNrdmV0fQetSAGfXAx8hkK6GcoYAi6kq7B59LftpCU912
SXy2tMWpkH+YH/JJjMrRJpP7/EEa1qmYhDbQqLO+QAtSzc++Dbq97rLKsDeEiYlg
TRPUi5ZaMUxwNYQsbN3Gl+DskZQUXx9rfLhWGMkT/ZxSSirQWeAcrPA2jUtnUNx+
y0fK/Tav4wUuvuVNYPCk4UMJVptUmYZlCnef7U7xfiQYLoRVxaNlL4pvMq8Ye1Mc
2ppcq62opXcYPzONx+Um3GpmCFfJaYcGm1AE4Txp1KQIQvGQmixNnCQbEJ0A/om0
MggJYFtQV4Bg1JZF2I/LeMqjDAyjCYwVRg5BuwVveL89sUKFq+lmU0s3v+Oj3oTQ
YeMjjdfLYPUUXvZFjadDa6VfjcMqDef9AXnHnM6NGDpiEwwanWegdzlKk3fIHQ3g
t4gFYwDD78Fr9IRAUNNT/iPwrayrGvugkNmgL/7Y/vrFKwGVwGs6tdVFBrWIuGPd
kmJh5W1dSMNcpoEw98vX9+gaK0yzd0tfEQTxr+fgAhcTz+A4l9DD0giqcQk6hYAF
9hRrv4NEVpbRSfOMu5lXcTLlFGj8wTwqkrfV2hmRg4VhPXPWXCADdsY9AeU1LHlQ
ahDgnpQX/2wK1ilxI8NOs8W6RubqjHmb/sPvgwSi2JF9YWsBYk8UBGFHrYjre77x
gFJU2Nd1tDhGQvfz7szX9cwshzcMV6ST0WNFZajywbuLHXzRVnq+QFE65Sm+WWJM
Dw95fKp1fkCu0uWdmNN9RvzhbEjoMQ+t5rzsYZaGMZjE9iSE4i8lTSQpt5cwwGYk
1AbbqAPZ9y7WdpXUVEr5FRDgSNK3wmSADBz2uVPt4xNmT/2sBB5ZGhf8ViSwtr95
g1ixiFWsZenNPxVKX10MdVwjrbJv1XrVFN/IAR8b/py6cKPXUfvmey1O3jrJlK0M
ptCqUQt1y7A65lc4Ig8Ssiqkk6+fLdA7DkhJVGq67Hc3uozo3arJAETlWEUqRUeq
6wyywDHLRNfIm4TNJDJA44CFxQKGswVG06qmGZUXwCCnOkISSKErSpeYwLV8DNdL
aEdcV3Ez6QsKEtVlBxjhmNL00/pYSXOSxiqQp9LoyFb22BubrnkuC8rIwMJDxHJo
qMiupvHlasZRTEIbXMVG4NniFAkoDtEtgRT+1ohI/qie6YRnVuT0V8JpagoxZ6Jj
Ry5jx1TGFUANurZ3Z13v1iOwPDZkhak86ZngF7fJeupBcig7ozrDCl1xE4o9B+dF
rk+u7UUrCzhksUikeI1IZ1Zrl+ck+nRk10yWg9q4Ztq4RPjKgXl+4K5P30KzijGO
1rrKVikIuUS/ys7ZM0KNsHlayA0dh5NA2CzQGfMFw1I+OgNZaZT2lH8+2EyjqNDX
AxiTuIvOtTLPyxFNI4viz61w9wun8ZczjCE7dhu+8vijmB5zsW5stTm2XeWmzDNu
xFstFl+KENMaMQnWYRaKbc9XLxZzCDGDPT0CL0WIcn/fka1wlHrdCp4ePn4hIROO
W0ndVUdyG1rrOJHdn3A77Pqu7zlVbPyx5mDVhZYjQLBytwRWnwzcYWJFGciHuLxp
+bcb9+5VbieBSO2q7Kpqni2j4+ECHFUe4J5GCXnGlyEAydPIIVCIIV7hMu0F6txp
29CYx/9I3OIYNIQeiY2JWhVD/8OoR4QQ0RZjWEgrppwKIWz1fR+pX1B9ofRVmkGM
aGZgtjNdWWJFRkOSuBmMJH3dJaV1q6dR91D8A0KST65YQkdmgmEop+BXGfFoJU6i
cWkOOoMBQVpB00XgEplfJ2XKZUxh64/Ig6rw2G8fBF6LNgCqb6sETIbNHzt77ox4
D28amYAd45KMb//segL4gmv5eAgoxu/c/vC7E/zbEDm2xhM15439zYo5QcI5oDWw
46gBLEFVk27w74xA30yJB9jBL6Y6am9nfGa0kyrlr7izpQSbu0ga4msEhM3tpXgd
asrc85EvVUyxFblkIdHnsfTPGsVY3Vvs50nn6WSOOiI3Jp8kN8MbAirQsoYXAReS
gTlGlMuspjrHmMaAhMaPsKsOpiTOfGtVsR4dLU7e6ZsxBJxlgZrso5IHvXPKXVGT
BnZ5zHfDXn3qmAqTblQhRGoy50O/HkZe5Njq3hGk3nzr6iKVYXowI+Vn6m4IpxVQ
aQz9g8w/P8TAhEYE7AarBtUFWAB7oL9SjS68leb+7PzkgjaTNpPu9Z0dWpE2s3oM
+83/zLe1MI6n/sbGHPgzQsolIfAXkfmW0HcbUMCT1lpO+FwIJEGUazBcuR/QEWSP
nC1NZzqWA6S17jtnFL8Cv0aZWokUeO8y7Fj29FhpxXEHuqFv77Z8Q6eJ38YWMvBh
G0rwK+WHMLLfPTkWm1h3b9XkxZZoAbDyPjOq0Qd0gG2IkSuzqVyUl+NYIzWTFpS/
YqktJJoq4eVRzfOC9seLAxZQSNQmHJPXIROvGKn0FLj/eNAoVSOAp2f0369FYjPQ
DBvlPatLp1kn/w8MXVv2c9xSod0rL4Zz22d/Z7/KUV0CpKFXAyKNufRWJe1OSefk
fpEqaFrsMGo/5t5tOp/Y0X6guIyjiBP/7sGq2PzdspU4EZaYKCbEcqBdpGd/bi4g
BpKou2a13E30BJBtc7ntF+9EBhnxCMNfDWkw/EVNRO+MTfEnPq9rhGOcKhaKhUZI
S+GCB/Oxqk0nUW5ISi9QVDNJl67txqMdpS3Z0szjIJRjdG+0bER5o0XX16ZDO3Oq
7LdyQugkLL2Fprbb4VXyYNF8vaDlk1N1WRujOEXn9FtebWao6NApjJlU3NuRau4r
bBitYFzyUiBcGIJQ3boVBO/FK88TyKnmfkIviJdxJeVA5V04E4v3D3Qkn2NumpG6
I0jPo+uP57jliXsN76khqtd1vMrU4z6dkdmgBMjU0/ZthI7IKk96sLerat1HiOQq
0Gz7XoLSmIR8kQs/xYG+Wuom+v6O3W3bvwJnyzPrkWb0og4LL4BpUimA1FOt64wU
r4oL6c+gMtfl9Ic4LcvxCkVNA/GkOEsr6LWaO3qFkrvtQES/MUeITzbu6EI8ugc4
h2Yh91yNX9PYTV/YozljvPCcUPfsIXn7z39yXmOJLeQ2YQJXM9Trs2pvjtxM8exG
GJwIGoq7Z5TYfkvN0nxaxAAR7sN3coQSO4yhrscnmnEvU2r4yNunNqJ34askNgln
uFgC7sllIuGKVohGFLa0nwGLXLBvd8P4GMa+rD+LTWlqc9MTk3BOlcpgx7Yaufo5
m8KGoRhGXVyyB8KeFZGZLCtBpq4gGSXDKhReQtQ7cePV86v0Zcc2LqCIdwarpHJC
xjnw3wndWb31PUDVCJoW+up/pN7uD1NPfp40yGk3R62FT4VOn2+HMivXcWrX33nP
7ZgjAtpKJmpti7eFJ8SyDc57T9r3+G9J+YleQ+mZxWjUDQ7ApfBWjyTBnwQ8VGd2
TCi1/j5cAX4GJFwOwbk/KWjxwMjGn0MzsIAy/9uPYvrRLCJPb6GDwK3zHyW1Pp4b
wEr3JnqfpPu9ynKLa/gIHqialChtmIU1ed9JLr7drHMimZyl18tHUhqq+iCO7Dbh
veUCs4ApBcMDQd3oplwO+FqVXQpLW9cwFgcEMKypAAEAFcAbHHBLX2f5jRcaV4/H
yky4woUFH6lLhkz6zxbo28kRjERci4euREIDSsaC86W/qDgRmKoeFSP4yqR9Gvwj
UHpNUbNMSbSbAj4dU/HjAYYVFzeLZ8y7cHAeDiAIO3J701YgcyTPdPLRR95rCzxJ
aE6M8pqRjHLZhTt1GnPS4WxQGj5tceC3I3UZAZCESVaY1vtFP/hQLR+ZcoQqXw1i
aTRcSWN1cs4YAB1OtOgSfF/S6LE5nHga1jIH2QXR8+XKwSeuZjER9cGyPIwg/1vm
FAy4SAY3sKWqL+UbEs8xx88/g6CColj32w/hZhBiSeg4tmNkeZj68mR7zWfd65Cp
8VU6EeAl4qEznJXgZUSdvBBDGNxuzp+feoI4zpVxwjJx9hLxuAr6EpQp2hDK7xnj
91Vb2d3NWCr+avXmUwlomPOXqIIhNTQgArT2pN6hrp3iQ2g6clDGjXYgANQ+pX2v
zmLvFxa89cA/yEjdGZC5gUVtDUoQr0kAf0uABXapzAe1Q40N1/7IB5icvlGvh+wd
dhCSXIrtP4yf6jo6KLDlbL2UfPT0YdkYR5Y815MkRmu/Tunrfiq81zKfreeuN2NU
NNois0m0CtM1inj9SzlTWPNYHvvXCw/TgvWfKxrttJjPWnkVWxivH9Ijunqb61wZ
MQIhpW2xrINsbSdhvl+xeRz6REVSIuNXftMzxqSx4gOPhyGRSi/V9MuFbz7iqKp2
s60s/5YVQ09BrpfazDYf9TaDoudl9tYHqxjdU7Ezbp9vV/DlA2GrR5lWOiSPW2Xn
3ut5M1wDng6VjbgadUXgFEmV3colf89ga0RAGFX5SaDE9oTJ60CqJ7ILjbqGmrP6
FL51MLoelM1v0DYtR6WGDzGSSzJxRiORT4GzjvT3KrTbSZZzJ+YIFLE6tb7nSP+y
yUBrExd48uPWlEdQjfffdyOB5yFRRoFgAzqPNeOk05mwUNoQcR+rDOKIR2Z6r+AA
dNmNCzol4b4VA3vm+8511x8wh+jXkvhF4c+IRoIntBuys483m/n7J2SLHpNJ0y2L
rCMKs1BwLDiGkinUsuGB/mSf1NozilWFf+Hx/DhILwcAHfmLsPw1gEfebDs+hj+X
8lqg/JG6SJdhKgKNhmJW49gKixxWFDpbvvJ+vA0SYxur3KG2A6c2s3uTWsJJlv6X
CBCwBBkqgAqfywclfyKOcHOx9Pju3LzBhXv9MtP9+lvP/42tZHQXnHMSEMimPdc0
SsgpgKPW/Qr++xkOVkCYk7n7bLxGk0Ilixzf6gW09Bpc5cc73GTqY8i+VK8VvGit
OB3bXHtfyq6WpTP3q1Bq/eFOJW9QqTLBEFBqjQdXz6jMmoXohuG9oMiKh5IdVzDP
GApFtIpoDypI6sU+bAoT5Hpxy1ugR4sgAKjDy6SZaiThOvz1jT08Ea9q/5kyWmYR
gNR6upScSjl98478FwknDNn0cKx4hGVi7uE4VPrZ75WHpx4F5OCWBERhBxYUHRXl
rx4Yl0oAtnqyaeZSWZwsuUljN1auZ2MFmLhFW9Ga2EGYTr+AsDcfF8AHCdHK+lkF
ysOBwZtoaYhM/wUTNQ5lomSCnbv0z+6O+G3w1Pj4h0InCYbsiXWMrUP3r/v2YZQa
8yJB9dRgMDPTUiiSSXjriXkcst7ikKA4cWggEoVNJ1MutwUg53S7tK1JDE+ji/UW
QIyPjqWKSG36j9gu9GAvqDH5cvrjUDoGd4AGKcjq//ThD2tJ1jyKAMKkic3quWbk
Ux031TLxjVjRPCbDxgYwbZFB4efHFsGnv7XIPRY/LVM3suzDIAAfHru6dGOjGXWQ
4pjt9eKo19ulK3O2CSabWcJfO02YqDAxHMwr4x9taM9VRFy63EaznIZewB/RLzVf
7dhEbY2qbiA8tKjIZjLNA4IQm4O/AUmmSgNDhz0j9KABsCJCt8XEHwMY8d3qGSBM
41WVMVvvBUnjz5NS14rm9H6ahwzRYQg1GNmlWcZ0O+fx1sVFx/jiG6knilZg16E0
W7MjnK40iCbzdm9gz2JeCzwSdobwbbYsOEIIfYGAnD7TEBggxXch+8Ld/BTLoT2Z
s/zCtOvHyMUFiUEQjaGm+tcoBthCT/L1gJSwF13tkgDW3RzVLd5bN8DqY8eLOI1P
ahJ3Hfl9TDuS/81/T/AWLnZBCKo/NQxMIGRHULVDemFnOV2byJEYlh82L5SVIr06
6Oxe/UfbUu5WgMdFz5krqo2jVeM7UZTlATmASCCqpDrNlqQ2rZwbaagcCJjd84YS
9Eia7sS/JtCnYb+AaBI1GjP6c+sVHIf7abP4qjB5I7pIT2fng6FxaZgn3YU5RteH
Oz+T5lPqSGcaYTzn1jD1SOr39aqv6nOOKFcFgskksrE2SK5AY7x2a9ajTpN2SE/g
LY7O3wNiFbtljKOgdYGcXigqbb4yA6iRkhRo9aeTIvR3vIlSmLywc4oG3PvBd/Gz
BgqG+Na8R6vWAjDdrWHjPyfUVwudvTx6xRkVC89hOnM2T24LCdqtixQrbDYwZCwz
t/FOTJIsDyeyU3vcTHQOiDifBtyuAlvV7pA2X2MCVUIX1F20pPZBvXkt/s5qaKe6
BsNNGPriL6rfj70kq4zkkKSXQqLOQxU06xvm790aZjpAPbKRPkSuKfozd5gSkGSz
oumAeW3uy9l2BEdkf91kW/OyAM4uP1/x5dxM0MX0jRJvVvW1CZKMy9/rdC2RtRxo
N043vCJbgTOK+CgMyCwrV4pUjeRXzqESvFaeT239l7TRQ7YwsSjGTAeYwBXIUR16
ZOEs7Ape5LpqBu0KEmjkO6tG68xyS+dtDnnoF1aL0lxTNajLNJwSamYefzcqut6A
Qn/l/bH3sMETY9ZuSHDtC3gA1OcrNam0cB4Z/LfEkaCeLq0im8bAmBaP37elAJ0O
hoZEAwUzaITCOr9YVmaPXVSK2aZFAZivT2ShTIRMW4Gmu8IJ0i8MCS9JxoVi084E
W0yYIF6W2NC3Zw2PQkCgkoXjcvR+iAViuK1UAuZTg9/F6nYInChSwsjBmtpXSdMk
EBsdsumIoubL+l+7TNUsjjCP/+mn/zga7IDurD6PhgWjmYZ4WC0JmGEYDSjRfO9u
uv1Nd0WfR5hk2gRpPpuiW2bNK+5YyH3sEAoDV5f96NjZ+F0BElBy7OBWvPubBnDx
AqKdch7kHYNi9qLrSiPyHILXQJ+wLtqAnfI8LrAwR0uODz/pQKEq77NRF/8l/C4t
H6+3gW+PmG3phlzGzXfq5yIBITIPJeDzcnGS1atOTySFSF5VWrjQylu9W36vnClT
xL9NTJR6yh6scXzrTCBApA2SvmtUjEjSy87wIXyG6cC70dSrc0SmURksTD/zO9h/
JccM4wFL+qK3wgmVCTCxPibUiT4Mhzs5kX68nba4jj7A9G/9xs/KYx34qFc/1n3R
uPUoU4hvnLx652yQ7B4EXXqYTMNHKgqz1EFlfk8pGA6Qv+IMJTpB92WWHc+Z6MWb
JC9u5V0d2v7rZonMpzg2G4dro09QLESEBNQzWZBZx/GdJ0yC3wJaO32Vx36ARK9b
cGD4GvYM6wTLmfQBrdbFlQIX1sJMT948gSV5m6Re5rZeRKdU7EMNGAluzudTrLJD
8QJWNQoH27OK0A4iCwxOltoZp0eRW6hYuvYVe9UKKCGcrC7xX1Ei78eypaBGOhDM
uSRtHY1Rbp03lwTe7Cj99xkpQ4VJYoRtb/dUxxkL88+xmorQL5QLcOC2Dfhgg+LU
Y3L0tuC28ITfZ3lPMYlGb4QJTQ74UpIT5+YHPpbMxiBq0ig6CA5WPDCkgqRwfjXM
9mls+s+YeyriwqxWOdD7fnhvZxfwCNm03Fbfh/43J4AduPP1gb3h2RNnjgiccky1
Eb/657MGwqPtEmkqUXvQGiB3HK3w19uaCKO4J+d+FIce05QxNOj9eP7XfHxPez+2
2lroRTzQaNOIc5v2q45+8XOzQKxw+/J0TP5yJtmHY6jZ/ySNyY8lA9DRxn+KIGM9
vucBRdtvRXBWJr+SYeaU0KUaOf3fX+OUHCGBJlxi9utYYWoqRkHl75x6CF32Fo3L
fSwz9hQYurUizqa3u/eOMAD7zbnaR21szrRIl/eOqJXyK2KUAR2mqneF2xZ6G6ue
OuJRx5+EqULOodGC+rFUBg8XceNNJVFunpAQvy4EAYpcHUDs7lHP/fw8TB9XKPgq
/2Jr7BR9HPmSayl8rT06QNjCkGL7Zw7QmYs8Fb1ALsl71M3fWgTEyxbXdP8oBxRN
OMqcEksPn6A2t02Y+xPtE9Cf0zVw9mpHBtuK/CvABUUvNsiYgSKsCePevn5xBChf
ZAZ9diWeNqfsVysJGRaxpX+EnMER1j/x47KuTS/kCrWl1MZnSKOB9yPk/U+XlC7d
aYH75oVGuSdl3Fi1pcTYSUnLZjjYA4/Pi+9JdE18NPQ54cgHFVONMHXSxzgyiYhc
uLuSQ4mc0Gg3+0FInX5xyq40yEu23cNkTJ4yijybt7GZ8BJSkcAZDgB6EE2QPIpI
nK93+kKlMCPaJUvZeJGxnJ5QQFtDPBjYEA0uenT9fI1NkW0mZLJTCwu7fRsjK4Mj
ROhs+Hj27ib8Gp92MwI9Kte3yaX9NNRkrGazelRph+zwqYhf2d0CmXY8YTBfRyUG
hbKrZcXN/ubz+F+Zm7cAOp2n1t9VOuZcXUfPScm82Jz8XMlsgU191NOpgRlg5geX
mzYBS+oPVxC4lInrG6r6WDowTYRjGowlNdC627Nh+suPQsGq8QG3oTzOLfwU33Ig
VyjjWmIebkRLEJ204nVC6VJ2diG2eiVbI+9ZiHFsFymxBZr5KfFK00PXvnHGd58x
LLMZyOfXcOrgW78dwhmf3prJsvy558NVKZp5L9k+hRQkNh/VDE52JDiKOVvumzmR
HtJPf14OFPZK3WE0/QghmIJE0CrmzNH2bH57+z9F0IyjC+6c/W7+0JmaALUIRJXb
P0CBJzKshEk0CXVT94u+LF3fl/fuMeluUTQN5J9kcADtlaWVqg4ksRiSEgOExUIY
EQBDxMwnm6+fpqT/x5uC+KM2LKqZg+/1WYi2DHUj/zrqZcSSUEK+cR17EQa6ais5
djwLBmuWHx375Zdnq0NKzYEgLe29A+IL2Qm09y71+2+y6iI9Tts2dRuR2aRokXFi
m4cz//Ds6nvtPoo0meMkluTMhSKRUAmK82xxAHq9fY8bsMXq+kxeKVQiunsJbu3d
Qx69KDFDsGTS+mqmsreftfIzEYfjpw+pweGbZzukGRgccyO3vqK1NxRccta5wVlT
690Yf6Wp0xonVnaJXkiN7+BSN4ttEVDSN28UCxpDFPwE42mlj0T2t70T9p1nZxrJ
4N02ZOR1sO+xW4Myhc/1uN+iR0ethw/0NJsmQOao31lXwRrUlFzrE/crhGIDO22W
VahvCIGmmPL/waVx78ig3ocYtiQyhp4rkxjLQySSMNpBza3vVixYeIfZwGqN6Dzv
NcO4r1sifQfaVrHk866r9qA0ddjhzZ+WEvChSCOl8xOWxxOOuGNX9OfJG/5R6Qld
v6iy8R8yvF3AlNwIcQvSpG1TjLYAqUJZd6C+31zC5SKsf2uPeQ0ZQR8TDUN5QFnE
z4kmot4WvAj957CnNszK/wvshl1/yqpnj6xpaKM1jCf/2pMMdjUAYouwSA0JODnL
KMe00XUzCeQi/VTAleyQKYGytw0HQvNBRRukR0Cc+P0fCWWLeIOteBHQstVboyDv
g7NaSHvqSyhzfYCpnRe4rXEtyyDuybouFfPdjBLL6PIx0XmHCZF0xYzDmG+NZbs1
smvOXlGps898ecAzuRS28QOnHD3xORkmEwm64OtLvR3RWCSpNJ+yM9lJLYl7sBCK
TxwjKhTU58bCbj3UdqLvWI1CTcEaY/DQEezyKYr5R/7+35deHMG62FH7atGfbVoF
fLB+YOzdL4p2HgRm37dYt+EIHKzGlM7yPFcUWzo5UpM1tfILOsHmzE40lNw9ZJiu
xJ3yZ/IxXHJuZ081YkSpXXDtaJ50KBJkJUABKBEJQN8qcV9v07WS3Grxxlywf8Aq
+2L+f5PgG6uPrqBEoK761ASFzgBWEeXKDEuajPqb7dPAWnRQ/hJ1haKO//FN777W
JCTA8S8bx779N/bKow9iv+pqe9wm+l59NeEstMc299jgu8CKHrrcsPJkdtmRv+PJ
LcWIn03zuawkjgCCVnQsxldDUdK4rsQRKZE0bs+k2EkPI/7v/RBIxQ2/6vanJwDx
KZsGHt81s6HwkYLTeObCQRkQoKu2C1eMRKiHOaj3IIs+HDan6IpTrh5PsAMQ782t
tfYnlsT1pV7yWJW0zdJ9zO80rFc652FH4BeKxMF4M1AEwWMYC+LCSfACHItecL6+
OITwrBplrV8oU4jk6mKsPMopPjOG7onplkCJqjvP4k91GasYHK3wE+iYJd2fB0j3
2PWcUXJKzeWNl4hK+QQ3Nyv145hvG89R1E0pSajBklInaIgrS38DNdnq/SI3fRgR
waSLmd7CW9N/YAk9UPlsXQxMQPVZ0M66OITKPNrrNqm8lYqdqnx7glJAoCBguReX
uuJ8btn/6eogcuvBmw95V1GNbi4HnPw8L1EMRNZVcyj8JI3+iaLzIsHzKX8TUQZx
MFhKmO9Bo5H8EB6Z+W2+18j2LLGxdZCMlsdzWV+DrCIGQxoEEmBoEsqoRWXq1qL2
+eICCMXx9Ce6AZwB9BIauusgxLcxnKjypVIFwODdOMSIHOZYEfZvVnb3/9itsavl
bCn/7OTRohsPQ7sy4BDaQseIo9pIJ4jdZUhcVhxC+QAfsA07HuVUO5BJiPlcXEUi
sUksZiu3EE2GvwiZQAT/lffkFq1Dfhevjb1VZnspcXQpyxka1K86rpR/UR6Dmjpa
R/wkwqn7D3ZwaibuPgNwfyZWwdI11qXYEPlszT+siTtLSYSjbqVSqmLsTx6qwCOI
dRKx8XnoxuzHT3yN0exN3so+P/4wprvgLH3xtosvrQI71y92TKn9UgDcEXPxA/6+
hf42uNNK1ShIzfyla3kh0yj0ylQiVRjQrxIl7bsSK1E83S44AfYXSRqdnNJnE5Po
O5w9kBXdfb/eq3x8xcEHSq/1xkzwdVHr8Z8T51Q7pBSRGAaUvAj9tY/xhWYNbZ/a
WF53Jz2OALTW+1IuSMDYr8XRNwNJ2Uw3NUa+OZHJbCyL7TL06mxo9mDVRhktZqxf
lofILlNABVGL1epC9G+IbZq9Vdv/3UZiPm+qv6HHGv01MbJWhKy+BnHxqfsSMf7X
L0EMewCc1Nt6mz2zCZxDwTqvsZFPaOIgRxxGzbudBkWlXuBDxX/KOEaQvrosUgwy
F45GAFlkKczwXNw+drM1T5t1/HbsLrVwoZ1WvwWSodBzBbxmWl+Cz3dIhmS+dkSe
hs2SWoSELpixMAuZlcPBmvaAE+buqsiVMSUsMOaDLFNgaRDaH763AVvPhxjnEgTb
DHpZXzDhS0TGTbz/d82EWuw184ScOVLOPXT4G8J1JPXbawO8lWGVa399uG8U/0ZX
8O2ByKpoovVoMMgZsxH6FM1JOxh6mXEVFQStkY5J61taExY2Wn/Ve8Wo7ahgWsPg
/KyLs5JlcO5aQ3sotrg2KH9yc43vQWgbkRw4UbfvLN0G8OZt+MxDu11iAiSGryTj
IuKni5dfCihA2I6h80kDPMEe1tGrfJvkbGngP/0NsbaPru0yECT+sK3VkBt0eRtQ
dIJuixsXC2pGlgCZF18i9LKg9WnXjyOwejQAjBleQhQPV+Wauhw41g8dlLGVNI+s
3WclDkxn+wn+wmxopnVE60nmOB4ybzPQBv4j/R2Y3kYYIcrBY/5CKaluuWhrGPJA
rZ6QT5uSKDl4zKH/ypB8qKsWmpZTq7KWv3kr35DeKGCgptfdpYzs7/kri1WN1+zF
Zt4Lg6o+kpFMRHfY7YJ2DkP/hPvdqoO69YAvda5MTl6hccrr55YSt/2oeHP2KZ92
ZO7yZGGRqLxZXtabWSNsdW+4mzS2TQuuTpuXgnjDS2YJbpIcAC61VI3rwztGe9Jp
/ZBPviRGX3f6h3Z/731w+qJpAhFKkovj+uOkXdbB3BzFFpP2nbn1HTNH+OoQ66Nl
ZsFfFh/oQz+g+UsDEwoUEsAJHoD8giaQlyDwpkub0LeUTm9T/grgLs7ZVsCUdtTE
Fpm7SBzCF2CF/xS+b0+p3WVTiediDXepXZI77PuIKEcffC2C69lz3a0AmdIjXM8O
8kv53A/H3jV8RHLZHWJWCBAfpP82IHXpftmg8bXT0nIb6G6l508tJ+mRAv5/P5YL
QZ4qAlgEOsYJ/hMW0XQ46kJv3/WuzEDtAb0t7f+nhD1DTm7rVECHwt4l8ag0saq7
SVUYtgLl4M41KEWwe2mcrzAviD0fWT2L8f3F8ZwiJ0VdkPPGjxKQAalEg7Vzu7sT
T2Mlm/kiJ3bHupu8OMqtBXSNABd8nfEcEGqddAdjNFFnwW+URpgqQ56uYzWnRzbz
4I10aMIb+cPTEGC9vBmESoEuiXELGNFoJN58HCR4ghZVN9iVGiC9jCUWhhj7yx1y
7GVLs6c5JKrhpbZMb3Mpy44vwTjV+CS8V44oDoMwJJBJCi6Aw2ikl6Uj3umCmc7F
xs6ubacWhq2hH9cCpg5bjpMnyaLmXFqHtlJWkIgjb76tGxO+naW1UvY3Uq+mjU+0
LdO8B6G4GppU/tl3TJLriQNyedGDYjl9RcSZsyZ+h+dNHtFfvbYt6p4nwLUJazVA
F3DVCnig5y/pPMbgloX/FdTrEz7VZw3dY2IikGFOpc3ML9Ow4GOqNZaamfvzVwoT
oen/PaUMu5g7ZJMOU27XLOIC6F5SKASM2ApwSkSTYLkYf358y+GgAcFaEXePx1Us
loqcp4Wy3LIIQVsIfkSRUnwAVnDneKt/J1dLE4C32TkWQP98Wez065Yrf3Bvcr68
xIS8Owsj2L0RGeO6H1K8FyoycEV5DB+WniTVMl2JM+YhmgQo8ez3O8dcIMnM/eG+
yv4x7LNJgPK6rXYTHAXM4FnrWA64zu8zSyE4T+Fm0dYDv+BLOxit0EC60c+pgGxm
+yokWDq+CQ1+hnNkJ8YiZRI4O5XQQQxe+QjjNOrcgek1OHeStj3MRDICopSYk6iD
enbv+HwLU0FXTOJ5X3j53u0Ml0WZY4dXLnwUqtc709GsZ8eMdRiS5uTLFkvaaz4e
/pRIoyHPfF9Gk19fqIN+z//qCarzZuynFmxWVdRRS+Vk7k2jt6pNc6GHzBtmtyQb
aS8flWFE/uKzpN7Wby25deylLhTpDK97g/jv+J4PBl/aUxE3xKgC4n30dkJ1Cq3V
0NGtDJq/Ey8abZ8piwIxaafFH/NHLBCV4EbDWJBelVD35sffYT0IF0CfjH+lNf7S
bZY27/Cvfmrsck6oTq5IlkE17irWF92lnxuQeAXy9HW7YjPDY8RaUgVBGklJJkSu
gnFFQSyqHW5sfnGsTHyW9XD5YNP5K36c2F7kuuMjay9eF9pEv47it4ua3QpfykoT
vHPNjGt8UM4lm0j48YBTXVVbsE01Bl+CGUhsBdqCA+HDRfajTNZa6dJRXAxSUMQH
M+HqVn5JdAVm42tiVKRL21IoQVAi4BkS4rkCOYDaMnFcS0qZvoORKLmm7cp8LIGB
V/BA0D8rJ4c/ZMqh1GbmmteqhDeeeyKWdUoF+qqNshQsG0rl9i/H2bU/xwYzuJP4
QFv8Cvffiujvtv6HHmj1nZtyjIQ4eTIU7yXFdUBMMKqkvDtOluuJztk41XmvgijG
Ski0FhS34hjeSo2fa3wUHb3ohAqOcau1Y5nJKva4H3Nin897G44VHtRK+4SfNwnH
5RdyFCTKoVeWzN4CuucJ6FxKyY5jT1q/+ircSItre8NCxRIOfXHD506nJuStsBVp
HNsdm2VkLW351JQH/9w7mzi7gcvqjl7PKTw0YV002Dottkrl7+JaeRGGylayStLY
TwdiQ73oziFCNh6TTbWV6LXLEJCxDxufv8Biuk1FXKYEWv9E5O+yNReAXbM/9U16
blJkw8aen1nkoodsBkwlBnteY140s56uKV8iyPymOWIQh1NnthH+/nKTUFyWT5IF
bN/sdlbQH/nRA3o9y280+mLGRnK9aZ6HpsHd4aoq5XM8nIqPOVwn9TAmQiRFDxpY
ANbtYxkjd+0rXpsKtIPE1nolEt/thoSug9bWV5zYV5rKWIuBprDOhfJySqXNHhp6
jPx+n68zFPOJoWksdaE1X/Be9qRJB7H3ZKuS9SavtM2H71ox1rrGcSDyFyZGqigK
/jUsY7FJIR9mhkYe/mCRfOCWr3voy+l1VQ8ngFbpUrmrMu1aj1TI7WxfIhJSmd7S
sYWoXpOX8axLYRaMrCmlhmgBIqzym+tadCtrb+XU3boSN4VqevhCV7Of0+ZdYV67
vsT9gD8m+3eS+HQvdZfGdrFtWMniXtjmENqT4n2cPRkzyrjNTQPXutURl7BQ5CwC
udZ++SzdhNQ1b6i7JS5QF5Mcl0w4lDFqjItg/riMNin1GLZymOZBpIpgFUlE5LgS
0BeI6+gWv7yI9eyKaLjqu04PmK0udpyNmB9NzGhCrz5q96XmG/D4P5OTbBw/NOH6
HyxEkxRs6hdGaPOnnzB11hdIhfwL0pRyzBSwfXckawJN60MVn8o9vT8FAGYVUE9F
jLGMXAPOOgj6iMHd/vfT8PQGTj17O+zL4pVmAwdsa8BNB6pE5THRHxlOT5dotunG
ksXKbRrybB0VpAnyKXM0CMjYxI/KVdHFu3hpAyC7ZB9h21wI4diwE/ZVSVLCrAKn
fA078A0Wv8qWOzfF1RCK7oI2uUhHAZ9evZABuZ/SqzOrWunLoN4DW/goEdY1HYCl
q6tZan5XD74ROxgKCvyI2aLf4TRH9L/nFQCFaZ6Nof8GB7dskFxSYUdyzGtc/ndD
c+e5n1wgGKDp3T3v4xxts0bvu4Lrpr4fAcZkahiPqKWtMNnBmSXEHl+xFBeOVt4m
KCTvoP/bzp2auzMgqSmR3EwNtCUiEUGWR4oT3qNyZ4CrDxW6otRbViu04wjpEyeP
aGxAqA897ZURMXYhwQ26+ftYvATT+vtben7ntAmGGorhQn6U2Fedqq93XYQvpl4H
rT8W0+NiBxTRS5cnBGz3zrty5diDxQI5hGIe9BZtkBUphVKlz5qlg6YXVZYQso+H
ZhlH/LofD4OVSq5bK0sHrFi710Z/dt3NBPjJZFHgXHKNAVhW5ElFhdr8byJUiPzh
54Lv+tQzyttmNSHxLH/VqZcJWlhPcQRrcesIRzU9D06q6KnVy/ay3AMrs3BPzV+j
0CZWKjtnw9JUujXM/25q8eZHK8E3UFtYCcZAWCF7pJa54gpoQexvMiUeIFOUpeIT
HkFzOFl3EUsNZKy+0kSvODd43dZ4PetwN6/1Y9aDpCTANbrPjjapmzzaVBPdo6BK
T9DiWG9gN34BstzF99WLaDWzs8Ve1DF8+aC4W9kItIwDMHvAWgvkW65Tlbfzn7uM
TzM3x2jaus0443HxjgfgSU9cWScEj9fJlR1c4gIR8/kmsnzl4i8doQ6kIUXIbcvI
5czyy1sA8NEIMc0Ad8BQhOLPlVx4CfIcm6Q5G/9rNqcg4XuLrr52/8CyU6dCI2yV
DdrtW5ILyYY+MBGlSHQwnVrT7Z9r67Gq7LZErR1AvUjn8gZWK6hOCK7+5AOt88nV
NL3nGd7jjBcvrI3M5SSsBbXfvjyUmwwuLIClBIs0IuAz58TXOF0XPpr2nol6edHe
uUujjLo/cZyu1rA+SrXgmq0buIhDIkzIg6jP9Is6GsGrkz5rRspFNGTPgYgWmJhn
oI64VHBNFSlzYIL5XJmQuBts8anvdhCR2dTWnDIulYmeJ9pREXKTXB4FlU/ucyaH
9ifP8C4eNJtrxakIJiJwsLZbLir2a8mz8aReqHGCadDVuJUk93ApKcwE2E32xiUZ
3Y4d9MvDK1kS26mSER0YM1ITxIR7spG5nnzp0AeLUWQKGov5sLV+qjxIXgDyfGyx
KWfEQzZtx2ujiKdJ9SJZDoYaIStNS3shV5lfmjQ3EQ1qFyakr47GEryNaiwYquyC
nR6A7ScKQ4EmficeoYITcI3QZFGjl9bQ1EpyfopndLanjXipetRBD7bAqNL5E/8C
jTv4FfBl7YH42emRUKfRBFbr0wldA6BhRv3tul67ZFjZccMDPbDG9tsPkHYM14wO
HmQApcRY0aQ5snxPNT8vbNY3GEY+9xpA/sCeuA548ktIToUX3UNdgqWq6DOwHeB1
mNmS0wdAg8Rs6heNbNhochs1Q4vLtyKa6xtDKU/qWKSb3ieOKqA9h0pSHMuyje6E
aYOx4812lFXKaXj4j9kGoM+NWsDMERodVTvKoJtIBu9KZJvGhnDAfkU8FbsrpeWS
tnbAz3xLvIYQ587FyQ2DabEsP9pjmLJ8r+1GN7y9M9zHKKkO2E5AA1fuK3bjNbJN
gmsZYqooNJBhp/hqkm8Z6+AKqjlIz9igX/cQU+0t05+7ILU740pjlQcnE1lIadkR
sXEzw7COJAIUe6q3Phq4JwKhl8IIdLDX8FPtjHY913fmFeGIvpakLL5524lVrStW
hb+yb3EyGFEcOZ/6dTuJX/k+bFTjsxQ5B8Sla+Ux9hOrFfsf8W+Y6h4XHpbZDCD3
3ieYVIMXGxHEUdBk4oKEfLXBSxxly+nzFPSAddIG7sDQqF15j4ivYOhcdq2zcWr2
EvY1vO4qfrx3qGot7NgI8eT8Jp7Me9+CDOX1S8YydPMxoe8xTqGBWxpI8HC7ysRZ
4DiR3j9TZihU/TEbGHM5/QC9Rgij3EEGKhaeo6tVrTPltZJJroFg1gU0FWUYf26g
lFwowGdF5GrLL0rd1YK42mvmma8z/MmAb34LRS9dY5ivzRCvQmC5qwJ76dlcp6B5
NRmNoSDY9SxOEt3a0udE9Fr9udIdD3bFlrLB0ryZVVkVlFwUY7pAtzVjIVHpkU/5
iWf4yZ/UXJRVcHqu1A9KfcjQzQsC3AKGIY39yN3LZKAgCL7OqwwI4vukDJnYV2PI
2vTlQsumNIS+f4FoQ8TOUoV6G1MxaHH5AetL/6XVG/AYjdCUG0c1+BeRPZN8pmFT
UlIQ4AMX8m0PWO6IYcz4LXAAregBMBRaw+DACcymmRKwgbdPGTfwQ7oCfKyACZgz
dYE95I/ESrbkkB3et97iWybxztKn+GTeV4rXLa9AzVeADB8G6QvEdgWKFSLr2toI
6T5vWCjoT4YuYh1yGNT0EW7W2sUasP91X8Gg5DmUZpsIS17qTjOWyvgmGxrghQgH
m47Zjb1WpFZm/pKn+Lz+uTxuV3VVyYBPd+m/cCWdE5e77BTFY//A/C87pxsJvPCx
nLWLDy5RsVfkr2KH4pFH1mE2LNhXgsY2p6VUpcI+D+/0gbgk6aCP3L2cMuJYWrIv
RVt/4p5xfpOVICghdR6rZU8AWYX3IYGNXMosV0eOWO4ZndgIBLcmV21zSqwOUcDW
s3fpk1ovxyvtwyLUizDbxUlMpzJGf0rhetz4tOs7JqB4zA7pHSRuXoWB3Kd25Iyl
0e3SwIjAn0Ogw7IP4zKwwbTBVTad5dpPphFi0bUy+jP7gZuvUY7cFbhBaLHOhUg7
j7GJmRCUyVsEZVgPnzU/gqgb8duYRri5Xse1byJwW+qKkn9Co48RR17JHNGF7IIE
8ysrwUb3Oua+dPDcoBosBjh+MsyggCX262yVI9tpHE9BpSeL/7nXKKSZ7POiSRXb
Dha4fQFDOXMAIwKjoI5HSyQa1zab7l6KUfsnxz8z+OCrG5B/myd899a5SgyyUa0R
Dx4T2/YCGqIMn4Q9pTqQ05yOpzhDlZ8iX4NvSLYv77qNNdwbYevK+qaXlXh4YqzH
0BhgWx5BcIuzO8qmDMdbbgLylzesVKC32By04pabobfEJ2xM4hETW513oqG3YwMY
aARWG6rJTV1jXfrjyW9D+snnE/UfM9u6wRpJ5QzTW3SYX1Kw33hRj5Dp3sxsQbQR
z0KH5PMRXLjYOXiRjlrR8RBYJrrvMo8LNxM/yECY2T8C2jYGnKjFa/HFZmteXP62
hmnHdpnEip4Zw6szdqNkSlqk+FIQSOowZ0RHtAjjhy9ebavGX1hOmPJazTj+3FP2
iqMm+db9/dKezO459KNzdIeZcLFd3xdThFjvELictpirRMdz5OqWpFghir1ZQf8q
0h4nKEr7i/5I3ob1pcfRZkSDEslZCQ/YiOvnXVOLPziu9zd/ya6yNzT8UnfjihpS
gyKG9vEptSE2QHb0/Z2STUe5u6Pc9c4hp82q8c6Kz4jYxLfqHRCojuT1v6SehJZn
kO6T7jiZ8BB63wcCOUk5Nj3co8TRxVWnRqA+7FjmoNxwJXPJvLktPRih6qu39amW
P9VxR1y4aekYUqo6mrP8MDKOJFMu403tTrvoUHORdpBV9KvTMhbo5omjuPGVLjO/
Hy546J1GR8UpkCZPKSUZ6sXxqHJ1/na/3b7BB8WcFrgmTrWXfLzVrD8ptpsJ0/Fs
g/F5BNej8fqKla2y+T4gqoIkTGnEIiw0QPJLleCoTU9Hiz40tzOGdud3SbMnTet4
7kwhbqlLijaLGiTePzwigZ0M+Wvdc5t8H02Y20GVQLpIJvQRW+GwddXgwcnDfDBU
QYq2jBkh4oCaO5qBPblTY7STuMu0HuwK0C8SlagqZ9EA3SgT8xJsuRJbULPcNBzG
qCLHDzmTsWR/DbQ65Vn9a5FZE+GSE0JWIPZb8LO2i8WFhu+u4O5FOMkic+2djNGZ
yTv83hpUc9dN5s0OXSkE+x0JOGJUAOT3w+ZcO/NwgJRAAih0XvMO+ymIDdHvbGkT
Am0Ar+8FqNaHEPMCXhKvaFSW8NPqO5HHWMI+k2/qJr0NdQsrIS15N5gVNSPCUI7R
EnSPQ0gxiCYQJrjwrWmYriUis5ipowfIQUDtPl0yD4gjKJa1ncUCS21DXZfzpAmS
d8OhFyy7dvWrGLqXZJ7bS+W4awE5jnbLn+Dh44MIKJJgB/xSBj/bTvJ7dYo8QpuF
GNQ0MpEK+6VE7PBDfEmOvKO6R6yzPmfPTEuKIrwLd8BGeyx3WOWZcMFG3YtpSF54
7aLC6rAO55ymmnmejAyDVT+UXXFaqh0PhgCNz/vY+qLnYXhhNfoYzxo6oTt/Ivtb
LAl6ZFMyWkInJHGx5Stzgmd0uoPoA7ZkfQd1KZ545STyQNB4yNVkmOA7NJWI9vN/
G/JseTgi5QrzXbWeM2b2yiLAGqZjt4ZobByQUmx8ZY8DjWKKfgj4DX6CNNlGKtoi
3sBSDu78AFlKFG58x40/HUag8VEmlpxkq/4Ka1BEbSqku3VXKHAzxJaC+9badufi
jrFpTV3Y9KInrG7v2eDN6DiwqIUhhUGTQkDD8rFSC9Lnp3mfC0EV/HlunJnxpQxs
hSzpbdzGIW7U9g/81Na7bthQ7I9qwsdaDGanSSlONk/uBeWAUhc+Vq9m/l0xxlpO
d/l5JJdU4L9cpzgprZaKHFzaHnjogml4h9uqgDGHXqH+X5eUyCZNxad4ijUOTzwd
/jxMUV9/3VrfzUW9WIZSwxmkOJWfCyxG0vkGzn9QVKgTl6mnGmFY/RolHjJZDdpO
0+rKEuyEUL3+58uBkltsBpda0zKAOSKjnUXa68f6UzcMzcAf5Jdh72inut5SuvN5
K7xMXX1PK1s8WcQtEGpckk0Qs4mx2F2YDbqVhff08g/tOhkeCVG1QATbRJ9Ww4gV
itDyEoxmt8szHR9dgGMmfP9sfweTUpwOWtUBD2H/7g3h8vsRsslRyNkH+IiaSh/L
kJaMvLsTWHkGI0kjgQuw+Ow+lJqu5cLS20h5k+++BoKp8TLxCjf34gULCs4NN6pT
k8XQA3T5Lp+2r6fFOhQ2rIGMi6k26vKL6u3NF+7nhAe+229FE8WC25vN8usxyPex
LGhLcrgevv5sklgMtEN7lK4rJGuJk9gk9PUaFg7tYcpsHBxEi/sOHXJ/7k22FsOW
L8U8nGfSWWF1kXGDGn1ZwmZ/CTWun4HG4T6v2qTcvlc0ucHMUhkSD+eBrtw9/z2/
pR+NkUiz6WosjO7+R2q+tXrSEz2fRytHVkOg7xxn0LRGb+FmP0p9/ZgPSgn5lMgy
sAp2Vv2SrxL5xFL8owQTngguFVPqQHoKbjYQw6O2G5jyddhyod+/AqVqLZ4sUpAG
bJXzORCInwyKHXoF/UPVClLiVFNwFBowOCr0UpDSfjxvM9AT4e+34zhuAx7yfRcT
cEHLpwzCIChxGOPG+UAQLsT13Ws9axIr/pDsfYQRzZB7Vv38SzEC1tN9/3K0vUxS
w0w8/1yYRAVdCY7k0VHf4yKrHE1Zpad7APpAEiXMTPP96NIKTZZ+sbHyE8Ke4La0
clPfhMmTB5mj2tXpfGvdFVNxSv7vN61vVDq2Md3WcPhBok50Pvf2weaVVL1VzxBa
bGTsz5g1LaE+wUdep3AwhRxWDCJFLzUwER0GYhTXIE/Sy+YYkGlmKifkoaCbq5Ug
ZBO/w6ZqgCgO3+0KAMGR+EMYfAdFLKQk2ggQHOiSerY9+xIByXrgUDD/dCgu8iaa
XPzZZq/DpKeh+q/NIPjgl5XtCacF0gFRCJuRyKt2mMt8SzRf09uY+dv5JOKKPOLb
H1+gRyBrDHy2JhJamoStOjNY2LQz3eLy7Bz+9vcOf97+1ubFUEjVnniqnE+8nN8f
6X6Bi8+e6cGklo5wp/SSKUgq9AQnm4L7kqH+DlDvGGcA+fI1lI0HDVRU6l+RgGqI
bJPjmNluPylIkJipI7riTvHScUn9KYS2fpgENf7XBwVCN8DklkcsYPG6iTqltzjL
3B7E0/Dw4P4Z4Lqj4/hWxMIgjsa5KN6CVnl6ylGRY0uRmpHHFM4LXRYPqIWoPegU
f1JpMPz4BjuS7EsbIsV05bm6ICiZp7zJ9zLHEgr3j8/YeIBBpypDR0KJzOBK5DUL
aZTaz5i2ifUSK8KwMA32ZqdWbRl7silPpUMCuyXiAdCJ/jjR8P08xG0n+nOUyoMM
dALdWQx2Vff4FWtRw1OYWe7LivNKnBVNzTPQSEu0ubf11C76k3/Q9/EsRwaD4O/7
nfkNmYDIQS6YqqSmIsz76cnJ6Q5n4fqERdXech6Lr9EYVK/nxbPSr1UzCayBeOdz
xP7pSSOiaDTOF2VdJxp0R+q7m6CxUjACCANcV0/AS1DizuKqNrNk7g6xrvzJ6hfV
hbTlSOJezFaP8CeeMCerXxR483huhxZgqCppntEOKbsq9C42+EfnHMxLk66WfmYw
b009ud/9KMtXX54RcI/kFmwaE10Ena4nKDm6V4Uz/N0+SP4LXFECT6aqFK0qPzJX
RTLz8iATbOn+XfJziSH6jhORg8kIrvMBStyqeapLyxbhvL9HtMEATW39pN1MCqBd
E8/NvcYmQyMzwgcfyAayXasDn7jNkGgeoMNMAIz0s18xTDcDItGVzmkWmNHQK+Jv
b8bN8d+jSLb2r5Bi+7zVmnKMpzWOX3e+CjwxA0PWuc0grvV8utJe4kqdDkdu0J89
KX5AgzJC/85sit6DusA9qB8sVqEbzQnFSysgrmpTrNlCpkXdluB4fvJO5FWHJiSF
CBTKszORUaf8EsblinURjZw6c21agaeuyGZy1fkm3KSQ1dloA7SCEXpgfTOVYFWZ
vKW82ihkNgAgrojQUbOmcJ7dtChyFtElxYr4UOHROkosXfWvBqvS23AIOhVHcLfK
egR79N0T3fnm9jWs4BI0YNNHWToT1tbrRIXhhpPpoLi7+eFQ/c5OkPYnU9IjX9bt
rK4ozFkVTv1P7TnyNz5Wrm9wISYjIRYqyKiw4lBmN1ubr0gKvvWG8LDwL5pRXmCw
HypUwTk6PN6J8BoZITM33N84+cIK/UkSFbTJTHWcT0vFi+UicvmF+GvJkdKJDsn0
yuFPW1ZBYS95tMOWxXK+t+k6X7b26NZe3/kluH0LdetXQc79OYip8g8L1fdbgh2i
obWbvY8GtOvl5r/SBTAA2E3g+f12RVVALqX7ZWMHR2t77dgpWN4kmQehbULP5uQf
J/vtSgIRqiny4GYO7+vG/knQL3q00cjdCTdSfpR2+IY7cA1q7hJWmF3kUinE1qSj
NybhCBUaPa0sfjt+43fn2tawLDvHsjRKqAKE+3zXDci9mK8AFNZT0xXK2KCEvjE3
ImsspT94+kl/I/h5XCRUVTICIKmHNpbwVf0O3nxABeTzttp6PRFw/V7LhDvTv5Ym
8daowyS2I2Ot3Hjd4NSNNekQd0M3eZqVaAQ+W1W8mpfoUSg16I/RZFNcvBuy2aZs
r4aiHa71nMR00TQ+lleZlR/H9tZD9acXnwJFoZ8HgGSPZSDsQ+WgG76j+l9Qvj/F
Mb1VRDZp4t6/uEo3Z/8heJAj7mR2BldfPPdMipGGU9nKPi98mJ/Xm9BmlDrloPL7
syYQ54qvZ1iTSgRSIkF7YJg5HApG03waMV9sjPMN9lXwk3snrjfa/iUJOFJVE9ly
0aaFHW90odvmxzCcIh1RDE2ZN0TJP/6WUquh9ajLAriVH24ZJM0imzCH4GE29aN+
cpBfioqWNsJAhbPPrMRrlbn6dHV07Oz0A+X13Ggt9Qei1a25s2RAkH3mcYoSxxQt
CaMESIh8PjLyFXDUdSBsHRGWA88sk44uSLoRypUR/4XEJqHXbeHrG3Etj4JP/Xdx
al6CvX9Cumb8GdS//9ib/nC6nR13AoKcd5Fjz6UQvx7vwkdB9sGbXxVGHGHceE1X
gGIfOGJb2le7cKjzPIITzFEdPRkbHVRDfFm/04ZIvGoTVWTuLpfcu4dX85CX4jkv
1m9TuEqlXvzf1ivS/I8iHD6mET2+zVmW7A/DiiPrTvbx1BlslWjJUuqRgvk9fhsY
7DRq9IzoHordTFXPMomKMOxr4wqhw2/nXNRtnGqelKNSafnyJbsfIpZtpRngW0aA
hTP+hIUD6d0UCQJLU3WX1ccLfmtNl7VoMIlpTCm9TDviugPA956XogZ4LGNePJvs
wS1wcVWj/+IfNVai7Ad8du9/hBbYgPAYO+U0C/bm5K2u+p2LMyB2IhwfreXQCT5I
Ljbu0220Pa8JPT4aaoDbatlRYwiD/aUv9bFHRpOmI/++3Dz1QthzksLVSW48dBmG
asrX5WgZvAH0ktknbidzDmwSF36/MKJYcmOfmAQ+VarzzCTQmLHYqmyc3RSs89CK
Nu7+AY8h/j1aD/bdkWQ39FB9vvlbGrJxC043AqKp+LLowKD5/vQG9q0reQ5QM5en
hyA9pDLnyar0LAnrKNMTcOcLy3JBoAB26JJ0Z2AQxFO12ouD6MHmIa52Q0bXcIfK
Z03XRrHLtiQe7LqBano3+J6/GQCAmWeYeMOw53iDw7+ru3yC1elcGqwg2WwM7m4o
iLiHTzFVNp2+t4p3qTyWfDmE01hDTgUtJWxRcSmcE3BZDt6rfemf6IlaK59W9d/Z
p8Q1XjNjwTYfU/fSav1p5WYHs8hiA7n8cKulJJICN7eCgqPa5KQz8nmKfY3tGwKl
Dqh5/IyS3ueRb5qPjLYi1IK/tJDTNtZO59mALc2Owkhmd7sX6kodai4pzSDYRxoO
bgtIX5FXzrR9/Whq2JEDmNjYF3TcfDKU9T5cTLvlgcsNzSfzqPcB0ZtA81kBOkqt
hhlY5mDVENAfrKCTE9alXHpNvkxumwSM4A52pEk0YYH6mLoz3WfgeGfXZ+FkDhsz
rHRpQgctNo6AzUNF6J0rwIkrKg3rKNxpbDgg5Nd+zbDvyeQ4BN2wzwyiWSxyxpbR
rz2ihGqcNOAH1X+50Xjo5pdHR8xEkPyWkha0O+dgOK2ZSUcN9NIMD/p2cVJM8egn
va12csZ+EGBFydpGZYFnztEP1L6LDpfSUfzk7pXFp3cTouJ9FuIUXR5DVY5GWjmd
K4AUNpsQX9YvwdkBBWZdlH8fReuT3YSJdyGR6jKJTMEwOT9uoPLnlcTH4FNU2zOZ
XyhgD2LvMQy5oBrTGqKLE/0ppSdlcANkJP65FM/aQzpo2uEX8uXD0UEZtFRDJ3l2
d2UhklQm2UiP+S6MPEgOjkTAvgbqCCfaPINNZKwBYAKGx+8yOrNvGkYJjMYm81lo
UXHk8IUFX2KoRR8I8/XJ4zJKD8kh7ysfmEbYbKdJ5viplnuRyyFZtWpGxISmfuIu
UTRyeNrXMvxaS/V1gSz4uz9C6N1jdAaARdwO8JdhbFyKytmZK13LHJOKTXGfzKhK
X7Sa5HKUUVZIcxEFK1wJGO65X4VXtbnTobT09vX5TcyVLZIhdODemu5X5leMXEs7
H+eytLguuE8emxFDirYKhxOYhrCNKnaF3S+0C1xDP7kZFXcjGqhBzpDCd+M0TwYb
9JNhBLYlHL4eq97fuXWmSq7YSIbzEo2wzn18o28QxScqqx2oQcm66wDrIe5fNyaJ
iJS/9J644MKYV3rfNiOOJBKBWU3TnxArkxZpXdcswLOFKL3/WHppimMDg4owMmXW
DGszA323ycWmcgvQMjZYsYtYVlvCBsnEoaLwRwwkSt8gyuRpMbu4gH5fNfc0ufo8
huz5uc/T3xWEIA9CgBhrlW9MKTh16wNhrgfPASopewXYJ2QMuyERiOcNKXosw7Mm
1iEYSuvYETGPpyAgQdbUwud/XK9cKw3OGRa3VJt2bI7EWx9TLeTaDxA08Nk57xBy
CX4sibyeyQEkZFzcxd3ndrfbBWY4l7R7/7xliMEwXgNTqvKHjqv2HieCiSV5aEjR
fLc++TW0Jx0/gab9vtRYtfGD1U5oa2Mqh/7emhOFnuWyshlTDF+wzPX9A3Wl8e+Z
n9h9IeTWsfmja3VIj3B+wZK7IjXa4jJASJs4GCWANzRGzWLwEUUHhs+Xgo+tCQuJ
C/7Ud1aiLy05TRrfNK+FDvz6sQWI0hKdOwIZsDkCLuiqSdtmiLbknQI+PxrUpTPv
h+AGKic6Dcg3aBlaWoW0EqyAJeYibuczGNuuVX+82rjrvqbkhFjSEcIRWLsddDRa
fHNjGmyEpXUlsj2oVjP3c4ahtr0GaPppoDzs06Wdd8uYYOELKiw/IUjK71UfzMs7
aNrJyGikEHe/V8mQppLXkUtms7xCkLJ4V3USIQQO//brj/Yj/EbG+NyY3LFWHjpg
2qWHRLbLNJwfvq1TN0Sz5rJgLO5xv8YLLnwqXcT6UVRNV9QibYar/WO1HZU0+zvR
Cyzb+RkN/IofRgAxmq6k4O4bX9ASBWLne6pmw8ZETa8nZ0WE3217vVoydZmNO1wW
s7V6GxOQ9It7CHgXmshO9oCKdNV0vY5z4wz5qglJuF+peaQgcwVFUwdX908O0B85
urpKrzo0BDe9/eTqq8cX6EECYU2WEZ3s4DOBQ5LRB8f5Gjwsl0CMudGXQ1zmbr8u
gL7mzNIVbTmSwqMUNHhU8nKI76VbprG5ElJF4YakBdpS+qBazkM5ypjMqWrb16Cd
AnSIUptItA296UNg1oFjWd10sZ/xWK9oAdvhDhnTzS5Z7SmQkJDsQxEdoeCk6dRA
L4IO2q7bhit8DuAa7gxIMD/jGRQ9kq7FtdpxXxLY0oQNCLdPSSXxaWz7+i9RXsx6
zwnjhWt8Y+MbdTfSx4vJMDWCSiCJpL7oq0/2bISVccLFBO+FasR4S2oeNXQO5JxV
mxTXCVQwoQLS6lJikOoSkMNIfVeyQ7o4aZF/Nhuy0oBj+d9fQ0ufGFCxFdsNwtw8
py6eLkEeFGlqVAGG4MDGOBhob2NKfhBzqwSyTBwhkY4W5VeUNJR2F9IAr6J8+6iP
M+7PQvZxMj2MYCrLfMNTrlkQnc1fYMPA4OEwA3Db4REXBVBHCfe4JKegxcaxbHhe
XogjDN6iPdNxajZtVlPMocL3Mjwp2240GLCQPyIIZQiW6o8lIeQEkjszGtrZKi1p
0zn0uvF62oiuiq+dlg7rXLUkK9zf7dNLQJSwBW3FdhXq0PPlr4K6Ui8aP8NKNZUf
WAp6Fq6eGqrhtP+0P/YOT0Ed88zz6Nthv6nCY3V3BoGHdkiCM9mxWUFWg4ydjQ9O
/XZcIoZJVvqDhHvlE4Fpj+o87MqYLj01YOZy9260wJdg6sd/pFBfUGA+VSSz+bPV
DrX4UBsF0Ev0uDC5XJimL3K242I88Qss8djZ8R7cNlDV78qFJtkjtX1C/wWcHbVR
qJdjfNH4SVYn9c4AalgSgNOCWxmmSl6do8L56OQ3OJOX4jS5IcicPZa8q+KIbb6B
L2qR3pKJe0EU1L5WGcQCM4pMRFhrnDpGp0BZdDGQ8r9CtGDvQv69T9HB58pyUb6/
swHSXL/YADdv/pgaMrE0zmdBkR5d6xyf93AShKPQJSU2nF6b0jNrvw+63/cg2jTg
M3WugESQouRxCcyr7y7x+OR+BS+fmKi1cimmLwSvgeSMQpY6kOhcHewLfqVux3Wx
9NBA+Sp13Zw0BKeuH0hRBTLdDIYcw21wuVKDBPr6z97OUFDF6RQXeHdoGfQn+a5P
2n5dqzGL0D8v5TrX3+sMFoPI2YzVcyDW5eSPl1Srj6/a6197KZJ27XVhl2awtZW3
jWIViEX7btGtjm/TF36aNtvCyUBDFsRplsAGdR+KM6YZvHuqTpEWuvTUweoW0xRL
naWWuo8vxXOVAi+ZUXHhkWl7eykkf9bNp4PBW4vtcRX93vJ+w5s2zDUUa3RWMVCX
zdceO7BdHF3P+dSh6jjBMgx/woOSWmBDUG0gGOj3nvcgMJBm0SBT5KU8xAEhxMiy
5CiO0k4tib9mWywL2ndaDhuSB76I3pzcDZyhnVNnKj9kPDwWdxlGqWWAKoynucCX
A14NpqRqsUkFp8KSAJOGBB0LmVE0d+NNeNrqj28/Gq6yjnazq6JvavDBBM29CGES
F4aaoBf4syRqSG9xZ969NcDj+DbQp206pLxMp7dfNy7zReR0UZVObHRkqu3aRBH6
CiYOsn/cnvbPsIMxganUqRYh2nWbYFLtRzQgnCT1nwwqMX61ur/F7mactZlpbYmO
E1GOzlAb/r1R2wG7TsWwT8wsuMfsrr7A8THz/yVdrpbIuRUaDi80DXjP+WWT2y0l
llaOZSqpNg/E40nc1ttX6f+rjjPyzEN1M1d2C1TsJSUDdS/SE4+qZK5Ggnwb47Ma
yyP4YERXGvjAfFpo+DLhDBj0fjrlYjgSJDIGkn01xEfk3T/WzBjZgtdh+HJypZCK
1TgkvTP3Yl+zAWwRsrzkBN/RLL6fyuMHQZZ3W5rbw598WhyFFad8TCfZb+mk+zBX
gOk3sW68yI/BKGpzBw2uiMnl/BdQ/QVRrDTuzQrUNP2RJKuxfFKUKA/G+fwfpV7l
qjO9qPQJxlK/i4c2hFZInfqEaG2k0vcZf9c33gxSG7e9Wn/SlXdfmBdQltHVEi/I
UzTqM6ScA5kdwgLcp0cMMZqoDV5SYAOmlTXw8fSSEMxoSnzsp2aadkfj2WQcGwpc
ncMYwCEczaS/yklBwJ9+CReKPToNwN/yuCSIWtuUdeayW8O0aT3gBiuq3NKpcKX1
uoEj7hyZKzi3Hcx2sxwi9aQE0/B4sEptAtIj+FlAtE+Th5CzL41itxEXL3OU0fQV
p09mUGTEJI0SbfrGq+2WDEo1QdeamY7cHmc67LK5x/HgXd8P0E8JS2PQZwHIK7B+
2ObUiSr2c7wBfZZpSonU80qyOENC2xEaATL7DqNEROfqa7osAGkD75+TB8l22Nmx
tzvUyVbdf1zACa5ztBWSSmg2LjsrAHr8Z//eZ29MFLa+l3M0G7sz48e17HL6/7Y6
pOssQdtlMtcsiU7ZPbl1YICvfxmpgyaFYxlLJnWik7IVtkKCN9HcgU2ZogYg/QYi
8FlUnFtL/8cY2cj2TllScduE2N5P0j7K+PYwtnPYYsv2VsCk8Q4j2hhfC8Y6FDHY
xAZaGpv7kUCAq86gvySbS5RHoCOmXl+l0utK86k9oca/5OcUPH/GwxMwcs3ZmT0Q
vCnkwWDkofel/Fy+k/iSOMUaBYNMKsG7NV9poPCNSccU12YyMcqB/FaGJtqATwid
n+YKv8ZVBf0f8aTtpL92r9YDhd+UMVlQdP1b7/Jo2KIYJvs2ISbaXR2ldozFStZj
iq3pbNpP/jwrx07LLJZaYU1R4ZzVmRw/85gZmrBDuwj5G/kjnXR8do9nOAkihhrM
jpf4oQnzWyWv7n77OIFElTG6oAMvnulsbu1ZGj6K5eSPx/EEwoQ5DqTMIHRozpZT
KlY55jOPi9o1jiiII6chcUXDa1Mv6k1UqZzVXC7cTSlOCChK9QRwy0Gb3dgEB9g3
rMsz1vS+KUgilZT4rX6N0YXomO6CKk+muISoKi6Kzbe4/KglWHDFn1tAwcRtPH6L
pUlrjTVPkeX1KY1g2exJt8OBuljpGbVRfxbyXRIQVxdOCsR1rcwEdxj7VjIr7NQI
0l4vhdLf8zPLUOPxsYgumePju5VzKV4w0mLXNSIwhnZTo5DuL+OKvEjtwQ+TbUeB
5XE5D5J7vXpnCTJ6IOKiJIjgndE5KErC6YT/37IbTcH7b643/ZnP9lmUjLjh4azF
miGeD2djdGQM8fgFiyNPX4oRgepagt4OPhpd+P6wy0IWi8RJqCEqdlA6EvwM/ZE0
1mUwuN//DxtMnv/Ik4Itfh0qa9PY9H+oyiFUOB7a0KhsVZR42WArLsD8CusYEVay
+q9TI8nh1ie5RosUo30/5okTkeajOMt721GRKFdGwYLnZgYAyLLTDbTx4zTwNb4T
82r27ZF/EhVikbkfm9vQGDO052p3VV5Id9Cx/Cp3iPW+0/gAPUpnbnunmYo8M939
hR7jkveLTNTs+fPeCobAC8NHl7Fwaqd1SuaNVurEXuRQpHuUSA8u+Ce6B+sUsiew
EDNOqXDIu0nSA5qVo04RpXaNQUVDAISUlSVJd5l4AkPIErza/rwNahbvCMHIGLJG
j6nNk5mAF1foFE2MdA8WZ12XvRFDqvl8mE1QMi4yhQBo/H7hiy/zKwLh0rGthoEU
KHfQI0UeEvb6ci25ikcH1ShEzbNSB7nt7RkNex00rNfUD8ggSrCVkZHLoAJgzjbZ
LSaOrZAJQi4tqwA74DKUIs7JXBV2mFWlsoMg1tipFCl6MMBfa74wQtD5ZWCmwqL4
xsHf5kJojuJ8Sv2Xg3AQgHgPMYQpUH/BoxVYmSy8MAZO0+FhWGwit7JslzF0YYbd
aNEGW4V61m6WURa/w2wK90phLpXaJRZ+86PbACKhYzKaU7orQgfDvatakZtEn0NQ
XvBsS2LIJVOU+Sh9DqXvhxdjLmUa0QLU68db9tnNw51VpQ66U/kNZrOY3uB2EMCR
owUBbwQ9wo0upvaMHl6vZVGgqHOy02rGrPIx0vDNAUVvc2BHDXm5fm1QsR8ME8Us
dzW9l40dbCAXMDJ22knGDDcIVUe02DSfQJPyn0Z2+coCu7cNVdiG2DvoGq8FKhnQ
L0xvWQbso/idSjJxDhE9wbPD8HE4wlvkp31s/czCx5NK30U18qrCwJJAjMJODKRR
eafPWj0lqVTo1SHTBhWJ1cMIjFTcdJJLVBD7v/3LoLQRrMBlSe4Dm/XDDJSAfK8Y
pRWrvgAL41kZRpzRheWBzawYMFz6kI3UCxOS/u1yz8/c7nG6ZycK+I/J78u9mNT6
Z/xUPuYCcJOsCI9q09VbyKkxhNjxbNBoW/UnMBi12OEa3125tD6pJTASjdp85ulX
Q7oHWDgHNF1SHYmA8FCnSR1zMdBElO4I9MfdjJTviY3o0bzhbE0AQ1CtCO8JxM2i
AAhXerRFmH/i3oToWL/Njs/wKLmoqK4Ym4xqXIarkFz6AKfXVV8jAB/09Vj4E7Gv
TZtTMu2YgoFfJ7Ph74wOXfCL0wix/udVlsUjchpW0acUwoIMkiwfXKaKK9qiK+Xa
/xIuOKjlDCAPVVDl8TehObU+O0Ya+sDdbxnQl9+MKRXLWuo6UjcXtVKgAASgBUBP
BeIggpbU0QMFHVtxx+VYvpp4DB9FO+ujW6WU6iWUj/lH7c+HHxTyJ/+TNiAWWQLo
FQ5Z5i1hrvHu8UVj7EULwLEKeE1xxof3XEHbpLgvaDHfqC1GH30l6otaprs/fWww
4X/qpPgPd0DjVBUHyuJMtjrCAsGba+tqWfq8iYr479XV/5dMvBnsWByYQWA5Gsam
rFLWMdkVPmlCyW9nhth2InSqgAC+iJDpi0+el6TN13ZeE1+qkHvOYDKgTYccrWbl
txh00fEQZlvRJr9C/sleHpo0Oi3XwTHoLWNeFbcWn128jOiaNKb1NpcnHA08aKX8
JIvKmsDQq0ccDBMxkPJkuKKPvnFkVm+9TlSLfoqRW6GwMVPoMcQAoEIPXMdGXm/A
LbxTKa88TO0Kx4UuSTifUxEVozoJ7NDafSFYeqS2wfdjHVDdOYpZlBzZBzWPy9U4
wqZx1wuN34L0Q3IvhB2fj0tXBg8S40PFoqrM7R6MG+1eRc49CBMRiomDbLSeDuwI
p/ky0Eu2HkEhx5mz8QnD9CLEhNBLPJssq5/gQP6Gy65ok8EIeUMUrHyOmwtDy6lZ
s28PoiJ4NzpfuFjS5yrPOi8PR86cQj7Edy8ed4o4eDCYVQimFFaRyAcCgTJr3ei8
jL9zzoR7fJJbqNb6aIZRgaQDSyHZwgFTeBipbVTNp+AqYw3qD5bmvkQGFKui3myV
wy2hwizFDTw9Q4J7MWO+uykOTdvLmSvJRpVvcXdTsGX/l24d8ZFxTnYv90cUMZwA
0zMXdl+0MiMzKlM4nScMnpP0Hsrh7lBR7fwoySGkBq1bsCtK5TTVlkwegwmzbv+6
FwulGrBkn5q15nKE/nxLy5K0Ifn3n+VsJTHz5mCHj778a+i4sXpv08CDEEXcf4ZX
CFTl791L8c2JXd2vT3IAfOT23ZDoPuHvly1rWtS8kmUPKWylqA6b1aywr7b5wT1+
ZXDnFCyAwtulN9OgZR6s7ht7/P0yDAzcMBwKlvTgnsn0qCdXcj2iVUN8yNgVxF79
llyEJWHwwpwBYVv6x9AUePLHDaTQrWrlHMoNPHRgdM9/t7nKeZrPsXap/PfyJ6Ee
hLz/cVfyxies6fp3eI/3o9mjSoD301KOzOyQntOC3xZ/8IIXFcsKAm4i1qlWmkC4
e260eTG5YCr/jQtkCMNzKGFjnKFwGPEmIgMkFRwTPyT3YuxGy4r9oDt3PWveN/YQ
8n9rUIX0u6W4gRDMwvB0B98URTwfLAb1LhOjtZWkkegRiFoqg4DBFOsggxof31da
LOJ9/VfsttBSvIRq0Ekwpdk8V772YuuNVP+poUG/K9QKczH8bD6yibUqSZcF2Qvu
zff2bbycV9zo6pQMt/6D5ao0/dtUe5yl2oIx6sIAwzyd/vg1u4rtnbYL0+Rw1I6I
/CDL86SNgc5XTtrlEQ6MZ+ciTBEzCNKndMUMWyrI+iCRS+PYO1Y8VGrQ1n1p+Nxo
etdGPrpmdusjhZTZ6uFQjhN0xUnFwhk+8asDQol5O/4XIu74bNHjpvkUUv16tkMr
wc+atTYqz7aZbj/MDNlk+R7JIXGqJFbdzQEV/c7SAE9NtVWl9Acsf9gnbdzMuutl
FRWrMoyyAlaP/BHt1bU1qqaa8dMGx+f5FntiCArM1MAtJ5QF3aYFNswvI3s17EDJ
qwwY92VOSoNTxnBqdNV327ISsdR9KHjXCDFI7yGaKXYknKTS8ZglohWzKErW0VQF
5Zi2DOnqH2fW3F4GDEJTJIAcFdWsM4a2IT165SvyvnUP9YVd1F5DT0b+zD6MTr73
R4gB/YBlPCwv3uXLUbKrPdUbwaNmyyn5DrtHcpddXrV8pVHGYq+IMjurPm597w0K
ddbjVZmEV4RoGzqVmg9TMma9EtBPHX5XqftEK8hrW4cjG+GoSOo4e+gA4hMon59L
pg2xc4K9ehr3H05uCy20ZnPTAxiY7v26lbYAM/JHGqDNQcof0czOOeUa5YvItLfb
vqWFJAIdsYGQiegP9qwHmnnftqIIO0BiQFP9t+0ROvuiXmMgsOje+Gc5LyD9EBwu
Jdd1NwlQKqmyd5QreONb59LUv6nfhK0goYiTea09/XMchKQ/xLqsypc5LRfmc1nR
UlBo0ryXKEb0It9wF4KF/gAL3wITce7t6oCdBQ/qjXKHsh1DACvgXRJijPD8r9Qb
8byEU8h0qdNPpQXZ0Ad0KOQCVg8kiVe3rEhpHxm/P/bvrqxPmyzN4ncHKYroP4Og
Ft9rOwVLWpXLBmgCXTYsbN4u3cK/1vIpIpBdnHuxnYcrxB15fk7LDm6W0DnCVSFf
NuzUMk1rpzDzf++DQ1/xEtdGgy58yDIFRuuLcplAByqKUpchqSXhFTWfdE24l+hX
A33PZsr/26poNOKo49aW/xrW9OTnSO3iO+1EUV9AlRzz+IX80BE065F50fObrVz6
L5kp7aK20s/RgKOlXRzvvtea+FYC1si4k7K4GJpJkMvWDenINBLkii60pit1pfi/
oRLQSlTfMtCjPFAX08g1+obp266BwhemTGR8Zgp84mpcf0AcouozoEunfAR3Ry+l
g1OVx9AZs9Bj57Wplq6brl4bIsskvLvcOxgJWLV+CII7uCD97oTHeIWopq/k7uYH
M3h3pJVUFmZzt+77/OcUr1YGYn1tTSUjKq5BSG9RjLybgd5SoyLZNL/RL3LmjWJJ
sWwEd6LTYv8RevDyMt6m5ENl2mbarXQWeDfV9iOxTsRdLd2sWW2JE6JvoNE7upjj
vwhH4sHAgxlQCX7b0H7hthzLOetu9pWaJsGZuxGFv8/lV4zlL1cP2sbLx38LpakT
bTPmsE8F/wri806LHTQHynSEklU/zDPtHj3xhlTrIv/iGO5NH1fVAWyyMPUQ4Axg
aQEkAlySmQhMcrixyrFDkZDkMEja2c2e3VZfE9YpDNNW9gsJnGr1TKw2PBnwcha4
hB7VTct1XFaQBqJgByEt6J066x7E5/iC2AICOLXgKBJugDfzFKKLdZy7BdS2iE8F
a4TsyLlaULh8gDRj07BZxdOkqAnoJjh3PexjGx0qvKogh1ykx1M4b0Bgri09ST1e
jNmZwXNDPwJyUIcgqeGmkVtVyTRnEaYBPKTYdySBPmnaMVDwTjsZhTwmjHGN8qnD
uBeKmwnSGv6na0ttJXr+MBCMcs4ZIQnQqbj3iWv2aI3ExiTHcx+Hcl23Eomz0MEk
RF3Zo6uP25tNF3nleGojk639mivLrs66yCiLw8bOvYbMCnHLPaw5Jl2Ji2v9CfkP
rLV6TUZewBMQyFbqn3W2vuPyltXGt9XMjI67iyLfFmJ/z2Q4kVAoi6KqNXbb8Nn3
ND9QdQdQUyD7pxM4WsRf39OG7obso0K6x0YEiqZ5IqgRBhvxwdyZlxAkL1fUn0RD
5VPZhe/zfi3ofvDdFWkQnVJLN57tAYwCbLV6ok8r51nudUnlZA9nWu/NOu2s5KVx
S9X0u1wfoMscs1oA7lWMvZniksFybDZpElKnXzhfoF/rTnUyOqYjgY8RcclYrFBy
780P4roRt1UxXF9lOjJlr43ZgROVQccCy1rLxiYthae+aTiqX2pK+q0oQEYh+3Kn
XiGj0IKeYPSYcFoctiHwjwFmj2Vgegx4HIG2I2bsNa4xTgnbYaOEMzkZ0YFdrREh
CCxNlJMGNfPqFsgVIFw/jWQcVAnskyeY1MRuySa1MKHkLvLwFdbyaZ/IuUs8VqLD
lhOL0N2uy7kksmCl08ejMpM78+Dl/GOkxTgm4r0rajL/h8KlKK+lhh4tLY9PByo5
ZuzfI9yQFbSYN7M3HWT8lzKoOBmE9TIds95OYQlWRWVq3Phyu0cGxjG8Zcz37tuA
VZFdskqTdxZFRVAQZO+TeW7qxKTJavJ1FpVp/GNloZik1+WRo8LCTtSMEJn3JZFi
OcL6kdIiOHWQFZA6nVuNlX4L2u6+mTAh5YvFdaWnW+xnDlTMsp/YJZhcJyPCKw4+
hJQ7wV0aURyyilw+sQeXzDUoQe3esY3aGFg0g+a+IZGnedvEUwM3W8a7Au1frHgm
f3DN+pK9ZrH0bZcKJwus1fKE25kQ2t6kqA8WFVPCco7bZlUn9nHRqRPirjMfSqo6
nbrJarTUkbjPG1EXsvQcBvDSSwxm/mA60wVXS61fLpre//7X2CVfICrLgwPDNloj
seG7TK8cNankIkFO1Di+9MYI4rBRArmf9YGvpdY2Z2tSgTa1y0jxGlNljfabaG5R
I0rfvUxoXgcLgawsCYgbfPli6pU4SpwzrpcYdpmTVfTDGWUU3QQtfBhqW0+SOsGM
EUvEmn41a+DLtc7lW6Sck5sjUdRAsxohRDj5d6NtGHNGu5DN9xIBKFNEY7Si2+eQ
tlZTCs/BmrMhMqniC/2HW1dWNNAkHQEVWZ4IiEVgSv65miCBb1DxlPZXlPsD8PfN
McIpi3fdWJIqGyDf4e1QJyIveumARhnZ51AT9MRKJ99LuNYXHuk0v/TbnX28bIN4
X/74qH4YemJpEHbU35ApLFqnUPZUjOWsZ5QF53L3R2IvKrg5q4U9rBHu929xhrIh
bSSFOB4PlMsn8pMZIj54obHjXJxuu8EfOxllSR1oMegh3+oDsVzZ9IlccRBfh5Zu
kO2wNaw06zMcVEJGn2w8LP5D+ehZE5cBRlS6jX3WihzMcS+9yXMjkD7M+/P6TL/I
5zOnvRRKs8zitLhKg524lx28/JY05KJdQe7SDV+CHqnCltjnYTCtohP6W7/krV2p
HdpWQ7qvVeTO/TRIuTEXp8Tb7O95T5WvZtfkr049Qk27L6kHs2nwoVEJiCuBGVle
AowFrlUSRRCBtJxl8z7Slxn4byeJF1aXFAomVwxFsa3AA4/UlX1QGb48G26Qlm87
+GDXO8CiW8LzPjuKE1zCmiBFXWRpeGuhMYUCqU1axLtc2AftGTJEL2N8FGMWwg3y
CglUiml4ZY/I8wCOaooporPYirVjobNaLM6rOC8qOH478/ssJejpUGZefLM3LJFi
jVSo+Rj1NEfwjxc12jCDH5o/Jkg6s30fQmQcfMvmzCLKlorNih1J3RzfTdN563E8
93kJCjB55c3XW90YjtxToAyYOFDsNLAjnIBcyi8Pjj6oxv3U+gzDjwEbRV4AmmUQ
R6gXWuiUCZwv43+VFwq6JKjP7gnquZV8jP//TjrWv3eplx7I5xfgc5gQRN1xWNOS
b602OJlTeZrshOl7v+QBUKMdxQuV04y2Vlvx5DGGVEYOsvyjoYWmuHI2vQ+r9ebY
tZGAT0SkefhjWvdua4EjGBlDXA/3CzRR/GLelEDUN7WqYj54Pn3yw73ZlYkJCdzq
LQtL+ksjxf4AeTc9RmxHnhIvtzn6D5kaIWdYQXQvBc7YD+t9h79WYSlpNhTMb0MP
YrZ5WrLihRSOnB6Fe7/AS6Q2FNfinlJNEs9np3xy/GiY54LXwTdHK8i6KVFVTQQA
o7r9fQ/JK4BumAIkLiMsPDRitVFWXgDjEGpgHY7KwyOIQUTNNIfLaPUXwWEwEgqE
8F0jIPh9/xj9hAOA5EoEh1r/mLCEVXFPnymHxZvQP5MZY1rSxXIWt7cM5K4m29oB
V3ZLlcM/i4zbPka6kQblaTuE84jAeX0UUqV+IHj6ZhJIknCrrALkr9xvT6IAWCWE
MP3FhQFM4Gs86lcUYi+LfEqcBeN4+cW+XZqte2FSeSwh20TUeR1CP67h0ZaT01Bw
v3Rg9unYpd+0KwAzeWD6lX+gEMs9Wnv0oLY/9rkr4Nqifs/WuFBlsjg+R7XK910u
94RUufTGLtyWYLTO5lL1NooXHd4NjwsRFeToWYc/yNJzph9A6/Ra7p2u1VW8hRy9
KEWvYtt3oM9p0xTlqnE9Nx9Ir7lbH/sAW+YM9qaf1mnCvbluwiyPs1626IvjiYv0
pAJHavoXhq2/458HoP8FzlfV7LrZY/xEwA6TRxGcax+joqYTSwaZYbf+oICCLkCD
Vx1G2Ki2yWTjk5mmHkMAN8GcO4GSBxPcWu3h80knYUG+5BwRfBVoP1c7TRa+1hJE
90Ph9czuQRwWjtws7RA7n+MhN38/Vjuia8A5/Pim4cKSNRLQIFIHlxg3P2UBXCI7
+NEpWceAcrg6RUS/UX7NCZBdTzsUfPHnFnFd2WupB6YqUOVnUnk9SYOWcp17ZpiG
u6Jds+kE3L/k3/yfpEWSmx56dqHSNed3ZtNmaBh3zVjE6XPH/0KfNfv4+UGTpTRk
tWPG+VeK/+N60hk0t4fsg/sNqm5CvAd9wj0mPt7DHnpd3Hhf9VKwkNCNVqtnhi0y
VIwD6mzEC5ywQY3c6ShI9kJzQgnLOYAxwojK/wouKizgOh9sSGpjZnYAr75YG//O
M/qF0cQ78RGrbP289okDGa6L0qJdYkqBu3Fspplsl2TUmMMk9ysBMtjiTrmngLyS
m5FzvdsGdm0YT0Jft+2+EyUTUQ+6ElhVWTfST2N7Zf0D7FGiyX1/OgxIcMtcvWwc
ajK2q0LLFFrxvNh0j+aUUvCzgEpfbuk9jZFTAplvHcYeMeyLOSBe/wFnWcL7UWLb
fdpY/PY5QuGocpnq1rQ+YW6KvNOec4G/dBce7FFdUoOVHcgB7vT/hNndifeAppa3
VphMMy4KlDhdNmewfjyGXrix3WJCer6oXn/vrSeVysSfeygZ2njAbNfo9ZcovLx5
MJ+E5hbyIzEhDcEvPOa7hfhP70seJKegoNmF1ftVIFCg7kl2iOlUJpLScUwlpKBF
fd4d5CQaImu7Zyq6vS1/bF3Psw94g6jY59xmb1FYf8VHPY8XTPcIO3JtrAxtJGsA
1v+EqNHvv/N+3jCXsowV/Kv6cbjEeTLwD9B1+PgyPadMwy5w52FmyzHEsRaUaDyS
0vs4rzbZci8FtdOLIiifzCDXA2rKP3sg3PGpammx7Ud53wScclj4XPUJkUXe/wk4
yrGlJehEhHPuEiZRtiX6KHZI7BFW6znotNccy1neGScMtVzIU+naehzES2bmjI+i
xHf6/fXH1/7S1ExbnXMUe85pVCZBV/pWIh3MyrZWz4H0gowm0sltiwfT8RQgKiEJ
WM51an4qLgROhHDT8i71YyG3+ZwN5OBb0arWlbRAzWT78iZKhbMxpbRWIncnlJRw
zZwH7cAJ7MCbCz4o2OlQ0jhop//Hb1s4NB8L+FW7bLUjt+eHhRgugBdddStax1N8
cCysUHX1K4FahLhe5S2F322TumUFO7xeI+hBlB7T1XYX1ybHas+kSMQQs9PidIVJ
68svDpsLkHDgxOXu59MJ6e3MGiUyH6ELRwb8Wdi5dxETkdwzrgRZ0SJXmJ/EXsWQ
S0IECZsGf18YuebIqf917NWdSFygMR990qCEyljr108BNuvR4i3LyYuL2lZ/cYUq
S2Linu3eqVX6ZUZVXRaOs1XPkDN6WPVBLVJ+YSkcNmd3Jc0T7PxtTGzIKYSIXwBT
omHkeh0E4a2Jrwr11niTmIuCIb7uB/zmU8sjb92hH7KgLVpMxLnknb6v4nyDKaDf
RBdMaqBkMHW9z8Ec9t3E+SrGDUgheOW4yHentD7X+9BLc7AkxuRjUAWk1mKXu/Rz
Y/F3b8BHPGhCEJsSszMqa4HR6yDJrSuQ40uSHh0EOHW20cO1kO3XrwK8eSWkyOsS
TrvTZgE7Jrq6kTvD0Ih8AIc2HY3q0X6hhA477T+ZLc7csvo7RIM6z40Kw3AtZtKB
On3mXKzKy6bh+k+jNF7PutVh/JiEM7weE9E6lyeVJ3M/irs9X6kLsXgHvKuCLFfI
3WzCoSuGu1mdcfv60aLmij+80jZvo4ETHHROIlzR+i6TPpuJzT0AG35AkbloDcgf
2979YvY7aLgV+wNl6dx1RHwH0If3zjIH2eVXmoMKY41/ywhTGPBU8w+JkeWuKodL
JQr6hf4bf9ZIdhK3J1E0F92teW2k0Kbcy0Hw63OhLA5Z0Za5IChHr67heiF1dJsI
9AyEImKvqORXueovL4jKyV0ljnpXhy3XmiLGkDjLUUr9OdEpYztAa7Jj/E1BnCiB
zx4ya2/aoQRF7wsdemEX4PXW7xESW05WDGggs43eS0SEZSOWAh+Sf/H+XUDqo25O
S9X2J0Fgs5Id3JffqbUIxhE4MG3JgA7h/ODiZz32GOVoSkVj/vDxtZIuOj8Sv37V
3lyiPtUvEfem6OXjF3fIE9hi5+9jOUtwpwh0sRf6a+T8gk3Dgi+aWmKIChIiXTHI
T2zPhVa4j+rMyYwkRo8PRwRTizesLNJkGSuNcAVgM1MM+zOxxI6x0yDAPIINF+o/
qhLYDBgQ5ex4rIA1igycm8S8MwazOoTY/LpjuwUhVbneQZyJ1Uyze3ZIX7DpqvFn
Z3nSlXPPsWJQ62jayrbIxMnvSwVXVVDi7BB4I2rmu50v5OUSE0Cso/8tj0dodBRn
IcEKageuKL3JUnyKBLzA+rUaDXn2FmxPaFd7X59zfLdnOpfxmRgitRBj4RQ16FZD
k4YQ9si7TILFyxD3jdUa2fxSsQaTmBwTLZazAa+mcNGCidpehui1TXVwuGICH9eS
/Kl5I31YubkkSvldxXJSI4P1vovS4qa+UN2Nu0H8ohaV5gcTeXROKXyec65Y8og5
fHJ9Dy1ZRGHRT1Jf1QxzH4ikOap1uqNgYsFuYsOERfCmfHqvO1bWpQVVbobMUc7Z
JJ8RgyhW6c0KtkDQwVLw+OWvIDR7SCvMe/zUpR/+HB1SwFqNthG8aZBbpzo7TZEe
XgVADGLEGNMG2pQVjuiKgw4tXT39B+1R/JErSdascyOavkOIAG3QKj/3ZMArZtKb
eWpsmYw2zCYSLUyLZr4XVPW7FnEdAtBKOSbis3+XfEWEaT8AgBjGLpMLGCy2Rrf0
3F3YOSRTkP5LedvM6Im9yKmc+4JwKVNcX72asSDhh5Hz+RwUT5C6iByMzovLF0Zg
hfRUepB3epMrjOae/UIoOFts0tIzODtxR8/DFZ66oOIlaMvXN72E+utCVmWs1Crh
xN6glDeKssx+PI9eZZwaySDY6MMwh1MsbxKqwy0YCMbh1Y8tphw+zsi1UuPNdU06
9aV3Z1B4FEY42wK+vOA6YVZJMxyTYNkgawCsWUwRNXXDLr7S0wMxqgWgz7MkCmnY
EJB8BzM/WaDy9voNiMlw/WxuXzSzK/9Rj2yyhGLGNFwf5y08AZ8GyvXklnEVe/c4
twi6p4ZKUJb6a/voaMECNbby8ifyolmnPMgAOcsyLmD15JAaBSzVec+H6e07EtpZ
vKdmkKY04ZOTxKytnP1kA6oosPfHX/u27sdo9VatkLSrza4ZgrcuhzbwtwfCnMm4
z6u1OtX5m8Zjpn+CpUMmQkFdNJfUJCFMoZRAepfu4e6EWGvkdwJBA8kZATpOIpCn
seJxH90lS9KRoT10R9797BWZQdFC0vC7bOBwn5cOWNLsJ+ZL4rogMORvlSKqStpG
5Gd9gaSQcAuu2o2GwTd6ocbccBW8bnNyqkVkKb0bZ7Q/pjHn4LMBq0xAeoaBH88v
L5859QvO1YcK7sEgeqN46TA2eNE9+ovlU893dQcgW6T5fIwO0DRMj1yHlOC2v4pG
HaGvb1ASscwsJbAwEbuoBOylAAkBM57l/5lAdO96yI7qW57TQ7vi82l9sHc6iFQU
sIIPPsDoqCU6oC7qOb+a9D7hJW38u92mPSmiJE5zuAEzmXfsYWXUlaJXMkUfXLc4
KJYqDEGWty/SrFMiIq1OHbLE7MNfLRzwm7VKS2pvBkXsn7OZqmrw0/wNQnd3DrKy
gnUCg+d/80CkXZ1n5ZzuO+gSAPg0hnGgBd6U5NGBtWhh6TKJrtfhQ+m1GD9n4E6K
dYBEUsNFqY+GaA6cZquIcDWBgKmj6nk8zpWWZ7si3OV7DVblTBcLRY8C1TCutvuD
rvb4LoIU/e8XrhBiE6kClnBNzqcFeK0sCkXt0iALt5z/0UQnZlEb7e+/MH8m8Aoq
p99ICEPyYDmtg7y93NHGKFKtJYrR2clUGSRCcH8Zru/iBHsFvIuXuXbBhOyb7WaB
vTocHJbLjt6Ef2ge84Zm/3E3ikE2xA7izuH75ZVfTCtt80Kn0wkU6U6R0EvShAyg
uJ46OJLzais2cJQWSEN3lhoUkYseY3rVZnuZcPUtU2j/l8EwBqovjqJsH1OOdwD0
3J7sWUnJAbXcuNTF937hNMR2uY6hzBpihJfe64UG8eZU3CIDNv0LgaLu9o30J+kB
dHfa0k4U9Juy0fw00U6WmAkaOC6s5/ItSIABccliXnDQez1FOrR2+7lzYe/2+Dr8
f2QJnGYNXY8NKdl6+9bb5Ss+2/xyTrBA1Cm9FR6txvhpvPup8vrAmCtNfk1aMdao
49LcgJAHIlmJHHM570tHQqN/A25bWlQCgruFUGq2CwZQH1F+CW5BJFiu2XG6UmIi
zXrOmakt9yzaaSwq4evO6WcDWom4g8T0fY6ynvWQkpoRG7/2ujz/UTyGoJB1cJsD
G3Mg+aedx60xrxxWQWfgpkDQI2CjHb22o+ZNNJbr5hB0U8RQ983sZkc9T/nBJu0+
N5nP5BGxVAFeZ7XIbvfbEDtO9ZmggHMkd75cgvsxyg/Vq5Tuj9xAOxfjq/0nWDsW
wGAmd48zgWKUuLWRKWNS+YCwkkM0j8w/ABXwOyPJ+BRZRZaCvpwDhzrzWKTe/0FR
WvStcusMML6tQVBY02xT6wTbjX1qu8LraB4v8pDeRHthxxYGYoorp7kaQlrXlMBP
ACJJQJFukZvoaKLFwLVwefneNkVyleQE1G6alXNWVJeCUeR5e6MBcDxI+82I5vi5
1uz6zMQJTjmeCQ7D8seXQjy8y8u/NXrq1NXb3IhCOTey4YubBdcnJpNemJsWQ7um
fYVJmSG9zyGfyKYcrCuuXxxBCaBGDYXbJa39nwYPKL0KhccBfQw5/pMrIMwd90PU
+x5ctcN1q4oteEJa239yXiDoju+MXV4cLhzIXgSqTGjfLh9yMDaZFQkzFvXoXLhx
C7D8MWl5/fRxRtRUQblVQ4qzcB2dvW+msK+7aruPJB9VQ6Kj6J1sCMJiiXyt6fTA
dLdtMY+vIiludCeCEQHY/NSon0KySYkGoRfMzyMMq2OkwUbJG4TBlCZXI3ZIj8cj
EdEuE+QxQ0zrAMgCwo6n4yVXZF7OKJv5wdjKkbn+kulRJb9ABdJswlmLoY/wvKVe
6d9Z+gNgRykAPt82CMV6ukgJ+hHKWtsbw1VZIiTyCZ5FSUk98lHOOA4/sKkWdFi6
3nf94FMDR0HSDzpR7kh14GuO+uDR2zJdlEgLlViCXWP/YmDSmCgJF1Ru6DmPH7Rg
eAMJ+8eV4cTv/Rd7iUFjeS0M588v8H5X4+Yjqbl++pbYfqaO5O6/7Ashk1lnAyb6
xVhr4FE+6qRVd7diYn5LTkziYUXrXKS4q67hXvBsadQVBCrYroYhxCKLsXgT3gpn
/FRh3bxj9D1YtgsqXaBmZmvLHo2B7y3qUH5cjm4vS2WYBrVU0WjyzyjVRNBwXVZn
7+yiHTWp5Iv1ZD5YrDPlSeixy9N3obYJOr+1PvyvHj86He4/crNLadTpcgEIvuQa
7/FPWyVeO1sLDoKGaJGjHK0IU7+0yaf4o8tgLBPAtj8d6uhW6Yv8vGjoX7sYYw7B
Osb8YwzI319jB+5CB5/Chexco1ydpPtOrOby0w7nTJu8Au1NP91tGOqs9GgiG9cy
eOP64XmCb6BUpRNu2rP5DOfxSHDFALBpyCku6dXDpsNAR0aOCRQcu+twofn46AXC
61lDJbZ8K62Da9gla76zWIYxtLI0ZIv0JgmBSpv2jBpQInTK86O4VLaehpCJe3hp
z1ZThacRdQpUUocSCP61kScpPFQcOQp+Us5w/tcJnEhjrapcuxaf9vBRjRVbPK44
IFsW0tAyluizP8zq6FWbhxCv7iGLhlb8e4V6wMCgIoPxJn4cPXLck4gV/r8vOTGa
3V1DHSK38ChMiWbXBdmscoh9MC8MEMPWR9rMYeYLa/bizWNgrsjEeEIGOdiAPuRF
BNAwY0e95BXBoqpnJm5flVQArUYJ5JJvQbbaJ6Q00QTCulZXqIE3CkvgxcEWmzPD
jgWP9c/ctHN5PxZdruiMK8eBPjHrrM697tRekZdnzRryK5XNX4o9VPgnk6gndHxH
SH6EhEfCBO0nphSar24aXtW8P5Ppfporr3dVHUWtJNh2UbcynsPqLSVLwEgftSU1
RM2zJ8J5Faq/MMILaKhBxuFUt+X3H55+qEONHkIOmkrH3Q75hgCUeaSWZKMD44z5
sJTzuA7oKNs85GwmpeMd9NqbA3sfR3E7o9iLiYjixuJl8d9Hij412117HykoEYru
gHU7FmPsebqkRRarHgn8+8pO6X2zWlXJ/4vlyB5O5UTCyUyAA3MnIVcn8IHXVvh/
JoVcrAQCsefYRPLtzh1TAtsgXZSmigjss+w8DKIQvyylRY7F0QIKfLFMTEFWrI/U
WN3roTEtPw+IROJ+5ey/p9C2jndiMapWCbiPmRdS5hwkFCYfkpwX3bgXeesO38ed
FFQffCcMiJ9XPWtJZWRNyRag3YrIRC+MwLv+Ie07IHNa222zJ9ptNal0NRatAmM5
wrhlb3H0bBxCX0k28tWqiPoFe3Fli8KC/qPljEyqGWmJYqBgGa8r3B7AUAsXbxht
TpZeIAI8ZjXm7fba3j75ie0+3MOBiFFJVWL466MNQ6w9erdXPpa0UXBzjtWgXKNi
ny9DjPQJK66yeaWRRBelxwE7UNATdFph2pDekMv3B773kAJ/KAB+set3s/d7QDCp
9njhjAkKm1OUc8+rdBO91Ct1nwgwHgyFqfdbDu/FqOxbZmQtj9zLcNeGfb+BM0gh
vpxD3l//KmygtU3m0aDUy36rW2Y8bk9+jvhD2aNsRARfhQbogtiUOxxwjMXGMpgu
qt6f6Ey/LdlST2PJDl3jTe75fp+DMY3W4KG4lAPmf9qmv/eB77vHTVVNxJj70z4H
xC6bMwZaVKjXhlpKZAJ5cpn4bAE7yZnAEsB8pBtA3QcG7Cs6iU+K7zvH2oJlAJaV
MPF1ipTf1B2GhC3pQspwSELoIqHl/8873SVJdxZrvAp1PoLBw26uruUjn9B2ELR2
dAza402SYoSKR3OZwxFU9YXXsCVzYemLeBj6ivUKGsgzTWb78uOfGEiHGbruXJTR
yW796nDGC/ZaqpRwbw4t/iPRTuFLph2UrkwNTfVIkUICkBBUf2FcjtF5PYEb+HFL
4TA7ljZudWgE8tRKWJg8pSPd4G3WPNbDi3HB3dQdF+oTORprqSH4kK+yJXxNIbLV
rhBL96iBWEwNj3RUKHIwwkQb38vYEpiW+maFTP/7xEmFS3FcT3VYg2L9ERp2WXPi
5o4OtnvQM4+8HzrAFFvdHQJk7fQnHeIpj4TOCNP+w5GvozjiQ8uzz4XeUwdAAHde
IPA2MX41MQwOsftN5XuqDBdKhdsxZG0BBa0bZ+Y9AFHzfX8qR1BJc7it14IB2Odo
6nlNOuHEEUJT18yo/UNzoGS1KqYDOLS20RbiWMh+sIAPbjDlUjwdkRonvEncFfCg
Kb8DhE2sITmhFoX7No9nY1B34+YKtT63IFKe3+8D5VgNGt9oGUsggJoMjlDQCRqB
Ah8j/50SQ9rAsp/8nrrb4nMKTgX560eKx0m/0ha5gAWsphyRl3nmkcvDxAaadiE7
zyo+iKttjPHZpkXQXQxFo/410j97K1EYi/rqLZH8P50QrqYlvTVD+wc0mnLtMq0F
FO59UKJzp5iJdcaKk6A1NlSgBZb65WmViqEkL/YQ2URikDaSR8Zb7tOQ1V/OXA9f
hgmnwyyzFbbzh+8alWvlbtTI8Em/5YozpueiuKzrI5OHD9COkxszUlCDba4ZbZS8
+BkRupddrZ9qWyNFzXOL/qdpALRR2m4zk4wL7AeCbAuZ8+bdEsFbOHiysJ5NZifs
9y2Gf7v0B9kkRHUESOcnQn5m3ydV1VZoflVQJ3rPEEEdM9/4d/DM2CzTT+2cXN4R
HTzIOoFqtzWaDJiZjJTVq1wMaW47ILbuBq//jc/6+KG2oGu2TYej5OAmq9WKJSDL
xzhi1UOO6B1tvNWhS1N29NPlt4OSGX5sX77SHGM9HQOf7z+P0zwL+4ycQNJvxVGq
KrPXAjXU5REzE++F7CvVdcX9XOEOx5ArKn8LzOjbdOFrIVzTZzG5Nf/143PJ/u/P
EGWfM3nbgKaGE0Y+rKXRt4EmTRK5fXWpLtrMf2sQyP9uiyjD08h/FhiK4uUKYGW2
puBCeyZTGkKxCrR/vNHX86d+uDvcFfLWJhZrRyjNv/Kl5Yom5vWrqrZXBucOW16H
CliiiuilgfLiRvb6p8SWsN+ft3ZBswT6PAvxIsyx2YM1omU4uCA1m5PwpOiDCW5q
HibTTzWxX0re4BpbkHzV+w185KQOcTHE1WkX5CWiuyA2NoCYVQzDyCkhA0ykBo7f
ez55tbxdGzTClhwpgywRPWTlGe2ZsWdkZRquZ/rooYgHzUsIXth7LNP8FW+ElYqE
gAT8y1+BS0N7Jz+zARL8fiw1GSpTTocgFl6TM5JlkXE6Z42EPVEnGrh6MJM1wmTf
c8vcMzcV08WOOrWCO8azryQb54m6jUnH0TC1hE5TaYxAIQ8gA30pjE0iws0IEJnD
YA8NsrVN/GYc/N0eyNstFDqBMgCjhjJIUuJZAM87ft2WtSHWEE61k/WEOy/3mxu4
VlABCQ/ifCpkZDn3Ij/2iVIOVNDI7qLeH2YNRmwzcdhi6hUoDceotb8Y/vtyEBK5
iO095BoBpjIpTel51TAY5CbPWAe8KhuES0rmrzMJJkyg6aDBrx8/K8Ru9+WgWXLF
Sr0IptD/10v4PX5WGcnLotIiod2Htbul6TeDJVUYd7qfTS1LPWY96bmop+vbRM3J
Sq5yzHCYxnRnXD78exghfhOAukMg8lgbeTsocuze8TI9SXyRNS3LmxnDi31i8a0T
zS/+BZ9MfbAHNx5ueC+HFR9W0GJpd8rF4R5hgq8CTADVN5y2/AHuIBfDPYmdIKuH
i9pbCTpLk4/PmB7+4eR47PtLYerG0OeVJTBZCeyDJCmWHno4dVDmEqGr7rlfgrhs
JbxZWwHayRfoHqrg0UJ1vwckkUBnjYrDTEU0quNEnpA3RRkbpcMX0VIy6gixjnEM
6dUNQq51OPA7vUydY8osl1Ruqa262+bw4CTMtGxK7C0OUqOoht7XR7fRFxJo7QK6
omhsOeDhnlXVBu5TIm0A0fIGJqJioW6f+kPMdfCs0NYC2zSP5CJy/pbO9x2xWd/W
V2TRW77WEDocINWrp//Yuef3zcskkOZubfqkaJK8WM42Tpom9ca0hjgP0PhW6yAn
mSi2rmRoHQbxqrW34BXIU4dZyllt0NyJZz2gDSKoV9HNdUXEU9r5qLkt1fYNoKdz
qZ0YRsFvzyM1eyBDc3zILY0ttL8EeGfO/Gxp4sR2NBXyE/MPHbIALFvBpjPbIzTf
0aoUACwJdXhCxvROnj+5AxToFRsl6aaoBRlE3ScPAWGi1pgdCrsHo+UqpUNFPVSM
l7HGvHF2zW5oix0DIOh5fRicAtOzWobE7AyLFQ9ViZA68OgKIhsWbeEdw17La8uF
lSSH28OR91/JEU9psH8gWMupTLaGF24+hjPIPWiXtBQcNJ2LUzFefQjIL+66MDtQ
S02qkSJwp1I/30H0t09Duusmdrrs8K6NgDfNSONwKn4++lv4QoOTUns6NiZ97xys
7xMff4x3eZLGqYKeRAsLnfdtZUog7N4ths7YZ+TOU7M+1RIZPhg4uR0g26uX/bom
9k2xx4fdryF/e+6nCiVtl+S8j/eQZ5WEJUQH2hoUI2mSdNOceBGx6QIwc19IHwmG
cojoxVE5qZlLHPGFWoOV/v6Wr5L8lGl6HQl4J1qmaHsT7Y7UlJHOwXCo1NqQX+lh
mQuXUMIh7FijExk2CQZc1dvUwPYIDPpuatiihvTg+mj0QmZEY4wIOg2ouFj6hNRp
vWuS5umBeRJ1KkGY4R+y+kcG2LVmznKyNKBBuD6ABZa/ouWlSVTXDRRibzgiXhp3
+9/6pD873Ke2LHJCseZm+4Xmq/Kw/ukMCe6lBknbFrxGp35jDkKE+8nr0ssqMeqi
KjaKeTN3fGPXmOjHXrGxvA99EloZYks4b55NG5Sw/CpqMlmGL/eESPyA3mHyi1Sg
LEPFIHNhxE19vMMB7RmTr3kAGWUs3LUGeewZT/GQniXBhqS07VA/cVuvpny9z9nw
3deAXW/LFzivBJ1GBeBMowICQuDHPINsgfknwuViflazqR8wqh7LU/lXLAsyxINK
wKXg8CUFIqp3B49KC1C2jVtmgw5o2OKoZVZ2MZj7JsRekXOn+aDZ/dhqEpQY7h9A
VelcZywaXiMTd04Ki/lgVfI35PA94pPwNekydni3qfXMDF5IEE/cePNN57+Or76h
MvPgTIoWPs4g8to3Yxcv8fncGrV6e9JawQbiOIMpvKFhwhU/R4uI+aUPlrszZe22
dss7z/riT978HQdxDx8fLiUvXQwqMw5hiaMKep6WWh4iv1giWGb62dqbkASQAoBz
R2BSkkW/UB68YpxKQQtbwsPa4CTx5mKILvus9KdBfKVw5ftijvBAjG5OfeC5gfuM
uqzwHRZgXdhghCIK9VhF0YTNRFOrco2dt1TqhxOZSnsCp/vrwSf+QJ1em7hoXYnB
CO3N0iLW21AezpY6pFyUlNUYBlTWbKWjhNl15v3hsVdSyaaNsXPl4FdOpdUIgI5t
BfqiZZi4oiLxGrxukGHOSFwXp1vmLoFAeNkZ+SvNUFPnsJM6s/l+KkeO6ErvvChs
TGf7zUJJvZ/U+wIJazIDYs2BPt8LkrjTlUz/AUf73m+dEz74qpBWsaixEBWbNYZZ
cwkjtEcLL95taBE1EcGLyLi3Rk8Nz5/xzNCrudoEJqlcMcBpRlz1U9PbLHEhS4Jr
sCMGCdNhYs6eNdNMXNYhtiQsCzgZj4k65jkZj+EZTBJQTrU5ze7cgIx5gTVuu/rG
ouoNsGWPjWg1Ved0uzqkZVQHItQBeZ1UF4h3M6qrRl4OY+U6l0BkBXM8woQWlVqe
QwltqeaFpThdR9tYT3cjVsC9d0bMq208zp4Cm9qAek1tA3XwINx2mvtq8VkvLvm+
m6PHZAzFe/9gqODZ0kzAaOYB/oS+BCzVK9+o0lqIbH6XhVIYZeB5gPplltHwwUHL
iEGjhS5HRLAJTFdilQDqC+GgAsZ0V/xujerlWmBbqY0zetd/yV+SCHCtqMeUIJVA
4DEm38QFPGqQB1tDceRv+nqxtfXxPUcLfIyrlS5YZI/5SdsIw4O2ZYkMSGo1rh8Q
UWVMlCXL51kHhKKYjnIfVQ+crlE5Vjudk4dubprNVdwsuu7s/vrSsasCMGppsWlf
85YLiUQ9gAMr+c/6mXJggZThS6eMiiCHvaf71doTHe9a992H1iamLkE/2FZZObdI
JNrUSvNTbYfx2Ntch+mMDz9RV9WfhpVnDnmL+Q5PgiC86HVuxImjLWuJA123R7Ym
jgDJijFj4i4DMIIy8/C+wUM7Q/lnVcSllSZ5VDk7XtUrWHQ+q07jzk9SJj+/xbUr
Rb+YZX3Kx+00Df2jf6Yp7eoKwsaB7E3TWai3Fi/Cz7tJUSQXkBhLwadosjPWUlAX
MEzvlyaq9Ade0MDgprZgZ7EO1O6jvEPshcUesLEfbIQi7ssZy87VJ8FnRmeZsr2K
FEzumHApYwB/xvT4ZAP3iUYuugMmzbwR3fqULVYZO4wsJMd5x0/2rHLp7edSdoVZ
FNbkesFh9097/K5IkMM6vKUqNXL6VdzTuqII+S4yg6taIDxkWUNKXYg2W53OTBCS
axDRvZb8BThklhAPD4RKckBknKnBGPtJ2tczD4eJifKtWLzi/5ma8qZ6YDLmneCm
UFvJq6EhsPeJJu3oyBE2Ok2wvh3iP6Ww/B67mePRYV58iCCGWEpdilgN86x794x4
R3eW1+Vo+6LhZRLecP/rLJr+QpjlwESUMNQZEeSUNCIFp3SQYRJt29H68x8RnTbX
20turorJStPLLHlYSx8XhmktP4BEITSGP+lps41GWu0BQrcOi+Kqe9SwNGdn0vNg
d1T+XQNu33UM3u0G/A0/dvRpVGoBFzAqxVKDp+My1gjGeemu/f0OXs7xnZKRLJKZ
JH7EkvFTrryv9q/uuxbZGs097rCoFU0fFm6wJfsY4OJbiHfngCsdx03mO2m/UsMS
PX9Vr+0U9CM1Hu/GTx3K15R8hn666RF1OfY/Jk4Q/pVfi/d8Y9lZKrkVxcRbtYNP
IekXuki/WZAq1dyaV9UDSeIvxY+tuvPVOGaYd3PdbYIKRRHDSkAgfJzy8BE+Nsec
O09eI1LUC/kanHmdMepHRse7PbUyBBcg82XK6+4iYhJKUPo/s7HQl1GTIaO4l2vJ
s44gSD77CSIWsGNMAUDCFZ0v7K2Ba09eN3rK1NmYu1Xx43ckUSTwDGPGj2+0T8RW
jLXWsK2Cd4G9vgRvyI6stpGSVz24rrXk7Sv00GsUvlLbE77f2b1FW0bwW7/Xl2pv
2qYESRfsjpFlkhO668DpmJeRwOoNHXlWhnZ1iubjC2p4ROXT2ZAoAomeKkuADhrh
VMaaMPXKP0+XypnOfncsBOQpg+yNmbcdb28S5VhdfFp11oFWcA9xck55ajvY/t/1
yRsARw8EDJYtJ74OqwWEC7JYzopDg7PRpGQNyjk71m8pHfxXhIDuW+c+jr+/NOX4
+/g6aL60/sFMV+gPmb/HWv8RvxI5VA6w5R8ZMI/y319E/RBeRC2lU77mGU+OcE8d
XxXlC5+MbZcAnWeQ7RRL3508WvuOFlTc8t5d1f0AZAnXwlXpITJyXaFzBy7pAmaM
k1+EJk9lT1HZSZca1wMQ6Y4tCaRyIposFuoc2MlZYlGz2+V+PFbAGenycaohKUbc
L3H6PGCepUAEUB59Xhjdxd0CACHv7R7SHel/Ti+nYTqvXQ6hiimF6n3FCNY8dP3J
gUBOSGPUFNme3hqpIoQaSwxU/G9jAQEUzmeY58oAVt3H6qRFjN6nxTSUYS+VCsyt
QXUu/i//rTChn5l4icNsLfWpDC4Zfziqw6H8frpnHCnIgVcULC5kNojMvRz/P7+k
LirLZVPPG3vxSli6JVD6LItVlS1AxfvhHWoMf0iLnS3tp4oGxLmKb+HzqdVxjiHb
9zA2HW4PJRo66FzkX49Lx/duUF5do2hBIeewaQnaMjub1WnUKdqbfjqdcrLXbbEs
xDCPqv3/JEJNpWe0j8berY6sos1yZcWrD7A6aUEikuuLWLgO4J4s1acxJbfkteFM
l/K4mVm+J/d7b+bMfRRu6qyrVsuZfDzdAhaPId7feGnzyMprL6gjn+dfNHJMSHG/
iyDw1wqwLCQusNi5dlpsjBKDeazAdTbPjK06KATHsMYfKfrh/KO3BMsIFgDxA7vp
Yx2kiTeasuobnjAnMTvHLx/vi1FftLmAWJ/mM8UWl28sf1gQQg1RqEv0yh68lW3q
IMGBPuNxV6soZHmqnZ1OuK+GK34KejOTHvl3tuGpXmNIE8sfdcQboGobnWaEYXIt
RyCgWLX3TFpaoPWWZ71wMHZ1yA1UcA3uWavOIi09Bvvm5ZLqKBvxQGEquCjue8A/
5dOkDl0m/9i6C91exh67bLEfo/tsHgRaR5d+OZp9tGQ/VswWZvWt1lW017ATWpmt
j/j+cjoGyCFqm7fdLRcqzHN9qMOdKBU8knz3qaGuLyKGsdYiRbHjObFeEfLQHWiW
M8q2Lsxsrd/PiD/plsd4Ex4T+EPO5Fd0fERRyb9YyK78nF+6gfh+wVPshpZwU46M
kVEr1ecfXK11lrsynFMS8jJfH/cxF3DVhDBmfjLYP8FPaBcIO+vhR6gJPmXrWIwz
037/afUGgEYr+XfAmjszCzg0YG67BNwTSy7pkWVkfkhgTUvDixx3dL+LbQMncnY7
+7Ks/9V8/DN61FOBI/szg97RucoKgKKMe1W2ceR4o2kJHVjYCg3fB482w9KNNDAr
V7Lwq32kfTGyaSBRuMzTqCJCYepGZBk/YMDbJLxDHwWENjmZGHN8lOnrzViv8owO
zTItNG5dGibf9kOjjCC9tBWEtOc0Dk6vsEYi+KE8UBEkYA0gutw+7eAStXyt5jME
9heqlSx8hmwalW2O1rdKtAaUTgAh9qxkNUQSzUGghDht6bsaJJQ6xcefYaotkZkk
vlswd3rOE6xe/MgbTRyOoDdt/z+Jet5PnZ4L2XtJv0sxw65KqeZYTb3AFBemGmEG
9V4piAgo1U8+B9ypuVJBb9W/FU5IVP6/+3hpQpLhPcMCGlulVXaSQ2M5n+XiQZn/
7mxyQqaLiusway7tRAI/JltnSpuJa7YJNujhkzAuK+W1NhV5++eK4o4uhgEAacUh
wOv8ddEH/Fne7q36DBInPss1nStlOQ+Ppzb9565yKU3K46s/gtyFLVlrd2nn95ow
APUDKEfmyPASGuSW2eP4iLofrswNoLvzB4k1Q0OaPNc1u+XT0oooi+WdUMqCydYA
9+ZKcpTmnhC7/4e45REvnXGJi+aA4WEmf121kcO1T/S73a1JfKQBE8BoNF0Aq6cV
rbVGdzJzmZY+KO6Mfb5yhkCiPwP5IIF6xy3BGnG8aQ2pXhbef1KdufGrVpxax5jo
mTGRtL1sHNwR1boYbu8idLI2ioPUJUmN+t5l7LmGGxiAp3Ur5UXF1nZ5WybKSDcO
ykKy7d8DbNANLB301A9XXf87yc5gsKBSguF0o81e5kfstJnJs+INZN9twts8WDtl
aQwrGmEkThJ5RtWs1qZEZLR879PimcpHVU1J4PftBcIdaWQJCAc3+tDmzzyhO8Ai
SC0iCYmhryEv9h3gFXlDKeI36wzvsrbNrrJY7ranFReknLblbUEWnesqGW1Zo24p
NdLV3CH/NX5QoPRxrcBVD0UwjxpyA928TvdchwAyLYRfL9a2whqsSY8yKuTc0Sym
p/yQpfVNjoqCBSoPS1i40Ei/sXCzQ6OYihq0xNuP4FF5w0aSHsJK1delaWTKdW1J
N45P9FB/XrbsZL7IqQr+4mUxHzMH+0qiw9WlIqUFajbzovL/zo6RkYqMg7TYxyG9
4XPDvd3vLWnl+4cwe7/N93XTxAj2ObL1IeohwUEtZ5/BHygHnK5d+qKEda6uXCIE
MjDeOHVrU4iBVEv+ktoznDTgEfnYBILaA/EBJGm9dx+PgbR6zkrHvXAyoyPuW/ow
WKBdrm82qLwruWZT6gD7FKPqmKcwif/8Cu8YOcNbJBOPywnLBV+KWt1MoVBTzf6R
GCMYGHv/1NN82sQDJ/OHHYv1/JaEmVmICutcM5G9GszRECD6vQ1hi4udOqo7LULN
JpFP1sZg/RbWtezbshyQ6jAhLI5+b38SJsBP+luicQvYGQUBeGXKF2UEVewCh3iD
uiMn+Nv+GYaeXshmIgRutTo4Vt62oGlui+ue1o0g9Zd2U783IgEaGu9vQ6CDkh6g
DniVxqHZkCBWbnCagkDm0dtoAuGXL9/MCmJkjHIN1q4lgZbu9RUkLoDAhT8Q7TyQ
ii8WIV1503incVJohzYb5hQnTYoMOZeCPwU2SNxDwJxkhAKoWlDOjT/aq4xTFlEc
G5lv/PKv35VqFBZ+ELKKAtOwRwyBS+yn2QgF8AHverRKaYrQGriAqIym1b7RJ3yV
SxNP7aYUXud0eCrbfE7z+l9IlPInummpoG3oheTRLpz/AfJom76+2JAAuKEx3lzh
/JzZcZCUUYgWC67dt7NfConqMpbJeQnnGLQmpyBDwEKaQ4UgMg2JDmOroOJ+rPcD
xtNKadEm6Bc2xREz4EVLZjC88fjQZkZSbKUzTDoUQS2n8QVKG4I2c2fMskxoQs4S
h9PEQeIgCTWdYO1pCtqD0wHJyyU0Yoa8hawVmRvTxRI8j4RYbhPFTk0vl/OfaMMP
hpL1SDe1aq+kOK+sNhe2vXwZBuMslOOODcNP7PcoP7vZ8Il8lbZ+vuTJYB+0nShK
+ohpvhesV/+UaLnu/InJsnxm6WWccwH32thmJs/RwBWhCn+WdcHJAOtMlWr6g3KQ
nMoJRJKjwh5AWCaE2jknafLwvQtZx93USsmG6y7QGZxgkostjJSzXvTgZY6byXXk
3Sa8YdbT4DcOt+ppWKOjx4E8sfTFYh4A8R1kIh8UQpW56c706ahduwt865bewb8T
/AfgLUaSqVevASZGEOHiRoZbbjOORNneUadPC/vcOVCyChCfCDdSCz2oesW+QF/3
ZGis0dK2V9rP+nwII6plhxMpGHjkakRTfssiO8ovRB6WwOvJpb6g0yTautlgZwkX
AovmxQ/S2UCnuaM2jKhxjUzO2UdD1ZCO71zHuvc5SMSomhavWPCe7vs2u30z7mbI
99PqqYHp+Br/DilhLqgpR9tqGCfToz7BTfiiVxxXyBGWXg/GbSUD6W7TRPtPG7eN
ynMjt0lLY0Sp1ATAfrGOgbNp11P97Y8TKD0nsQHNKRjDoZeo6117zYXYYLqM/PHR
Qx5JLHeJ4nOqKGtrZ48ITZOLszuRrFupBeKM1qp1agW45zwn6Ll9MoZgAt/aDFCM
yQxrOFokI1Ml+f6x8mDtyA/GfALJ8buQybYMIn6MDYi7SRTssgT0sIxbsJTccRfJ
nO8vUt9SXgrTsx1+NQdEc/y43Aww9QFBxo90tn4a7StB2rnuHUDU6HBE08hBjcie
6rZkL9IzNVEx69rhAESj1PjdOFlSjl8gEN9SkXwJNK180GgHLoWHfwkjsNkQDz9I
5fbyFNwBnrvjE70eEr4KRzOZym0XsFsJiHCTeUd5w84xubSDFySdQATHN6SIwpcV
BjCXibI9lsXn/LCT4SS2Mw4MckKpxQOpLCNZxgMABdg5Oiq7SETRurf/vrhwQyCR
jYKfqKXuC6Xa+0UZ5/LFhIdJAK/U6dW1G3LL7XIDsoEKhLQbLdGRpijMCKJMboDe
4DPIGX7ZSO067j+SzNwbGopoLWOU60D6nJb3tWiCRRO4PFxVvQRNNbWytCVHL85d
VxgbosIqgL9sLJfXoPyk+6OIiSqnXH9dLM3cXrAwaVUM5p3DK+R1Dad2xIUD5Upg
yH1YEGqGqQXlAmF1QYQ/3NDUwzvQdlmVYwTPl4iPlMkmhCM0E9OFoU+d04GS3isa
UsKRY4czSoRSv6otstV4b8+axLBVLmXxL7/Av/ul1HV/1Md7fbcJsW6E4qf4BNMv
WzocDiUlLVXU2QKjeWNIX7W40aR2dm9ebfkuU2RGnYm4nk+yCt0k2MgYMtk8dCa7
h1izvOEiJlZUiIBP0YLSJz22fXJHA9Sw5nnaH0Cjwq8jMJxxtKrwqz2EEdyziy1W
FoGTsdYKxKGf0RTuBpXABt3na2cJL8S9jv8pI12GlSOHL5Lo1mTVdLX9UyPSRHbq
5Kb/rVOGsk+Q4AOqbweM9invtyirl1ynvr1OcqQYrZzg91fW64b/QEPKYEqE5kDz
dahas/Pc/bXf1i/SM7x6lGptIjhao0IT/E+GmCH5ICne6qPbiEaUyqy8W2c66SXF
RrOEJu0hx7R1IGD8GulMzXx2R6t76cotaMYGFMNiSexcotsG09lzjz04Jow22rnO
+FtJktjwPY30wV6iBDLOdTVLSPvoDCrheG3o1s41AjoOVuoa6TncJ5hSt4tI2siR
lHqdPgxvMmKUSVjevMzZtNhebq+oX2ccjHw47zphrUVMWhwhAV16U0KqXfaxOjMu
PCqhUELe+cu5jFP0GLb/0hCbWV29b9924yaXCKY7PMCF2kFs40E141wDNq1xXqCH
rTd6/2iLik83PxBC0LlhLDkl79YlyEESXoHgGGzuwHR3XMx/ggHKuZZMHSacAfDA
yuGCJ2ex9rw4BqYbVt1KX5q9ruk2JIVlgLM4SXoM6Nbr5bIzmbvkSbv50eU9t8Gp
jMFeM9tTJDuiaZQloT23ukA7DFAl9bjAPda8kZIC6llHHFwjRPueAs29jY/ajQp7
jpZ506ybn+cjFbW0NnnwoGZbf7iTTPlbZ47ed0+DV0ASULgbjggMPg3YfTYQrsqf
IYhNPI5JdVYR9gNWWbwDbtrc8argtK9ewgEn70h4/KCEuD4TYZXeCeoGTxvKu4zI
o1OtEkELMWEdyHyw0TrSWBFRFEQrBQEmRyXKeWoYv3XJMk7FCVHXIHmf4NUbNl57
blnC2jRkn+IjxuPBRStJ58m+E4N4+IC6GqsZetnT70KxAYIiayaa54KRFdVPcts7
0QwJK7v+oppftaQsAHlO6M1BbGMxZd52PiNozbT8XEdlOQULpTFWqJ32o/ubCn6g
hDCmgJ7w3inqkq2rBTd/5COM0hZlItXwY0T4eAq6K3XzidITlhUnep41t5wJPHa7
gk/N0/8HoKpLfajktT2WtJZZmg7G0eafRvvG6DE1gMLtUWCcJnnkJABHnKBqsgmJ
9Fg4xi3FcDgIt+UFlJwXyhgxBOiiB0OYTBUZtvNMHL47ll174MkTV+Dy0sotEdkp
d0n5XFHJTGVpabLsjLbuOvpYs8gey3p72W/tR8y5L1LkwFOUJ+jzb1Slnp2SyS6f
DGYe2mFsFphvhzOMBHgHFClXUhVdNNYoH3PagLkXb8TKyTRW3+A3Qv7h+7VOngvY
mcE4XZng6V9pSqf5400oTaS19LXmNppU6ddoZ2giibFfLu1q1xZ2vzyH3JqMduHT
Z96JDzlb5bXtj2D5OFdhUiFaCS7J7x++8bOXsTrauIEID5V6q32+yuezCZbyZT73
h5SOaT4tG8Dea9Cybu0TaQ8rYlXTvDG64X5qzU20JzlCGXkoFUngRB1x+fpdVfeW
mKLb7XsX91ERmESn1+JArnzi8VGb6jECajUBA7HQe1l1GHEZzX108t3Xe0UZ/4yh
gQqCLLNqOz/pJH3quHXVdulDbLTP25s6AIp/itCFRENF058juQG6d2uYhMmzaY8H
IOB5GzShTez2eQ97bXEeoyB7qkVqZYlW+5VJ3ohI1nXKw/4FhiLY2kQWrHDVszOW
kqVUPvP4G4CHwPGIdk7Kqd1DcEEWi98xWBkmkHb0gvE3GDFw7DfmK80H0TQUN9bt
sW0CPmFiYKeJ9BakJBig1DXi7bjz0mHB2fPEkkZwaGfwdRGqbNJfz0ULAAjdr0UD
enZNWQ24HkNSVIDuSNRBOSGEQEoipnJxXUmTk4qoDDEipB7WVnuNUslxFeHBFCGn
yoPi1wEdV4GCG6JKMODtNL04CbvZ8tY/L6yKnqFai0Suz3X514T8jYpdpZESQ0tb
5Kcog9m5zwCk8AXSAJbuseVT4izV0Rvaw+JK0D/d0UVwxos8cxyKzWpuh/llu0dD
FWNDW+TpWlw8VUl5SwVDshTWxL2XJj7ah7q/aYLzkpQ+wqVrhLPJpIl+Al3e8SLU
dAmHxct2gWccsp8t8rPddAtcX1LrictadKbl2AdD/9PmZ5AqZO2WZkG6sruaPMDR
gIhsYtwpODb1luSCrUPW3XzxdSyITIE7SGkA5O3tWtNfOHfKoE49rhaKuvFaFr4i
tnVmLRxRDRAYKvu2nFHkDQAQgQFPfyqlJkJWGbk6O71KqqTdToROpb9a41HfVjOb
fejRx/TOl1yEx04l8QraKQhauvD03PNzPMhz5F3nuXRdSij7B8Jsk1QqngQ6X7Kd
L9Ge3iZAXa03IyCuddWqDv2kCtgKtJODghghNo6Lp0E44HsKlYqNKjTTQ+wa5Gzx
U9S2Kket2eTxx6YNSZ65oWlOsDL79f4H9KqQIOYAW1QghfZkCGvA4AhPCBqhmJfs
Zx2HCy9ZKuTiluHjqDvyq8WvkiMwIK7jGIqppbkfeSCLSGYd6gTKtC24hxayxfI0
35BdqkZZ1IAX2IlBYeMuHeJp9ETA+hUe0EzEWy8iR7GKJwXGToUCvyYGqUscQz4+
699Urwuso3j6ER21l8zCkh0LIthRkETsqPzIgXOXS8kAOR7+l1fEtyYmTrAlWoMk
sYECDkCb/yuO409zk13YodQai/k8GG7LlQbgHQ+WLIdPq/HuOioll4jFLXrlJ91k
9jfjxz6EMBvEv8JQyG/h9xOxikdywUdzrTyq8yspmmK4GgK+d4jN2y5NeEiH4oxV
cEKbkdjzzkL7q2BxL+9TgxS+xqM+o83laoubMgK3RF5XKzxS9Z3608nIKHa8V0KS
tuwp6QdVNdra7E0hNn0bzcBBUnak8TSsHafEbYUnPNaVaxtr4aK6l/zNDlsheyQM
yW0JxG7gXHOslIzal+Rrl1Id2roP39E5EzXphem7S1PpwQwgqN9fK+lknNqbMtfH
Tkpxu1rQCrNzBreRNNDEZ/DBVrOl81QpE5oOavdSZEUpVUFQXNzfERecs8zOtYj+
fE+vuH4ItR1BKjuWBNyZ/UST/Y+/3I2iTMhSsUO5y3z4h95GjWcn9/d961WR7JJB
L2ZQIaITsR43MYt1Oz2cGnzxweN8Pz9U9EpPwVZEdibs7IKKojFiacxbLyMYL5CS
ZWRfVTeCjGQT9ohGtG5ZXvGc4jLWtyQId3SaW1y0ySv1x+GUN6D96mn34N0xSYJ0
C5nnfp4KtTvh8U4CiWWt0IBMqVbzLvjfsyQGbKg7kIwrxA3sim3k+ZXjLmwhahtX
KrgWtGdxh/9Yqs+aNwFe7WDWoOArcuFTBaKiSJMMKHnUct5ivMYtvDRsPI5CCi2a
qsVLg5DLZtniGtcyWi4lriQVR6lQcoG6rh3Ybx/WtwyhtXgLioev+CWY4BcCM25u
v3DwXDdsKE9pJdWv2VhysMyGO5rF1JczR7NGtwQFNbmAZKt/G0mdaUufTtonFigG
qqoaODAe4mDt4mYqytPjI6nQF+43Z/GO9O9R7mnygV4zK60o7nXfwJ6GQXPPVBNo
eWgjtDKZMgMNYEYeAd46Hk3b6QC0s0s7+14ycCtWmkZI/8zhtEeOC0UqC3tkeWu9
E+Cz24k8NVPAYqlyi/UDElT/zR5j9+qeGgIw0i9TAXofO8yW9+DvdvGlSDNN9UWj
hfeB6lQXUHf5cP8J4TQflyw7t5w8ILsihRmJ1isMA0MV+lK4r4JTpzS8wa7Jw5U6
72mR8SLZP2+ViX42PXH6dmE5MY9qetJ56nf52C0auOY1LfCrwWbc51VXCwYiZjsM
SNstFPEgtRl+JBvtpo26VN8AYO3TPj+4papNwDWYPeCj8ofoljScTqPDd6BcCKQ8
+YHelGkv06hPEgIuFN5v76BpkzEIE/PAu0h/pbu6HhL4GbC9BEptuRx66zoBRPZ8
G29Z63T3embwVzIfaRvfZB78LYLS5ukZhhQwLnu/3h44qSxncK9vFT52dmRyAue/
ZvRcdodumkMjzapXUPX88MuE2Zhv8LDHD1/Pr7OwQ7SZItw8IKYEsK3QsZ8ZZJvn
Z7bAO7OPjj03E+pKP/MfE+IUND8cz7n8z88TZVuFm8uXqxl06jaI1739zfFLAoNV
SF7IFubSqT7MN0JWknsjJ+yOp3UpYZPxLKxg1gN2NdaXZGWWeeXHaoqn6ZJ72MKA
ySibcbgb+ob7o5r3q3JNNUIyTXsLTn7ddgUbtwyLR/rKcYr7DqexemxPs8oid4er
edesv1Zq9DfmXyW44Rs2Ck3x5xV4gwnctWa9WwGTQI0qGbFvBRuBHHtlY6tLNH/e
T2rNJRWZjCmQYOb2IdaLfi+CPumGkIRvpe6NmGHKUmo+5LIh5YqlljxoIErDoWzx
yG4Ie8xqug2blhPnqhmy7eiYCgosdfGUhVCMDFe35Bv1l7NZRrROHM4nxZA0Bt9n
9tx9QuxCVNcVsWTw9/ET7A/npjjovBJIqOB4AcO+cX/21ASt22P0A7voEfbDr1Kd
hjg5nvbPCOjCCpZTeh+ShSXlnAjDZzjl+HAOWmsR2i4tIzF9YU0wO19ztnrFg5Vt
wHEMpKqX91HZwYU44N7+3hF3enJFrJF6zDDzmdFF4zRsvmSJvs0aZaVOwsOFMgTn
Ml18e1lyYO8jQh5NjXpNNXeZyETdhBMBckbA9HwLGwRz+A0VTXjOu8oW22uBRzz6
1M7Tr9IV7w4qAu+y9UzyrUuwnEzwkk3K/caKYVAacc/8cgkwfG7zp0vd9lSg+/rs
BSC3ADXsvklJU12kCOj1wYLQF5K2yjH05awTU43TR3mVUnUN3Jqxm2vSHvR31zkH
bsBYAeKU/zKgkZSC0wy0bnoiraUjTBcd4OobScOW6At6o/XX6ei0tdFk+/fOqZ74
WNMFZen7lyueczgS8aoowPA4Wbt1nH71j3DpF68ezScrew+UaCm/J/QHYQVLYtM0
jU9cWc+IspwbT6USe9Ngdmrz6qsJ+1Vv/9qwk8tSaptr7h3EZINxwKcQ/Z9cgfqO
dfYUTavtHQOH5zsOxw+/kZvSaPXbvU+RfaC58K05WXGntlspnD1BcmD4ngIlJQXA
QduGuFBbhAniJn5/Tc8/rTijuavcKeQexR326L7OSxqUeIJpEB63W+WJ6sluhVL4
J9KIW6yb39kkFdUYOuQIOf6zrxFr8PPOJjziioRuWlLy0794sDCahZheO18BbFjq
ebPhAQOAlpGqFoiFqtv6ft6WoXv29Q+RZc/CHxfeg1UopyiCGbw31RgRcpxaYRDg
pFQIMOTNLCYdJqbWjucWp9/zv0BpXrUEhplntcqrc6yntXKZjwvWg/ja/FKxmMUr
E4HBW8o+8N2R3iyexi9p0kPAYBiMKg5lVmFhIGRL+K/TB/+mlj/l6Gr82UudYqTI
sNiO2uhNG1xbksC1hmLedOLplTqTxgiUC6z/gE2BuimAJhJdMwVdy+09llDvu9f/
8s+ra4v3CUVGvECz+mEN3rvdDsZf1NYSBkdnF/uHjzN5fv3IxyPOK3QmsEWeTgh6
0dJp4PNpIFQvkVo9YIvDNHjTsU8bh0D7+kaFb1ktkjInzblUSho1G5v5wchF7rhv
6G7ecp80DW53pQXAECWR7XWFpKEtMhV963+A3xaMkH65JjFj7/UnUZb8dWo7bAiB
bPi47KKWcHfy0ZJCNO3JSTRMwG2UdjfW33b8zQytjtEJywLzh2y70v+f4zzcvGVw
L0+aZAC4j5WS4k71H3+gFACrTiHjUjaXE6kUeIUDALTp86mb3e7kkkF7mJpRtr5T
gXFx/VSmb9WB4VqzUu8b6Xf9GorvlXZC7/gh1RkHvRjKBlvldYTq3BJ/Yx+UudKk
UIMeQjINkildZRbJ8Ie3W6CQytEM0wnkCe2Sr57lN7fmJWwF1Cv0vvigYVJGGUKs
zbwzlRj3MjpX0G5fEMFmHVx6TSJka757UEi5WOI3Egum+MEMx8ugqCtHtaxrfdkD
pODRZPJosYUltH4u0IBngYAvwsjYQVduU0nVrxivNMK8Ja+dpy5Rh5MTj1HAXrn3
mtuomToB0WNljLRjenDAzq0FUdHrTcOEHoVrNftOotIMcldnE1r9rwarGlDuxZyR
H5BQZ/X2XZXBYELleBWGajTddzErl+I3+iTXPc6X22wjakBO0bYAx/GcUZCWaRGR
cs3mw+l/VaOVgBZLKIYMQjQuK8W77E0z1aBo6jRRcfYkMt13oWfVBEmnw9eefd7Q
ILKOVJFZ8H0Q7jtnGGNpmp9lyf4jlgmHX/NBHLUa+/DNvxmLl32IdAxmGTUSWZJ7
o/HsH5HQm03/wgG2mOACMABmjl/syzxfhQH/StAIhdMcbNsxy//vCnGrJNtdv69X
GdaVjtu+Mp33J5WeogjzewaVuJCKfgWxfWW24CM8xpjoS7xtBF42vcZOl2qHmUaN
NnsubacY8aL1ZBp+Ex2oW+R0doAMRb82iGJjZAv0+OUbGAi7nSwSeJezcPqV1xt9
/zT6+v/HsCZLeFfylTi0RldBWH4E50f6zxi2Q4fnlP5hSF/IVRQKAKdwzgOQvPAu
drXqmP1/Ni3QWaw233qeoOlb0knfCEcL/8dUYbzPqu32PFIBmfcTQmUSwoPiNjQv
hfeopip76udZ3ovIyZ5qnd9pKSbTS5Y/hic7WukTppyZK4NTMwsNKAPLRyrVrraA
GJRYukeryB17YzOkKqTC58ebnBgMJb0CV4W0VQDrWiOElD86pTvuY2sFY9ZYSzU0
4WU3mHPxYjMRPbHb1GTcijr+P+3+A43i/9kIjgnO29xRu9w4byY9Svuiu1bG3jNP
SNoqLpHZ4REsrB31ApApz89pRMMHVFCps7vQdfAVMIrJUQH7PJ614Uys6D9AV8AG
9OVuSbwExregr2vVGPbBu1MpX5UCZl11XIn69u1Jgx5WTx2LSLWHGK9DyX0lUJjJ
mSRnfgff1Bsma6WB96W0OUBZBEJtOgM15n3X4n2USl8kttrCJDsVPauafsfH5ta7
cSnLg1x9mWeStHlnloQb1LGkCBlDnsVvehXSKnFVO6MnCYErD04F0aK7iTijBlGU
i9GveHwvjsTBSfC57ktk0UsW1c8N2PyVKtljeXlHkwbP6knlA8T8YQy9A7Xf4vED
Ijt3VXnN3SGkmWJpaLUstDwXAEWVELAptuiJmb6IJA7ZaccHtwgEpulVCkmVR5Ni
S2ndpW5p9k2pymqftcYS/0kxIvEVeC1qlc3w4QPq0YITCTk++rxtHs/P3f3SMDM4
VSijjASlnhiLZKh/nCC0fEzKnz1S5sdh88EAWFd7/npFRu33/9vj798M53szLu8b
yAU2vptLEpe4PANQIxB4Vjye9l5RYIEQec2p4OpMF+oBQTwtbGZ8csXy8/IxwynZ
PVF8+6DqvxI0D1HrtZTD8Hedh/upsVB3mmLWsBkQ/rLz5asAygncr5IsRYGZbws9
3NtUFDBIlTKrOpgO1p5bQQVPhj+xZqHFQng3351COLxeyyen+3yebR4/s1JmkWiZ
3CAMsSVi5b9nJuoNo08upHnq5tmmys1WoCWkyAJonUnFJd7Qt6Ne2itaR1lNCgdf
YObVsIAvwLcwpEqnODbgXjoTEtLG2JHNymWE10XWqhX4+5bafPB2ptyGmUrkTSip
q8koSPugkynf99yx3fEaykJ3zwudAkAzh91aWukkW9E9mjqpkk5VyTvykRv2di98
MbquUANUgIJEG7ykaqiA8w43s/lr2MHQoc7X52f0XtqvO5YeJBb22SkzGThZFnJR
8x18BSj5+U7glWwnY4M48J5eQLC/uC9YfOcoRRKuHHYORUisZ6R5i5RfWRU7dgyp
7LEVnhofVblvhNhkuhIpH2raxcxVSIb8nX+ph1ZVo0NhkcRKslILdFobQuLzNHiU
cFeIOFYqo0DS1+8+83UQ+n/1PZjX34sgqplz8x7G4E39MaTD9UUYTEn8AdHRhcOk
ul4kZ9X/L5AJ2UIKMPO0XIzw5HKixSvdwUxivGgLh8AtXZgBkUnj4Y4jXXMGT6Jv
TtKq9X9GSAaLqL0gc1sD200ayS/hy64fa5KV1h3WTUp3Uh+Niqw4nxN9l6j2b8Ze
2hSrL8PbgWztervECHY8kVcgc0NYYLbGkETX/8O+AeWUmu/ZRXBC6oJpFxHonsQt
h7mIkEEIA4Z/kM6K413Zy6cP5a5k0bkaIXtKODGCm+fGXsLAWyftC4wcLTYGCRKF
4Lck+ORGYp/GhOAAHYE1wDC0OeF3UryiwGyyWQ49+HP99o74N9aDrJes7sl8NsoH
FfDWQLEtQQCHTw0PUx5IE8gNL4iTMABIDLoXm4G8P1ZgBZcdVOBUDbc2LjC2VWI8
vA86Orv1CGclA0GEgGl1/txu2B67IVOokViLaMFZGbRvSMX6qc2rGIo0e7kxvAmt
rF150Eal+TMX+H5v2rORTPtYJe9WBLEmhQv7PPeF7Aeb10loQvN1n4DqLgQacin+
5Re+fmeKF1YnOO25yxIlFiGHP+a940Ski+iHw+MGZe3G67mIEhqXLNnAbD811msM
KglaGUpVAVk53T6lMN835W8akI8C0PyaMT9uNdgXJ52tH/i2gDvBBCPNC/bTGGL2
eMCpsUaWWM4/fb3s/mQH5vgrQN08HbkaPe9B7l6JDmdKrv5g9ONjHFA3sqA+NVJl
4CJtAOnANaLgggMyLCjs2VnVKdSi7NNm5MePeB7PbABEkfOIZIvdKUOtZLuI8sa/
O4je2Q4y562u6ITaNaL4thbo2ExCfxIA++HlJxJ+KD8ehu/Cnd7/ZvpezOV50htU
veZLFdIaSi8q1nec3DBQNHvHh8KStNL6YokvNp+I/rIecgNWEgBTu0RyLomkywiC
eTcXDLbzwaYPYmufqLb5NEprBug8pFPJlwRGO2bf/Zi1D6BjyOhtMavwzYzwtERO
JSrOm7qQSq06TLySw5kb+JfzhU3fui7363QjuzHbB1X0v5Gm5usrvMwLYCKlx7dp
3f/DiPmGppC+9uGV6uUunrXlEV4DbVhRFJWxfyOPiW3JvS3Xa17az3WB1RrVdxNd
a3sM/f0jR9vNyaHW7mBJrqOwXITZClW25JxrLBqQ4zia6Uxqy979CAmV92F4qp82
XSwe5rhr3nlwQ8QPegJ/PZm//8Gv3/YoWKCkcVzQxevlPPNMBOF4n2S/hrsZor5M
fmzBX+1F+QogebJkYZYGQz8Yy+764zpUi2Bsqz9CJySabxeLdJagotAhzBtMrMJI
ispX6uBmtrDOS2bFDgpUnEsR8XpG0+d+0JiGQM1ZAPXJiboXI8Rdz5EXhi3qhgwd
XQsVg29Tu2axwaVRMH9ucTifzou979aLQMjSpU46CxVFisxWBfLd756A5a27L+2B
hEz2eE9YoJJ6IRyxnhU0A1IxrZS6LV+q8tB1/MlDO9l/9xAkvlil5zHy1Isz0HZn
gV7JkWrN1B1wd509YYC+aFmvNf1iYBmrniEWlc/8NPVxxcO4op80u8U4LtrBcabf
EKt6zv5vd2RUJX8JstoP987VFCDfiZekX01iE9o3A6MW4fTFAJ6z/xZHv/iNyY4H
FnSQxortTQPaahV+/ydDYqq/NgBAbnoZvRfDxVnRGfBPVCJrJb5JgBsurBjXvRQS
na9Gclbo6wsAciqehvwzDZPUhc6O6GD+TWXnQSiR6vknaYIj2LyRFeme55019JdG
bJE76a34HDkCrMZJ926kNe4erFBAmMTUNtoBtiIzqHdTvKK94ITMycgMFDZUT26Y
TwjjwOeVt6/T87Bv/JRKvziwHMOLbBBdrk/tm689jBzkzuWwfCyrvpKPuX75t/uR
38nqku3U94qdUs9nf/TQcfqH1VdGQfd+Y4FZjOvQNH2NKsWTsq0oIt/eAVQd8qWg
/SJWhyjyVJzGBfbY/bKZhJhUv4RGG2NtKtQYYqTzpAHObS5kveXtfsEefFjMhM+R
dF3Nbnx/i9ylCpC15FidUHjomxVoudPXaIUpReis1v6cfgL55NUgu+MHdL4KI40J
BDXjmv+xxBhza5eSim4BtqlMubnK6kTsU5UzDzvCEBLHryVpPILMzQrMjaNYSCxC
Nkp4hh0NSNYrmqqFWAvELclzpgKXmrmQtih2UW1oNNsg/fIYW4xdiE/DuY4tWgSK
kCa/dAgyj8HmwAZPaq1cYgfq1A6npLJNX1yAxSi653eXcB9KFzfqnJ3ev3FVYCfn
4KfHyXLnDfQi/ODF9lmW+92nhr/C202tZ7jnUr+vefyr5GL7kfWt+jacIqmPp/rO
iXdkNtKval1Is4OcchA3aVgifti/BWEBTEJCr7lXVeUPodkKKpmeAXVyyeMz9F7S
mx5FEDHbBaaU7c1SVOtk8G3ZhbcXoxMhX103Vve3IyiTVZmDSG+WAwKX2AqGo7ex
+KEOt3BdF1D9cymuO/1EUO3dY1NyVNs+RoyX+2EjQ8hYAMfPRwj0EghRHLjWJnzC
RjZaZAUrIfaFlPlrMWjm4nxptIR8tRxLkb4waOcVXNpYPxD//6e/tTsEaATB8D+F
pdUVeKMxYgPw7HGolykgjDmV5f6YfQS7MCMxHt8geQr66vgG7GKw/o4ImXdpT97+
HGKaI3dI6u5pB9pXB1uctPoIpBEVWvklEKh9XupxXzJwUg+CztqnLFrCShfhbEJG
lbq0ismcaVT+9pkanfsCqxOtDoxT4FT94OvePpBETq8xTJ+6DS8E+TrIIxWD3gKP
Irx+RXh77RzmO4LKG73Sit8lGnoEFgB07Bk8gj3UIP3sJs74XF4PXwrKNMimDFks
yiOgXeTAag/lrjbritqv/8Fu5CkNuc9jP+hq7iKpQXoXWoFQH8PB66kr1ymTMOJk
QBwjjhDp+31rdLnjCkD5q6lUDcz2Qpgk4AJ17nOQRQtYCOEFmRlGY/a1l6ILv0IT
ZkfUtm8Y+mQ6hIE6KGqU/jHXHu7bqftqENagNHXYCCdoxR0pOC8LZ4F9judMXMq9
fzBHlQYqKCUNVae7rEPENRU++2jkEka0rCxdeil/7+xAR2FSjH2xHWU+UnoWPvbl
34zHTba3/H5Tsg8TfOpCIhf6zaOvPanYsCi31kVDEevU11R5q78QGjhy4AZNRko/
2LK5wPU+piVEPC8lE+0wpTIjSsQfAWAlhE3G6LX4C8oI3pVP8pRBQSvDkcGtVOzt
SaogaigJC1W8iW8am1XExonJEqoz0jKrkQ21H3wndhtg1/MbSzrn3gNmnxhPfyJI
6aYkttkoKWq8eXx+gLE5rh9DVIh2e4G29MF6uy8Bd/Ir6lkWZ/KIpbkcAWVKFdha
wph/Pxo4qQUF+m4OwBH0qpDw++sHyZuUZdbN0mL/+PwMEY0EbL5gi2tm95IsZMVe
SFAdDO8lMORMrRRkrLFix8Lrfjtv/YHXjIFEHvrBbrLU/KyDRUU1wceFzxgWLZKM
MEms6APXSQf9TuJo4yc6Sf4MaeYqALx7ZvccC7Mgwk2mssJCM9XPjMH+8hpeVfUi
MjwqckJ8sOdbPzl7QliJUl+fsDxFhCKuPwMANlbhW8ReVdM6Lc7bi2Je7Q92li9e
HMq0UtKfRtg9Dwis7+FIiyugkuFOGUcCkVlUsieUY/7+mfP7gVdzqCugtaKVqW1Q
KBNf0X4QgZOqCjYuUDVNXvaQZBLjezS51XlO1xlC/J5/qBtZlJKYxfS6OvspD1iC
6dgU67MZgvs3BE11eCL7ruMvEXz89kpW+BaPTMD8H0Rwes6BAgZIhyKURMy3fxvj
xTY7hBHoUxCQwGCqAV934G2Mi0moTLNrXzK0bWvODsevQvuivq4hj463rvSvkpZH
JKCTGFFbs7vgiK2hOhv1qDYCMmGzrHXl8dWGPv0GiA81LOeGI1mnRqJ26xmFtfMs
/qSJg80/UnChdSHbok8CMWw34K51fiYdqZRqeaYGE0dm66SrlqSm/52WJufseas0
997ZbsEYeebYglZOknAocdGv4r1r8HgdFhRtLEtsI6MpHqNh6aUU1hEzk0TNZKfY
Vu+AFOKi+nO8p0+5+90yBWrH0A1vHCv/RzcI4IoKDKaduPkc43DBTeCJ/gQe3DS1
P8s9Xer5iJolSA34WH8+iyeKOob49HcsoMQ5Z1Qb1CKXnIHPhvbdl3JFwmcDqjRj
/hLUalIR7jDWHClcri/XjBfc3p4VsVOc6/1LxhP1uFhPaTeOQjtx6hPE7FTI4/hY
f/MjzcVwjfEbAgoRgHMZvCwSBWFqqfjgr8OtiGaBi4t5Fzo9nePI54GvUTVBWxCz
y3nmwBQFuE1+KbpdgVkRrkhna0HsAsa8ozc4n9qohIUQNDJf/uqyKxcqAP1teNdS
gt+wfSMGAZTGzmPxRTSSzRfDK6MR9tJRFotOIUUq/X7zWp+TJhwiamJOvhVqJy3F
3YtC9zNaWxS85vMD5+3lU86Z3NPnICHz6anwv/Mo2I8/2ZieQXiWZInl0wDyINuS
bSPfEDf+ICdqfrRH7GSA2buE5gbspOqktCJzhK4VxvlePCmEb3xrilaBiGIiQp5T
XCDjwaeUgOTNr1W63DK4RTLfOZ5pC9+4SCvQl5659ltdUhGzjqZQSypmuzSJ/EIS
osNMQcnMB8NWBVB7jx3llYMQjsu6HcPjcI4eKo6cG+RFIOaqcJ8PM14BoZ+Xln24
tvwcD5UvhD5lXImf/bJyLiP76u2OSwm5RKsyC+jrNodm2U+dRNUwMqGviHrdKptI
OY6q8rPPTaBkwr9Nh9VbfcFUALyczoIRm3XTydTyZyY1Rs4J9UDlfUgHoV7KrvAh
vv8oHn5rNe+KpU5NCexkS6NNvvJTZFKCoGB6iHRQO1kWkBNf/bktrBHIRkYoxiQd
jpWdrDFXgyOz7hbmubHOjz0N12TMZTRniL0Yiq0lbaR0mVq4ej/DnyLTB6tjD4vz
9WZtjVLbetuV+u2Bg/BC3WEGS1Caci9AHDv4t+L0WIaztrVoV3+evMlqdmkmPWo5
sSmRLK7stUE+/JArt+X0VG727MTDL1MZ5n3/qdjOMTQqyyPU3XEVeNdIV2DV20Q9
0jOKglEoc3SHAsbuZy9duf95Mv/auQjn4+IYFIFv900pa2BtT+X7HVY/WYP5+jhE
X46twgVUCCI5l3D67/cOLou//GHsxkuIWK4ICcbdjmFMgRftWsQhaV1KlNk+GafF
HcQcZq/EcAaE1A2XzKbBRraJ/u0+TG+uebf3kYp/fj/thBHMEhHV87F1ntVRDOmS
Z+8CsPMd31NOZet/4mN+LaBi6YEZSkmLAl2SCf7Z+uCwTCVCp+IXkj4MtrV9IdGK
SrOz35yeNQPZEir2TbvYTlfGhpmoDQc7P4yreDqhM8qNkt6upQ3M65kHR2t2YF1J
RFIBjxuIQb/wtNM+Fzc0EuEw4PGQxeEaWy02PDdy6s3FOHepD7UKYB6FbhDYS192
bzvwtQOn8mHtoG8LTUB8jGn85+vFxGKKU+0QWVbFPg9t4m8fByL3SdL/Dh6kwI3P
AVwelpzbKJlhS6hu7gljYtnJAhvk3GsA2oyXVxqC6CIHVJJM2ZPEOYznwgjg2Hdx
XI9ERJmhXd/djd+bMeObcOrzPiTuABpnU5Psowuax6VmjjmLeStHp5OYWHRdvGiQ
TOE4fR6EK2sTYFXCmMg3hjif1mEZ2wLFk9kJOxHdXeBeWV2uHpsmcSUZZd/lLoZy
aAk25C40Z9f8q5V9zGGQ3HghpAp2o45kcSB5UiXliC/tnDiMBU6ZhpLsFFWqM7vw
grLr9CnK2R1EQy5DfQ1c/aPSW9hryHd3O7owVrDtdlwIZf91eDEmnifn/3RNL3i6
O3x3JFeacrww6qHg5e3G+9F2+VQrqXK+T4vx4r9AuFJFKqigZSvv1iETHp8vn/+3
9OVGOsX6jU851ELTj1n6mqFSKKwDRzJB2WPvpmAoU8efcEBk0vTg5NNLQGa+BaKf
1DhJvx3MR3YRt0Aw2bRp1t8yeIf8zwDCIXsuaRfR7B9zQ76f9jaFS5/GQx2EFLm1
C8C+hVcS9h3Q36eW3g105B8dEcclkrLwtM7dVVss3wZIkuw9jljr9ilbdi6rX1TS
gj6dLOY7pw1tBWQjIzg+WSTrvZdtV2JQFu0FuJknAWlzco9RHlIr2czoqn4hsJRK
y4CCIz0YuiZNjzFgakjLgzDmppudcZKUXNA8WfDExNyFvHplbEIVB1r7lakT8gmf
02RaWxAosn73VZTgsAWQOlDJmavbNhwZ4wSpZ2NYX8p5/s+u30IbRlk1sS6hhVZm
Gg3TRmZLXbH5rn645ZMAXF0RO2+5Zy8o95pbb7UfoGx4J4BHPMjAwfotJHeNyABg
QKJkngeTphO2nx+tQRCwzHiVrz/WKisTySyhY4VSpB8q+ul86/lkNv9YYveVOLwI
gYFqe2cxSfSfBqkvkkaldJnayJnvtvSVUHf/nBfUfsjhHzLCSJH/caN0FSAqUJvt
P4fn5BSY/4dAo71J247lzL/A67QsUKSOvdBTUm60IWv795YSRcKsyluYXY4btkrQ
rRZdCWomASQhqY81Jir4n3Wzd01uGWkwp2KHkAT5yG+OdSUtv74jfQa8iQLJlTbf
mbI35wXn+uhCLbixk656YdGNGNc1vXeH8maR82u+9Z5TzbMhgfxQTCp7BCVZfM6f
kWGsYMi2DMdwUcPHbGBwHwTL8CRhmTOVESGHQRS971K+5SBEkoUScmgv3RM7BwzT
uPK4dIFEsWuqxLEP2ldRZcBn1LaHk/G1XJSbHIfwxuCE5pSI6cSASZZarjc6wKen
imXK1wOyXeow0N7yHrAz8HhhYQOVnFhg4njLlYx2WOtL/4z6ibgPq7V7CM8gyIU1
ula63dzYwyuWnZmSf7r7RN6YNIE1cN/eQMAS651Ul72yxcpwGV3uYYSopv+0ROaZ
FqtkOZO3oEJT/17IrSw9O+7PTLw4ovxySzhunCH2Vs1vN9+8PYgIeg9ba3nLqzBe
AZBfHtx/WDrI4UyoUx/2KVC+AzHffn6XMRiJD5j03B/GROXw3OzOSGKBocU6hwnU
dmr/YMDj/iaNXhSLcJxCHu4M+gMMV2Q3XkN8Q4IfozFeEHfPVO3bIkowuBZxZwY3
yqg48OTG9qB1+gDJi7Bse6ynzYk6pExvYoS/yTcyB5kXmTMZFGSG10DRTrOtLCol
bjEMSWlu8A5ScefC3K+Oytm1C2/WHmNnBxNeaItev5pz7DlZDRbzvor2rdmoRHJS
OWgFI3vMD5QeJRiUh06TL7JEGEdzFbzAfd81iRjfXBXM860PyhOzyXqcZTCEmm4W
cZf/dGzmOhRsN2T8Dj9Zume+kofaDE5cgUObpopzFzArrm2S4CrQwdtbR3RC3Xxk
dxMYTPzmOXXnv28wpsdDjeNb9wuidbRfoWNE5fF/5XsNqx0vdQaAlhmdl3maJ/8/
vLYZZ693dExGE5gwxCxW49kITJCzoqAg4qUUsI7BvQwQe+X3P5rID5mz73afdPBY
Qn/ROPX5K03O9UJWp81cpowCCZJugqvkHci4cWuOSSKQ10U6viIGb94zb0lNYzEW
Gxe09qBVaFORNURLRPJeX4QjsJYDen+75Qoy9WDXyPFs2j/Ucqy0eV2F6XY5cxZ2
HJdViEjbU5RUmbi0g8lbqua1S3agXNRKGbIRxVUGOFKkec5ntdJhwclmVCunI5Ie
l7IEfe2HoZFIOLhKl3hUuoBiXvu2D5k58WzMCgoMZygzIuXq55go7zMT1FfHhaYr
F1un6UsDG5tQS5MKIWG8JDYDP2mdicSMDai94qTj2+UmWseGc3h4T0qPnRTbKbck
GTChyo0z4HQMYmDnrBjKfbzmIb2sr65AW+ZfM6I49tkIm9mpuiKjpJUQn/EK5a/O
iZ/PsFHzJRjuMH1OFi0DlMAsyW0dVYzpcE0QySmJWogbFBs0fogdWJMgVzFB/Nj/
u/HrrDHmzaUxFYqeWMo2KGs0sxVTdftdWEtW+jbJsYeeqWoVTzn4TLC6ztWel9q7
UYqKkhvZaDXpZdV93VekiM92nhFrfa+ouN7qPnibiKJYKwJswVmGxS4niMTULALu
fxK/R3kKtXbSurLqFltjjE6TYt+qxxhWDktF4385sLqmn65wI+eR7dFtk9xekunT
cyIK/m+nW7hFvcHF2hX6MSCUOZq/6pIT+CPTTr68n2ZaXjHJIlr8dlfLxPcT+Gcy
tuScvb9vAbzuJ79rZxd1VQ8oBturDjeIuIpT0schZxsxBzCb4YfNto9wWvVk7wag
hlx0cUA7bCGP5e7zz2TkUixP7GRksBTWPBEdEPtcG7DERxcZLH/pULzOh0+zAqJO
namBwlsxa4F32StAIq9FbNPzp+cc7a8stm7RmHksFu3nRo0j0srC2KY6qpbiZjgR
mLMqmR9KFTeM6wy6py1MtPoz9KTMSuCEbO5qSGoziqqQfu2Nyo0MmuWl3yLaRhmk
YDN1HL/40BDN/Tgtyvxq+HQ9F4NDkc+7iBWuJpgwwz/RNOciLVx2zBf2HJYdpXx2
Yur4WAoy7nUMV4494xBvY5XhgFKuL9W8Ye77Ab3DSBgQHd13wgmHLcn/ln8OThjN
83pe/Wl+OSg0OZCdChkYBk51dPAxeOYOwRju3j9+qTkOelQXWHQ1QRBpNfvRDshX
qrNne55sdbYqZeRAtR6rbd/Vilakq+onctHvJI0V7tevfyWewvajAF4sSajO3y3P
mHOVx011cqNnXmtyiND4QctjKrJwDYaWmM2xf2vkadutTencKq4Sy2Cvwo9sCjMW
nDqxCiYgM64GrpoRnfNYhPan4tn0QDf4vuXY60rjGbhwCD5PecqaYLxv6FFYoe2O
KjQcZ2B1EPck1rSxBZ383XELXq7/vzWaGwlH4y6HgdclXPnhLi6hGLY/S9p9s1FP
LQF2X2f/rzXoVXJR02bz/Gw+ANfP5lQEpP8YjV0A3Bkr6KQpkT30u0PqAtav3cNu
5iholkUldcoBDbeghu+DHQ5gprzyzTMY2/Qc1Ml13uXkP7D+OOedi9gCqqkAexkl
2Wmwx/1fiKcDHsZHrJyvJ028Pa/xqtqQMHobOs60sDHgpG+BEkgx3EtnUBH/scSL
sldojURPJux/vkfKgA+EFFnxZj5bbVsm/zcRduEJCAuGAcduvX7kgQfnzi56LXcY
He+JXpu5EplmiTsP4lOH/kW3MFAAS2MeGy9g77/3DPcTh10XmipTxG0LiPUidDlY
R7gom5eIE4mDml23O6BOB5v45OlTsAzH2UezPBIcZRNyvkNZUSybvDLlcHkNwCS4
xv07b5xvGq6Us0fVDdUeCM9JcaiPGjygqHeAXELsIPLqH+xyPynO4pspl5SI+MQ1
OGuBrCAGAP4n3TqqqeVCdsbiouadnCskSm6omWIeNFxgCECAQequEmttVQLno/dU
2wPP2jLZ7yyv6z04DXlOXEWScskKgfizv2t7mwGKw3dhejuscBXu463HIkaeJKJh
U4HhhcIoz1Hjk7KXaHmoUNmbtdnWynQVd/zjcVdiyKieUOiUrqx8ltm/7xjc3aTQ
osKNsQRlPicTpcYPU2U925qQtSoZkqKO/ppt1CfDwYTA8LMN+aVnccv2gpI0Zcj9
TNaOV6zp9ZX+zgVayFwpZ5W+fy/wQ3F4hZuVkDIMLCOCR7mSVRm6ZCSUn94rTc43
n4mdMH22jlNU5L4cGjq4u7FQJ992hVOuYi3py/aabvir+AGosEXwx0zkKxosUJ63
xRXF2d9gJACxhUhV8Ydhi10ilfVomYgXZRywF/tJOBF3vj19OhUqyeSHSNk/dUV/
12oP+CDSsdiB0m1O9H3lM3bUG+Zt3U9XaRp7xnmdAK+dWy/KslHYUHWqxWxqiyRk
5AzRRBngQlhFdRzka5SCVA7/5XI41K7cO5aYeMoALxV76d4ZbOmqZ+mxR6UHos6E
DWv6wIdfESw470JeBDrVHeUJyDEXDSWAJfzO03ZOzMBrWH4sxwa5URxoaI3pCTAO
+SZowam8Y6kfUPB1mXcXWbHush3YVydQMnHiejl0ty7Tl702dTj4p3ypVZi5KS7m
4EyHhG50xjOZoTjsrSqMfmFk3cmRJ0P+k1eh/HW9lfudAZkAvf+My1j/aC5SG310
6zv6LqhucH/lkqc8CSmgzsgr3eH5eQFrQr74rvO7zaL8shrBBEg1LudgRuu8Gtmg
KOMOH+hgecMzPr3kWDFoPR5HX5D/LMAmCBAGhG7CIEX2P1G5YM0SywZcZtDVCsEN
qjSQe1JAiWIIZgdNdtgLNlElYazsVE9C3VUUE+STRlVJHL05GJoRWpYcOwuRFFJs
UehTHmsgjVb5VrODg5a1UM2P8OWQzXGV+yXFSnerkmwkgTcDioNBwyhAwmZeKbZN
pU19aeCsljaDojdtf+9UuxkAs5cv2Nb56nENYHRE7BHyAF3/AwgjThizv4sEUxa3
2PSE7d1ybWvsumkTl8mdEE2Cnc6rD0tx6E6V397ZExplyxFtQjcucegZCjeBAUpf
/IAAMvohhV4dWcbyyphSj1J1aSOzM1dltyPIx0p3Prvor+rHs4UTd3SELnpeJ8ry
aK+AdHJiHoO2H28SAw+KG6sossGN4lfkY8EgRJIPxzaDlzmlOs63QsaojiGflNJ1
o/7KiQ7I2SbTK3n+h52UkmmQCRRzjatXYvr10EdxkZUj6O0j3xH3N49A7AKWLiHf
0w1ioVBKfw+ConBEIRysb7NdYuHyM9LrwKPq5rVv6J//4mvqvZtbcMU7e2jZuB/5
R1jDm+BTy/wJkJlGL8rj396iHng2lKkx4T25bTVhKYYWxjuMt/1pfiHxka1i1Cf4
jNfnN+teRmlRcAnkVLeMxPmqxnW/UI3Pv3qfU5g6rUDdV6TIDh6hqVRby9z/o0YR
axUTj2IVAUxEETjT0ImOzGX8uxCUlnDAlL7X3SYQpR0pYiYAscM5C4WZUxAqJs7+
djvAMBs/PK1PmeOZH6Y4liE8jwqKFTaA+GSHlc3cEU+MBzFlkfA4oQZAj4JxS9We
lnq8WYz/VdAqeuw5kzLS7KrJIywlFm37Wx3ahY+4bZ9eDCT1TMdskdsWdJmUSUQF
zyJjerl9RGj5YIBYUho/gQPlV/iWo1/bldBeCNTlCMv52qFa7cqBxv3vgf0kMANO
llQTvGGw2x3fXdxAFn7c9szFTMs9jRgLib98mCqDC3E1EbJdiUja+XKhCZot2Qjo
NMtUGbAwj9Zp2yJbHi0kqpMQ96MO8yiCl6yKnQOZTdfv0iU6cuhMebL5T1YjTcyH
GyzTcZyrYa+Heb+Z0VSg6ZjwzBzUzB/S5IiGBDMYdamAMsfv0Q4u4jQTNeHfoYvv
ZXlvB/MVpnDcIPLiLkp9rDBZB+QdAUKU+f94VUXC3UWdACjow8IdLKqcXEPCaSYT
LZg1pDZXy14Qg30d/sO0wYNCLu6GVxLaUodA5We6QdCDoS1zOAPtcR8gJjnEDrqu
qlPjj7L8MuPe2YkmiQ+yby+finuToEvsXjb1bmBAb9y1yGlgBc6xFqwmJr7mtIrK
7dTLFBT9pEsLKi5hxEVSono+7tuVdp3wkuV0MHdgeaOD389qkH3aNw3fxvHN3NtV
fhRPjCKcj9VR+bt1xTCOiNxJLjLQWs+JsJcFSGEllFqOdgmd3DtYGnEEiPK3LPL/
zuI2rKXJp9OuQkEJOVosE6MxkLQUm2EJ5c0tuRPRSza7ZdkyfY0RUtV818opBmY1
/7i3mMKMlNp/Oph5mRV4Ubx4aw2pOBww381aW8u55nXyEh9onMtZCoHM0gi9OS6g
IO5WV8rP8gpR891JkG7slfTK70l1yIj0boMLmBLXhYgwdb42BY7dAPFKkqqgUSwo
XqJ4S0UU/IPEtCQpFVj3MfJChewkPAAu84syj4i9+ml4Pq39WGEqxUt/bpwCcfKX
WNzcF+e8MCdZDFxS4DP85G0fczAhC0KpMDiDKNigDxi9hDNp2rplVjTQC2CAcv25
Ha5jBRHz3Ydx/VUg28Px/Swur6TS+zM1tiLtzeObkqxhs/tQSd5Z8mh3Yn7NY6BQ
0kfa2lGSiAIzelQlj9s+LuBtikI96Gw3M9iJ14o5+vYlXe7KSI4ZfJRSfHmLwhah
MigY0qxq2mJNEgs29uCTkqObfrBs5dEYh1O2ZZbrOaszzL1IE4jQhKCh6tcYUzG4
L6XDqqv3OCe0Y4g4OD723KD3KlI31DV0uQC271QxlScmQgwyx5v8HjBzl2PdfuSJ
zKntJnTeX3Pef9oS2apwVYv+uxKn2C8g6FXJ6NMq3uYUDNKXIoc+MAMfGtWrfk/R
gMVHVCYM1ha4SMEIBZLkwGvzHKlVYj1lfct5QSfo0fJlnqXojvTXRCmBZMxMtYh5
4Du9vDa4EdsTpKjUHeg40FEOR1yg/NgIB9o18d4VTyS532WPZ92C0O8MHwIlsdbj
q0hLWu13iVXteGOI7O0q8+OpT3R3VWSGGT0Ptp95XBeqqAhROiOOuVl7p05px4m7
kL7jXydmSIbgCxuDvfNKCYSguUiV+gt2L+LBhF3JQwdenuYcYZFiZN2qOk9JGukL
fBtnuMJ7Tn4cvb/6/HTMn/hEhqbUba+L3f8Bge3QIA+q+9V9Ikrlh+cKo/v9H2zU
iSXO6w4W1BV3MmPVNo+7uLLGrmmiGyQaEoBgF4q1O5hnAw8vEPJnL95OggYai9nd
T772aDgTBgLY8MpBBywbWAYa8KqknE54k7soebWJpjOWJmnS2FHRBA7rTlxW1fJU
K+wEy++wvyk7LnRubyKJ0YYSTtrI+1qhe2gRCmAVy3LyNwcTIbPAYedY45acdVbN
3spYPwpckJ1rfvh/nwOO58Z9t3JB0/G65BfQajj8QUTC0b6dk35ReIIgsRsVEO+y
i+eZ97zZ0SSlS64DoyYP8hXvq/EEe8JfCXrigXeQl+RwvWNxYQ/Kw0CC/14xUh5n
1zaj6AO6U0cNsodYMCSMsfmXtKyqp2Uz7Ruhbpvod8IkcqFFY5PsYlEddtY0X9Js
p9BjgehJaES9n74ixjnnjvU88eHY25qVE2Rhjj9FMe/76cePdbPHpWm+vkhFm8fE
hBBVJRch/UHmLD7zhYZmVuHUqHpJdbLc54RiaW+H40NHbK41gV1g67dNRV5VJQyO
aCU+2r3KKZHi2WnEm9AKw2ZM1H5hOhOss9KGbxblThYCyrqF+vLEr0hCxDdZmeAt
NoOwCwbmtSk3Ege4G0Le/U/T/9RYj7k+W0oPYx8gE5zxo8YJ2yN46b5pfiC1oMkb
/ZzPa8C05mS4C1NxgZT0EtKwHD/alyDQU/p7rTYrM5iaz4CRT3Vbh62fOoj0BZ5Q
GHGvoNd4fuRkhqbOsbnp4esbZt35t+FRO3lbVo0n8xyaN7eBYOtyKhsozq5mfflJ
3VVqkSj83lLtEOqV6lCC0gfE5TSQveMtW+SyY8JYDZsq05J8NQPU3IV+GPO/adOi
Jbgjc5dnzLt+x4YjSQaive/TJLtOWB5AqPMKu0NJW/xAJZwqqzycMJ2oocrlERoh
ovnb6CzvHJrWAqxcKDSCrgzDNOZOr00h5DVFDR26h0pFu2Eu0EY5JhBTG4bTV3Wd
BHBVJXJrxpYXPdfbHtovpDUMPmQdjeQ6IO3g3aZx3BnDKc3ejZx6LsdYPrThXaM1
3Ux90olz3fZYYOpMUB7uRCHZkg2lwmdCMFUDc6NvKOoVW5EwKdOW/uYEg8skZIIT
6nVmWBhbkK1LAmqeNLTzZKQgAq0Bwe6q8kwiPY9Nb75URsYYK1Vn6ur0XoIUZgmF
GJwUaa3QMMu1KqsxJr8ElxDQUJS8V3iSEIPBmYVY0oSJIweZryeBvUumFsCj0rHs
eKeoLlEjcHqCeVOw0lIBN5p05/q2JBhfXDIhbLA4nHf3hAiydsFDS/rIkHkhP23G
yN9eWWfmS5QYa2mw8M27lo84FHhfR5Ugb9SJ167qz+9Hc4+gRqPKS0wknLurtbV0
muF5HoDe6GD1pKnq+V6ccywp+/BScBv7IHO0yuJQy3zk0Yeupy3L67MiqrVF5cm9
F/spLoB9uMkRg2v73fTt1jnwBSVLdghLUyBFewuZwb577dJY0srgaxIvNJkhOsfw
Lu+dapxSGuXhg+ld7O8V4FJ8aoAtWPc8BkzH20IO68V8LUhDkJgWqyrdbiPmvEEM
XKQc7cg+AbCyUebi45YsZMBRMisV+JgP0VK9OI9kV4pl1tsasZBllrZ8LU7sZFVR
Lf4nQaVuamYie3wZnc4c8PWBj1eWrdNZ+owIiXTRyvthtggY49B7sHuf5bcATwZj
EEKupIN1jcKTCD6UCNN0u1llywbglzNIBhBtEp1otWoC8aKSXjiALhnCmkxMlcgc
Tv98ENBxub1XCFZchbVJMWtimzXsXZgC6S3FClUiyYRNvDbKi0LH+Yx4Kmrt2yk3
sI0bp63dHwbSy699HmU6iisu6zywhjroCi55ZPjODFg45BKqiW204M2XLhvzm7iu
J27lSy8mBr1ooymwQIRuUO6CKd8frSDScDxGbE62qRu4ycA/+sVxxGaWXny6eNS0
PwGAFIzJItO/MZ4z55tyC0kYbG11ldtU7Y+BxdJYePfTOEa19IfJdhwU2HV5lS5L
t5rHOf98AY5/7sd8SA5ac4tRZhP7XwdMCyRaVSNNe4HcGvIJe0FN0dcuqszpVaU2
4DKu5Z0KSRcotzZqTqbvwu9TO0PMXSIAuZukQrAe9LH6GBehGKzNyrWaD2qIWxd/
suzycXJ79emfWnHGoY/FVZRycEK+1h6YyuRQJO2iMMzFk1StbXMgBDlYSwmxo2oH
utPHUVpSo0Co3CxCwaNZVVCPUnQV+Jz9l+skbcLF3K517d2QDuvfNIez2kCIlBCZ
lzEyhikn/OgcdG6+CkUaeRj3I3D8c4MONFxxixMTYX/xV30Z4ynwX6SxMp05Hr3d
JHXj9ksngU0mNeJi4p5OuB83hYGEp+rGJXaT6evQ9dvQ0aUGjLZZUeSGwgbAX1P4
NF1a+WcpF8DqT2M0rfY2qhWvq0ZAqi3fLkYufoUk3gDJptEr++FapfrRIU2XWO6k
tTRKTzzUJ0EZYDTzVCKxdNkpUbA9V32Yih7wvWRXH1Y1m//A+7w4FmAup4vJLkcr
67swsGma3zEyeoeryCK6/uqg765WcB7dtGels1oqslKWthNhOBEbOnrhihIdxVaC
p3ROl3LXu+2fX+87Ck+rigE79Ju/tfwsm7BrzwUHyilRV3OhFb5lF7yT4pHY46EL
bBQGoWh4ElD3RCixQaqAkYb7n9IhB0MN8s/qcqejX8X9UOUEiB/mLouWTWHzguKn
XlNHrgNuC4TsT8UrzU9QyDSQjFsTuXKiJcKp3rgOYSApNRNjkhX9fIoZPmqzkgCJ
2aEQG1l3t2pX26lLHHbtAWR45LOf04MUHoeEFG8wP62CfUwuQngv3oTnR8VHsbIM
enH8KMqTDCydeGlqaLmxk3qPBTUIxMEiEMS055WPyMJ6DmxKB34OCq4rkDxCxwzH
4tL88hOD1NVTjXSTIY4pvZUikanLgysSqRmnEibhh0uMyxBLgUQa0l8F7ZyB2/L5
i2GMMrnKTJCk2FFlub33IBifvi53BibcirkCzQ29RFL41PtQncZjgkY7pmcUzDRH
ph0Di6hyKRHTpO3HPKv4SIv4T0agoQMUHHI/1uDNHDBV2TYLnKpCR/is4JIu2WNc
0s8HR7ceGLjwAg5n5fxL7ZwLBkx0gYbZG9jCqBwXwXO7cZFh9IojhIf1KCdmdbJD
twDCAX4Jp89v98/A1FZ8uoHDXo7dz82R6MBFd7si5ZwjEXvgB+Nt6Aac0dWdNNeo
K/oUDUHq3nPbFQldbqT6R0cl1YuYRbkQTMa8IcAIyCvTg20QojOTQdvrqs4CZt9G
aPW9244qMQ/Y9KW1s9df4+n11V2ksLX8KI35AV2VEV4zaR/HFbgeqZjT2vTRMGPJ
w+l0L7jt/MK+/i+S6hbPpR4vvNqFrkBTmKb9I52NRowUtII/4RvK7G32myI7IQum
rdBHXGfNNS9FMqToXLWtaZMYu6Pv7GURK5j/PoZchnHEs5P4P3oyOxQBWFudgLQL
UJWg9sYWtww3xS6H6Mngm3mrI+i6bKMM++pnw2H1jsicOS5cpkMaWn8yCYYgm0ow
NFGZgrrkry56SLn9bM/zY8aNJe1lkN9O24deMvvBgNPrf//O3+Chqw+7SQSnDdfy
a1YNjt2uOxsGnhYDMGGWHF/U3SxQ/MKncQ7f2JIfPHjlw/EqTbY5otzqySg8rK3G
ZNcEgk7tgljzKgkXGG9vDQDVQQXdMtcT0LurHmtO1NxZKT8G/z3Yvo6A06+MwZZC
MyA0arA+9y6x3CZ0oWV1+Bs2iQ/LsaofTemftlbFp4unvfiGIb1dML1dANaqdk0t
g884ZFrEmGfPZHGtiAH46wjM4qqQTFXdjWvlvrihDhsOr2xkrgSENV7mCRIHdnp1
WzpWPtVLfUNFXfcitG6T5NkiGH4KYINKhCGDD+brhu3MsgdMOpWVlQPiA+Xe2Hrh
fCDQTHiBtLBzp7SQUUmo/th1qVKgFmI+xsy6BI18wD/gusXo1rPqjve1eNXNAiqM
6ZRvzGjKVjKtMdDJTXXKtZwoPY5PMCmfvlUVaZ4IaJNtmqxXHSvOqns+tVer8tJU
Bm2AKulveGFZobL7EDqQh1EGMioEHljcZVbV+mSyBAdtk+Oz2WndxzxpwAXv7fLa
A/nTGm8hcNKUuF28WCnEl+E2UE3ssvZg5UCfHVyKZ1D5Yl7yW5+qpaZ7p8EJeJ3a
W8XdfIap5465vwNXaBuPbVIB0TaTfdM+f32Fe9PaofTUvQfvxnI9xYnnydkv6WM3
CK+R+zlQZpNxKVVf6xEoDlPO0lfJ/r9kxwMzgEbAUqM2A0ma68qmxfoIzsgMo2+B
qVd0SZSCXKXe4WmSDoJ73ESxpGpyJsEixejKVfl4ovbrYnYj6sF3hfe9Wx25ozn/
W5nNUifbdmZE9m4pJFVkYlKxsnvjWYK43d/LPDqfj4pQGC6BLmC2ZWWhCcPzEEMP
m2EyOFfAZUcQyOkarpZzKKnRqdJPJSTtvL89NQyBA1l5kDpIQ66sCWftVZTznrJS
wjdbV8XYx3srXRrjbB+V0TuSK3EIuun7bDUD0gUtvnIwD8cMaHWgLDpyiEmfFVX9
+exrx7fa7nGGEz2XQEaGh5sGXSAIjYxjchXu3IdWnVoHqC7R6W3OE7h2qaiQ30CI
/kiEEeFXf7asAYf6Rr29ZmPt1MmR1A5OZLAL2sZfGI+jQ2DqZk6xbzx6LqlvU+4x
Fygj7a6V0oQcSTLwbkWSC4+UaNUSKezkC0pl2zlZv9QVoQEvnjnTLsrHAXAJpYBA
wjTweChdTNSYjFzjXlrjkPLHro7maNbSAVcNfuL3WzaHh8OUYE+6XfMbOjxY4WRs
Jq6YHcfFKRx9LHXf9yrPwqh1jdQVSQe02Ia34QGXmJuL6rKfQt4PdcZGBE1KcY3n
4TSXZ3eg0sF9D4YLNSWO5cM0OAh1q4ryW3lDWWVU03+RyA54882bB8HgKlC9fa0G
ua9VcjPBr8v+iTj0QH2sWeiTNSlKx5z8fybluZ/4TZjjMohJvaBtyhlDHJJfoY6U
mKAgeNz4fz6M7duVEJStYOanbc4Sh+s/v3xduz+kK8MVob2Q5QuNW2ZzyWgiOhx8
ufDlBpdjKl359qKVWNhqs4/tzAo7AufCPlPwEygqTfkmpeoaVREsngBlgrO2CkTA
c1vYmyQ/l3uC9Yx9tnfhzw2HZsGallFuwUVpAJmWbErW0NCtWpYoLvf4Tw5/rZ3O
9i0WpdVREGlDrGd9QxplCqD2+NyAoyhZWAuDAScYbEU945rbZxCEy1vV6+Indx4p
6xJqj9Z6WDq7chQiY4qejDGzC9XMIUG1xSw/DyDS8KuUfz0m/DtWLjFmzdM27ie8
G4Z+NVr7u1huirZqHBD9K1VTQ5J9QJRXlzRcHHSeAmpQN3bJ3Bbj0P/vzFZPtNkb
dkFervyj2m/FXOtKHlAiBfsljwgPaG/dVLM8rky61QQBMyhA22CBK8eGjOjdYSHq
ogXqCQoPyAHtyOZ5vUBdZcV6O3mq/EwtLm7CYIRKIcfzREbz7Y7/N6LaSiQSrA4p
iJ1rESFyKa3HiuwEj7QLA9RfOeFj3sACisyTO1eNSvZkIfS3hQjjrvgIIbjxi874
aF2RBeE+4X+oeh2DhfxhXxO5pHOpWCXsS4NVZv11Jnc3afgR0fA7bvaPayVBIUog
vWxJ0Wt2OMeFfPIypacKSKgbl6OmzKqs4Vs/e4oQ6gYMMF3PupZE/J8b0Nd4htfT
VvGnSbft0T6nTRg74gmAl7xM88k/WORYsaRhcTNasP750fQWjfl33R9KpY6hYm6o
AthgOZigxdPw+NgMvBECdNVmLUq/GS2HnP22B4KqCkCqa9KZ8Pa4ZGn4ZeyYXvH+
JPe+mvRFDicHyW95QPSZXmrBQ9i0IdAozNuNnYGh6nPYATP8jEDOJea3gaYRopoY
grC3ep6dimY7uVRnAH+0sfGt+9kFt8i+HH3YHsv9bvWNR6ieCiI86218IB2oksj/
FbrvMCiaLcKD13hwWdH1d/gbOGDna3mpPO9DR6dMQB4oeCECGrfW6uzGrVb8CuLZ
AcQBeQOdbkIkVzfSVysshJbRbCijbeKrEG6kcJiIvveuqtSuhaqZrXe2f3iwtJXq
/yGXjSCB4fB0uwL+ohJdOIlmGUe4M888VKkofXRXBf/rwsxHctf6xbVLKkX7Tbk7
0TSnDs3tx9z9Hv3fS0kOYy0cPD0nzEyuj0OI0O04oKRGfQDbJdvar1/WSAjaPOWD
dWey8Z6GTUze/5JHsaX4SJDJWpUAw2Au1keRQ7hQ7Ws8Sk7IXX+saHQdYz/wLrNc
rpAhEyMWC5MXhwJSfBkALjwLcaQTHZhRpSInbdj8UF3a3GT+B0ojbpOKnA8WpiuY
LlHoIKD43outCoZ4/j8r4h/z6X87FUsEKKQJQ5JcWlu5WoamsPt++KpIv6LXC89Q
hAxwDxH8wxKWAlsyBPcrqFbCkGbrQ8hy5PwXnO15dFvJGlXt8j1OZyxYCrASEl/b
zAFOZ0smfBMD7DOPJVGSrfmpou5Q6zbIxAxcriALcOn5l3uIQcqP7MVkcGxHDhYz
G52nIff5iKi5k+dsqEI1lLfhL8PkXW6Z/N/iGQvcXuGToytrbTRl0/DhhVz94Vgb
R/hYzB7amIrRVEq7dwf3v7+/Z/lblAWSEj2fnwlspPreZR79XaKzEnLAJQ6VKr/x
K8DJikdwojYgykSFa7vwpqher11RxvmRPn0TnrdMlYTg/ZhooHyd54QdX7HHJd7s
81b8uxUBCHQ9wO9bktodRbFYDyYrlH6ALk82v54RWIv2PKauHCeTABUD+PvrWBxp
/gAbs4XTl3FzI3dqy7S9csA3kvTgQSX+EmlgjrsV0fU7i6yZL3XFr6BcRwtT4qD3
N3afMw7lzVDcSBDwtSJcH7VkdfE351ISf/JS9H3zv4fMpuZKlqyOKRs3dSjHJp/x
K+JEGEzorpYXHG/qipyguXatzOf2iYwQPnrpJfwHySEh4uKIzs7+WhyZcndg8fSz
i5LMWQCLV1Msn6aN2V13wChl0Lz5eDi02BgKEIZXgq78bzJFayut5yGf9AJYfbj3
9BVhjSGl4aRjkF3kbjagOvvqGY7GDhqp2fcy5MsBsMq7jZLPIxW6ChvRS4Tmfzzu
SB9RZs3ZLafqr1TXlJJv7fCYGOaRdXylOpebqxoP2LTUwTfJKhm3bSSRg2xgIlun
WO1inKS+y6L76v1X/tWZJDPmFMtqAhdtxdWBIcEK5dg/ulThWdTzp9Qllp61Dd/9
IP059XWui/EVZxxOUWmoYHglkE6mRGsFKobwCWX/8rU3J1bOGq/3wyIMQY4A5Nqi
zOTpkyfCROjdhdZgBYipZctfs+Zb8Orn9hBuWTqYecLiNiP4NcmMtOZSlLv8sF4n
Cz6x2OPVwCgWulN7Aa0v7Z86ELc11e4tgj6o0TT/CYyJuo/zH31XUQBHuXzjLYz3
G0qOClLT5Vjyyw+vA1lJ3Uwlx6AZmVT3ZFwnKlIW5hi/FZRJ52copsQcj8Xu4+lo
NJtXRSWb6gu3F7Sw1Zfn0HKlWjagUs3ki+bvUm2X177Qd7HlwUcV3L2KX9WNKLi5
oWEF+JU0SG0LnHpXLch0uX+nOrn025M+hUlMAYfHlz6hXPh2hZ9lYXu+pCMfXcG8
pDOYsFFGqYs8lsfDWUBU/p+VaBeRDOTgJeBYmfAFpwiLzgRzubyWY2/s+uH1VDjt
9b7Nl7dhk39t9injY9GSgELGWg4TpSp8iQ4QFhvkZ5O8cErXsQYQeZuzbySK0YN8
0bgXBSl1xmbJV0W71EtZp4jP5mK2frOvm2+RQ4VoZy83PV51Q7nw/SywiiiloSJC
Q23L6eY5YkaYydijlIHOpb+nUczYuWg+Vn9T+2sMcvpZjiXe6B/l6Xj4oWtiT18s
66nZokKwsB0doK+NGoXX+BqqxR9Fu5WK9D3u2SI6LpsKiR0o4MGTU9JHAg3jFfF2
841itfSYCTniwqunl1NRAVanYCj8gD8YLAduWebvU74oXbIltaNIVnxZF8t7enmp
t9z41lspPzDtr+4+EZytEQuT17MfZsABGP9Hf9fyxD4zuiXd4wEOHNUwJXh4/0xN
NCbQrUTBqDwxxlOnMzHY8jU4/vMLzOsqpFcPGCqnh1749y2s6c7pNkq0r6hssR9m
6ug3KvsANXGBB9I/A5X4611cWj+KOgMOWllrWOD47JSMa/97lh4eY3bSa9ebARV2
zKd1B5SZldwF8BAtOb3z5Yo8HuLUr8kCxyD6tIuVhXqbQ56amSUyNN5AS+QUXOzC
Q0ZQtJbk+pOVlhU4DvaYR2wkaLPjieDhm/A3B9EI795xSRSBKc2s2UAjuRXGruuI
7RSyOl6C+Tpk3yyeHepsNVcyDFTcD2pBzJ85Dqc66NqFYa4RwvzP772pqNuNqFOz
O10wtRd0TOxiI+SBNAH8JE0ZxlUp7XoBZb4QNFrloUZuFz64sPCPG095JijocLdx
9o6eN5Oe++gfiR2faqrbs3dTi3K0hS6UIagnkSOorg0HlUiDYGfmSP5UVesN4jnb
+FHhDtg45T+ndAUGETjS1pw9VJZKxVYrqKYD21txXdHeYeiiLtliRN0I2d0zOCXc
/ix42SNF2/M7j8MoUASQzXzc3vRvil1/5C/gJoVBgDDKgQTME4O4yGnkCd6BpVGO
AQe3vXm+Naxqzx0S/933WFARaFIpyzlAQyDVEsubmurX1P/smq2A08GWF6jKs60h
bCr+drg9+/JQ3ujIB7cEwquACE+ldn6wPCFJLsKHqD09T0WvoJcrJZpaKp/BgXgy
ibMbsDO4l/JaXX83CkmSVW0BM2h1aGUljX2LPm9OAVFdHAq/FeM30LD8Wf+hIgV9
NbtcMt8cFbGzbaWGBfi9jv9tVJmxQc7inzYslX4Cz5Oq4X7YoCKFdQ05+R8wJcs/
wvc1mS0LUGB/ICHkbUEIltp4uz0KDTP9cPeX1h0CbuczEcX+s8rspPn7WkZr60ov
U+zyk889xPI3fiy2SsLpfQGgpypZ1qpqcfFgmNviGftIb+05nVHEeC+iXFgJSV33
Aw/QB90pz650jRzfvIRB4V3gKhmPpU339Mm4d4wh/dqR9A8ifX8pkatsET21+mGu
TZ+Ykczel+o11wfYUZ9CPRE2jHRXEuRZsp/wUjclwKdjMNa2pmBCwoBjPIwwnPdi
2btkyToUbJbEvfDQBXJvpkKxs3fkta9IIjx3R3uRNZgQTkek1SmfNkCnD84VwJqc
rrELOYkm2GeH3J1J6S6c6XY3xfaMCdj33OKo8z5SaOLoaOl4LxYXeW/oqoSlCjmf
dE61zDDq0ZOS4iaW+HEz5Q/6AlHfMry+uJ2I21I28Yw1UjN0QRZe1OJP3yyY8rMT
q2j3MnPbtjat7CS4T4zeRRtlRmO5H83k61yTpaBZVqZzX8le0tGPvejPAs7805Il
eRzqUkcSLxNudcUttKBebpxVmPb7DkGvMroXUGbmPtU07NK2I+z4Mn1YUym/4HN5
2KzmFPtyBLmQypQyEoFlCXXrD1F3/MAVdJLyPfoyH9kjkbPbU/hECHVW8XM8nuT5
PRHRjqljLwIdgwAUwBSzClHU38lJ/41Z2wG5A1rIUQ2gioV4p/CY2I/vQm0y1UAP
Lijt81qy6EYkk0mMcbDC3Uo4pYW+ycYHeiAiyis2LiwpiLKEBxkdLLU8ReJHXsky
2yRgaQeMFvHYy5IMRplvFCIS9FEdNNDjpCuwHvnjnmKUbHv9SzIwWDNt5TRLOkDh
5FuPMALpyr8DdsdPjfTqGtL3Hwf7pNQ69ovkfMgK2bkYZOg67YAISFftLVDgE8+z
L8qYbRKopSmVD3JdLx5l/6VeYZsfVB+wJdCag9G3NwyMlGnaJubjGRTOB8jp7AeO
22bR+3n13qVUO51kIjbdDgrYNJw+Mvx2rmlyq/QSnT1DKrUQ94Zhal4OnAbNuE6S
m8kENfO7VFGIUji27uRG9P8B5/f9W0g7g7w1//MLPeltGobMrJRROygGMkKZkpfs
0b1ykVTArCnK5p0vDbheg6/zDHDlwZXbGp14UBrM5CthEzxl3dE2wdrGd8vK9K5b
tIuDGoVwMQGALc/aaPZlRQxWgQ8PSCHbDza5BHf9B/Ksrj7HHVPRoSOReh83aljJ
ZkMexP+KHkdWL5zey+devS5zmJ6dZ7TI7aGezH7b4TENmDTKmjuLHDM8cgggAnvs
POQKUyjNZjzzfcpaUWAKBdc/tcFkM98l/OBpbCBalUQMmDjTPrM6G7fwSLcCMozu
AjGLw4swgIiT15pCQWG8Ja5B+LgU5wg6ZNJER0gr5VHrdvKMbLjbeIz2u8WiYt6J
M8jNphW80V7UZ5jDwFOGrJtiVtgZrynxKyYeNrCkkrvoyed2g5q1BbME+AO2h+DW
vNga7L50sNWX4FpBlov+X40MH5t5bWDnvLVCuQx6pvuAiaQuv71V68O1MLaC5Xqg
Bs6/bD/+TybD/rzGoOHyboyw5YJKveZqXLFa6Po5as3rhv4wEa+xpqtofu19gW+4
Vvi1feQVGwK0vkBB21K+Vrt/Lrj7trNddp4y4MZtFxncEg4x7LriYno7VcCelb4c
PJ6MZKsStZP2vsMngboVCAJJPSWqc6zRZ389lAEjs2AAy48vYtJyO92//odjUrjA
ACTLuF01XebZ7EbaCMyUKPxdL45Sq92n/D7TLgRUEffEls+NxoGWP8lZgDCoC0EF
040rdeqMxzP2rCiw7g8KEVmbRpC8kXzqMuCYaoR0+aZruOmY7NnjAr90WimuLBIG
ZTBO2qcuGlc1TRhJkSmU7KPo6t99AwmbW79yxbGZI7p43v2zSl//pew0zzmiBEEk
QQbDK3kyJADru93IbbVnmsbrHOMUrQBpPaB2/alTE+/crxC5Cna7BmcdnaqzaVEc
ONAFXNfMr3Pysd88Aie7KB4mUjBLAzEbbAx+LGR/EgWJxdRHTbv+glRR4Z7Ei5sV
XMl3StfWw7OQfF0qvEq9v4WRrbQ0tnD0iW4TVJChcvy0faC7sRXj9bt6sZo9uMz7
Bz+g7mnMu5gfkixoaMDlR7sAtRnnwjtzKkf4NkV7kzQQZ34x1lVp08dloLVssnve
td4NwxE+713y9JRW3EHIqXLSXApsHD9JE08yAf1SeLDXHsZU6GMiFhCjatsIRNt3
/gJBmPkCIHt33Jd3XzUBPAVLEvuontRVILT6JrtoSiAknauUIL77JrKuH5GRqX7G
2jnm6uk8Dcg0lpNsnf33zJT9dYOpwTA6Ylwnw8igiT5xh5XfpPO7tCJlzr7RGdSx
5s7uqq86YOMVt+jpkW0kV4088mz6R1u/zpqfY0uj9GKEXbatMUr2/sboVFtigZ9U
GsnWDgeDV1sEDIwg7w3wMHYg6UADAyNM7e+Lm5rspPN52tQobNmjTf4RbHHsZO94
e4kZc/j+CE8Ptt2905cyPjht1pk99WpmW59i2/gZHMivmP0U4zCVZMXAk3fy7vq/
zh9KaAhkwvuO77zi3OAwahicB4S8UWHcmkU3FpDgSAEuUEyFXmYCuWFmYzs+Mv+N
WXj35YsyxlOMlFhojYumNZg/geAuOHDsF4AgdHd95gWTXUvwJtv6NFiHzabMLB+8
Uuldqgqj7xq2iZ6+uvYsf9O7ainHYLwZOeZht9e4Glz/j6Z+sCTm+3/h3/HalRpp
LAb1sHuAS5DjACJUhT6YT5F2kLmOSQnz/mMgFlyCQrMXuhwBKrtCQeq/CQrAoyFo
g9anKr3KdCPz0ddEcVuqAha7pp/Qq22X3RD9hhciRme8BQJ6wzyD5lXA41UqHEzG
qqWcaLyKFTgpeSiBJtTxdZaZuzKQ3rELrJMfDq9pdKXk5Xv1j20ptsY8SuMYaJtL
OXniRB0JGicIlp70gT+n1UvDRFNmYVaBKwfIj9Grmdfdfxg7osquoEHPtuVcLDwm
RhNtqn81NvVeAsT9tdGIUuXVA4bmu5NbOW7gkitnbMNjy0HKsKcOek3gKTv6GxHT
znoUN+MCTTvFlM1OzsrWKMQCR0sDKIC1uz8Y0/pilSzgWgMdAT4AGlgNJLA5wYYJ
hToKsGhLCpfLRzD8Q/w8dYPLrMsCJ3EQwd4ux0TwTDdd+/Oy/5zD4Ywr5KNWQAf6
VnXdddNgi82TXSOWAhMK53SwflzfGzbZYqFGQaC2EU8ODDtP2U9e+mk9k4/lrAQe
lrtASmvFbGjjVJCTjnsFBcvy828i/AFgh1lFSL3pF8w4yMRYrbSN/u+hZ48CCFuD
Oaj+0oSv6B0ohG/8lCTv/O78HetlfC90A8Do85Urm3Pwf5gl9CozmC3+Jo5rmObo
ToQDGX6JXHrhp3lV1JhaAXFwSNp25DFJ+DOy0j5GSu9SWdY12Yl4kXWWbqUXp24x
SIVzMPYsSw41c93yqEgjWEd6fcSNhylC1O1JWoNF2+Vk+NlmuhrQ65jPeKagMZlq
Ia3HLCTdcCOxcAjPjwuPv/IBn/8DccW9BkCUNaRneaurB3ARRDrLakvR48y2LtZz
uKug7U4RaWtAud6EJVwqrZfmpfBNvaVr1gel0ANCpu6bMUy3ITTN/dGh0h6KrDOR
Rj68gulie1M6tnpUxFEfAesfJrXurr7hHmAVc4bAzH3QvsK8o3GtDL2Y8ZhZgWHH
9YZLpwLE5VXOdZIlMvEflQ+aeKOj46Cgh/meIpih/YvmXS91OFlgPKK4nFbz836N
boZQToGLUuvS9g7/PbtOVrhZNrFPAMSXAQNmtcZzD1ik8AVn0QZ2Yt6Y2t388llq
Hwo7ZOZH3vMSBpAFzfPzOjnYtiDoKNwRUH3yHxQVQVv54fUgdl9JLBXqs+9PiPQo
irW/yNThRf7/0QXCVf6pTzV8WYdzyP2SK7aJqrfn3Ak34zcPdIq6m5BZBRWl6pXs
uPl8Ew0yXn5w0t0R8yvEFBi7aUaKTSKygNd4Lh+Op9a2AkIruPhS94bSXmMZ07PR
gTIdPfWiPc+KMO0lBXywxCPd4JTnn1pC5L3Dt6+rijWybSV4TTKk1anrjvtCAG5i
Bdy7MO2ZkbLV/xY64aPxjPebNaR2CaTz0XkF+y3j2IpelGMaeSRJa9OE2uyZ49yx
JSz3ftxo4G3JZGXHNJ8l2F6V37vkO2wS/WVQ2/RYg0NkKcQZGBW4DnlElUVUuvXx
ociy3vNUWAS3VvLkMaBopMlN76TrA8H3KKhDblthJAo0BUOo+TO+PrswbngRsA3J
DmRRa1P/Jdk5xlDwdPRz22BHmHqOD7ByzFHvRWwdbo1VbGQwEZDu02+wA22Y2kEG
o9Y3ZpbbpiNqdG7C4jPU2ZiNZgG5YWQkjO5tuJ5/Qy1x1V2L8JjlCR9/ksxBRZ4C
mIaY+oQrIgZmgVQSYVDwIZxojNz9j4neciRwrc1ThtFzIRszfa9QCnbH+3Bi+Yql
Y4utjDG7P2kzUKwL3Xpxe+fUfbqoRThdgi6WtRg4PKYOtEnDjxtN59PSBawjDkFX
w0uHD2FWKqplWaXgaosNLFCbYDeqPNPma/UA6P0/v36zUxvKvJJttuvTwyriSHpm
tAnnlURSnywj7yTixLv5nnpos/LxQYEhJbnxRVUY4+Q8bsbDB7jTXiQP1PDGnTYy
PbmWK71DRrNitBuK+fkFqdx5Ngbo7vvgM0MDLaWdi5d9CkPMoFMWqXTw3VNj2G3R
3ZvEygwh5xcQZqN85bSV5SoY+Dhx6KMWnTVS4jOqqfZ2Ub6W0Uqt2nshdubmuiZN
ZGeAzEj/EsJa7gPwrMRES3AVqH2nJOaEdZm9VpHmmI/MZfqZl+wOle9b1cdoaJGn
YaPzETVBcwCLmUH7tp/UMUzEtbT653Gr2WCb2yyKWxV3/RLu+xpIufZEwsbwEOoQ
PxZCg/kuoR4Fbd8eWwwzQTa01UMouyoVNEGVtEjNfC2JgEPewVHea93J3rJAO92w
3hboNzpZmgEZm+0XfdeVPlSi/jVoq9fj90B4/lx0LpiVk6Im9MREDZRLE77xFhH2
3RYjTyzBCgjSBKvMzLNlKEy/GEaurKXoElhpc00rmX0EVfFMH+9KlC0fbiC9KcNr
DOaiiAkskfvq154Fi4O1nMSv2ucYNbbH/LR6U3/TDB6FvLH8aZQaX00JfTiQSiiL
ZnUiuUOGXeZSVRBrHkkbwNnnPUQk1fZS0qksjpXF9t+vkiK366Vhntkv77uInbt4
c+0lZXb/G+qSb1fhh8AiYrOGQD0AfHN6O58uNozXskyPh8dotfvvF1LB/nfprTHw
WjO2gKEFde8LPzaRwQaID1Sct2GH93u2UI2vhCi5P2FSjW1c7CJp43wjHPjaONBq
BTzSs+Dq9GpUdFCs3wOxtJ0r6rOjwkOP2TBeZVoXvg3GF8slRz0+X1fwm0KyGZi6
omtWmkdUN5s7cZOgrvQDZEVAfMpuphTOn90xBax+u2f11DR9AwfPXM9CSEa5VBmb
uiTs//xRXuKDJUmrYNNn0vBSRXFphFelqUCepmXi//smGnATOkyHo+ydN83GCLuE
bJs5SWXycOqKeXNVdTPZufI+e8Wu8A9tzYw2NHdT3RlyC7ngoX77FX71Pj4CAANt
EHIAo1yU1b4CmDRYDla8DPdq6qlteXLQ6cWQJStDbPjjgSyFIbjtqi4v6AnLy04M
jzkBT4JWmXOLGhzyTc7A8xhp1Ije5fXQ+ix8bysHkIUUJFoEBSDAEB9q6VZK4EUw
g78kI8vnhSuVp8P5SgovooNR1edgg0AHQCwVSf8ki6ddqq0sE3OvF9IqIuriPHI4
LVMo3HRSmQ9QkqDnMWAlTxQ/79izJLe4+kzW83w09lnDkjAqxoy9qjSK4m69yK6p
pScKlpd2BdHkXCe8b5c6JoVlb0i/2PgP51fhNtfrFwXHKKU+/VliibF0lKb6dfBw
EZOptykwAOhtI/BSiFwaXJIeICANNAW9dsFHyT/eEHKHuCbIAtMp3k+JTsP0ssnH
t0+REZuutCn/KBU64RmlgrPvVV/r6MlcfRiUkY7XPtjeXxeXUkoQEq3A5P+YTWN4
B+IdY1OxqD5cQsIbVk+EHCpUeXQskNy8xO+LPX2o4GpowvVgpaOAqf/Db3/RX8qi
1SgZoLeo/A5Nl8mj9zQ/wQPDna+JJaBjy6r93o/DxXWY4mubp4JSAwZEy7jZoui6
wdeUdcrtoU7o76ioRG5I++Zk8qqVeQwPawCHGaFlMmq+1/56j4FvFCOM72MlBYTv
Bb/HsofSxjtFqPK9bb2sXSdkw5QL0EhGhhzlM19ZRyKBb9jQb9uLyu/+A+kT9Mcw
MH/JjQN507QWEtyzbJSmDeca2wvVBoLIvB3bfpV4enHqS5KUGvDCyZAtGiPPI1TV
Iv+MafINV2h2PDM5XCq706DesS62wP6VaQ7PueseEIprA9l6jEZ1P1weGGXZQvWA
eQXbYzuOmQWBBxfDnDOYuD5un+bCa1rls5MJZfuuVxeMN/5N41av5c4oBt4Y4FCl
wV9h6LZ3EXEq4tALDiVwmh88dQ36nsDiaXeJlt7KpWHO82yV78qm7qG6O3IBxKmE
ShxBLfzmQLyarvISXMANGO5OrJmQLuWeS+yFIQz045+qWLF+KKjPtcidZAB5Kcrm
/NqieGxBQMeSXlALPlIplVc+Sq9mQB7Qgy6y4a+l2U5i59bRV5w72iIuIJBYEsA4
qK2o2BAFTotPE+Sc2Wul2nx67nKKyGO3Hp6HGjMsdNmcyxiguJChiPGhjpqMfFPN
Eat5mZUc7hoHYaQe/iI4WDInueAsImaEvMvitOsLLI1+02s6PZsSAXAluu5ohj9H
z2X8gNPVucTQruZwRTlcxyXPlGl1qqDN7W8RlkrFe/lRp7unWeIpqNqio8sDBSCD
LzJHwXZ+Tk0UF/iZ7aZdUfTPpwjcD7dJDqZtErIkfqTctOGWHBpsGlie6kJuLv2H
zjhPWW26Wg0yPyk5/f9p1thPOZwcXHoFbBM8SGtmpIg6+ucKds6l3jxzNHgTFog1
EJTCJ+UP9d5NnF2KY3S0pU4hQVaOWfq4VqFZScmlWyzlnwIHIbJ8so7T3yHjcWyU
NIlHHZ07BOG/F7bazgA8QScWgB2JowpoPmvqUGSEldV4TuuKo89fCLJsMkGkcU4J
5RWL0I1J0ZzN7SS1bfm5r5kz5Kj50oi2Q+IuK4C7v9ZRcCpkvc4VZL+Q9RbPoNni
Qz3qY92I9gY+ZWw01+WmMI6GheWbRQzxIQlBo9peYCIj8hs+PtVv/wo5TdwaFJNy
Qi15cY0QbuSWwS0OldMXJC7yD7tfSonB0Qzksco/VyPMQPelpE8LEtJ3itk47EVZ
sWLkX74dKUOC6qK2vGQVZRKQ6IBEidvJ1USis4gL4RPQ5YE5Uw37wOD3noFyYU1U
1xXw99K8cGL+5IZAowKg5jKawMzm+gEPRs+AeT+vrtnQ8oGakSgBfRdZh0nh/Ujp
eHOUICeJOx1a8msMf1C1zblgvaBFUqp1Awe0eRvbwAOqqpvcYWhBxksmqvk1px77
nPbLMQavGv/pK1pNbFqzq8y1FZl9KpVRciTHhFTYivxfFYi5IfWwVBeeAO6JOxN1
zj4whz/WRlXRJFlWPWnuKwtvf1HVY8fnpjzjRYZxnqBoLY9Gp9+2F/A+S3i0pO49
poDI0jkY45Wde0jGQ34KTt40lDrTqFIis0yUYMK+fZ93/SdgTgAhMpi38GXqcccn
tRtdGZ7TTsnpNc/92MIH1DkH0flU1KY54iRQ8lGkh7ahW728dLpE8cZSxuj/59qA
F6MWkAvZbojP0FR32H5ppJuqXvektT6Au2JkUFlrgIIOUlKACngVS85NHNCiD4QA
2TlWFEcfKkdhO/qPkB1AqLUSYSaiKIcwFu9xhXsIpk2Z6lGE3tUWNn5PxmeOWRYp
rk2yAxTRQ2Sz/kz8cEA0tdNZdHYMJYEgLqjX2CHMFEiIAKvXUemtwAWcxcAxHwHt
PpILoQX1jzTKy5MEi9fX8m8442Mq+tNFy/3VD+cyys7GmNsDN1fa7PvFbbo4+ZgR
H60Bg99P31Dcp2iSwIzfFBvmTeIjGCwQzuluHKoIwn4LKU5slkmrimH6AV/aWYl1
4ymd8Xygd2g5TH+4d71SE2iOOeFe+S0HUcIqtL08ByaFoEuMb6gUln/oOtRBOOVr
heQ29gTsV+f3TVthelAtjNw2mE625SyofFB8VmfoNNEmWwF2eFrMFzR08LzC/LYk
OU9SOtvI1FQ4/nOsR5X3Gc5B+kt7+P5nS4bS7VcRVBWQBXXJYtthfN4U6eErS621
yxwZwBKz6YJXhQeBMniOy1RumAxU9CBvrVMm1kZNlr1l9vEfaRr78MggRIuGKsYX
DTME0sqeN8fkQzz7H834VHj6DX/HdVJ6nqBTeUzpyP4kV1zdzVQX3hhymFQ6noa0
UhfTtlpX12b2DVFP/Bc4v4BXptEyoaW7lW8UPXqf9Qqy+iVJk0imU88mPk0iBzbx
BQ2UwVEqjXg6H3f7GdhwwmqbpenbQYMC7FhO2mSn751UG+UtaEZKSw28EgAr15Ml
OJr0n3BsRA/+nBLgjxC038OSrVUVPY0ODUgMXNjnjqstcj84R+Xr/J9SOfiS3fZg
PLfUtbvWnxvQbdHG9ISgTXSbNoYL+WmIDsz6CKGyvGJQnms3uK4FY2utEVdahwng
ExppCsef1AM10mjn9BkLmhhC1GpklwAOnTQ8KYgLBpzo0f+rBVs9sGQUTrB+UG5P
JXBNvKYv7OvXgAFaF9zhbBwf0ToqDF+S7aEpiEl+QL77yE0D338pGMyd2EoOA/vH
8AVoitJoRdMf+MPyr3ib4B3VZfXb0uKARAPWybfJbzH+ESq/okFie1ZbcOxQv3sW
2Rw9MD704Jaxg2nsm4NfwZc6E4kJRUlK01fFlGttp3UOGWMkNOOq5BCMOYZ+iOxS
55GhVjoG0wD6IkBKbCpuy6PTUHj/lTe9J/L38QZnSoKDEWVs6cl8AAb97aftxWiO
nC9bcHEM9unNwxUDcD8wIkRIU6DZ05Ydq3qhq0GM2Ib7QnLQQChESVsoz1PiTm3C
kupqhHjZk7XBTldW5GOnJY9T+GBQec62uwD7ewWTmpxRCb21P0v6ef87GzAcGt2g
8/dsw1E2ykLbBRwVDCslcJNlSA4N71vGXAEsH10OiauV9aZLLzjyySRIBYmEsYEi
1vTDbfBsgEfvLE40O3iP+vlsure2vm+q4S67heg0Wf8zkhhvWC2QpRATxIGr92Ir
IN4y+dfZqzzVLSd5NXMF13WZFldSyT+2EtQE/4LTqkQecjjDnIhWJfBKTdj47Cf7
XNTgfwVpqwTQfKt7crQ1DVm2ERgSR2TSoMuFnHsE4CS6o2cgjbcBSEGsWYxRAO6V
Pzhi0Dver41ggR4VRWfnaxjZLw6YMpUAF1VnMZfY1SDFIZ5e6EmZMpj5T++tkHvv
xJMlxa6q3yegvyuyEMOwuk4L5/09rw/Vh0s48us71fSyer32OnGM+J+UWwL9tOwf
P0pJKBAfdhgGwp7Mq7il+dkuVyDe6xa7gqk2M3vvr9Hxs3cHCYUiu+3nzEl7wtCZ
di+Io2mGqnZKu42NTrkpaejsrEudQqijLKX+KsAzDI/3J8SpCvbH3etutBtcQWnG
MEsCCRwyStkT0S+c4NM8ClOi4oBpD2Zhu4RSvlU53Bk4DtGULIyonDUzcaypoRw/
tswl+pl14WtgVtWgaaXky0yz81f6NwVkRxviGW4hS+yqdcp/6JmIfF3cwiS1QooD
bM0Khge2mnex37Q2wmlAhuLmESKLK6+jZC/+Qwb2KmpYjqbM0s7A1kKhSRpzlyzl
3XKq4tJhdysnenG4a4yGfhl0njwK2mww8kAtDqOsOmFeX979hBOCMjmIi/Xb/qgh
2JaxIF4yFZZAxCzEDgyaYWVg36PII8iRPM96K+F1THblxGQgZGGPzhrFdrs3fDzZ
Cl803boFsE1WF5IQpPUQ+PkgM7AfI813/URQ4b7KbHq7SkhbtJwmNWEr0rAy9vjn
0gwctEIWpJn33PzHPMGC2v0QCDTqsM25EU4GlGLfycpqpp742A1qnbqjgNzBlgFn
UtI02Zm1rt/+DaWtnr56Qm+0KKQ2fkMk0f5mq1HMpLfb2wfE4eQPtfrJU3FaakiR
mk8A7y2+W8Js/94Fyy7Pt6WDUxDJhHnR/BGvxXQmFQbnDD2uSUSg4FGmZ61DV0kD
689VhUPwk0QAOk1eQdzOLhEzcgjo6KQKE7Qw1OyyeKnUgSFe/t/94qfj7ExYjiqO
6gQSp9QRQscP0ps8X0wElI40LsLO0ncpA/RFV8eHc0qotZl20pIc9h9LWyzN9g72
BvpJtBIxkkveGk9XdeuA3df+DKah6NXsVhSQ7hg53cxq7/qv3bOa7ZuUm1V1YASG
S/mqsbsR+VNp3ZICSREcMd3o3fHwdFa0Lej278oTlw9RgpzPVfbuBaQryQt5MPZ5
5JnGFt6i2F8BDzctNqq78pzDZwoReiBkgxP0Y+HugWNtDBVy+d1LiCi83k8Og3lc
DFo8zaGLtF8BuWJf0zF2avA3AFbDfwszQWhZCbkVbuzE/YZAE3H0Gm5B6kS+PYaP
7jGd7raxGwqt2MEyL4rPpXh1K9917WQeN+GoowFXPVzQXwo72/8iRXhhtnlK3yrR
V8BSZ/cH4zemR7aWPnI3FdkbYwPWeBX2L19OKtTtzH8LgpPFXYOLYCiam/VQCist
Tog5YWOzfh1GotnRBB9MZCTBbEEXSGWbcbKYL6hc2o8U2ONgWHm4TRY2u1qjcowQ
xfzcEbhXOlzoJbjs6Yyio3awYS69ELsRwcPEv8zDo10+nkngqnyelI+8XQk1JtTd
ioYNSHgTZJLIVMMcNeW99ByYrSmh4UQ7eHUArwY28o+yDsYqZf/YS6YEQxfuUplR
/53NDl5tPjU0sw7IkNFodzfOvCGeyO/XheZCDUhoXhM5qFjtlUvIN4CkQmSCVFRG
MjO/jbOPiuNQiQCxLHHkDJuIKGd0kAkspZU8ga3IV0YyL0ieh2oE9lErmHjqUx/p
IqDfGWzQ4i7+W1SFD0wIbm5OU1NtFV3qSLlhYsn/k+pDK1/tNwAjcgyhEmuOLEYz
GUhdHKVnDRzEkFv2dGfDn3r1LGznrgrSqmE9khazKrIRBXuu14FFMv1bxOdjve5p
TNoWyRtyQEQy9Xmxz90Pyq0+P0/3rrycSioLQARAxr86Ik6orEhhqwn72VxMx+tf
dutkIXcIbLMZTRvGGSbITDTuRph6O9twPgjhJKNsjeFLUUL811E6hhEPsAntsQ38
ftBD45AneyLYIUjufbEaxcLBrhlwzwO+A9YM/L+ldXHc5dx89jFBsLTA6Q3+zwRW
dHT9cp+EwP4HC/VWS6xOeBZTQNwnVjCA+s9slVyRUL1udLhTACRq8a07i4lIhpq0
QfleBOlS1s2FP5u3PgHQTylh2oJ9JEIm+pLRiFExjZ3+AizHJ3Pya0kBtwdiXJP8
Y/+YmpleQOJmJJ7aJUrcA+NyLA6vo8SEXRY9Z10eNPhDG6/vHsTZpMpz45fMIwCS
t0wHUwINhZp/lIM3SbZy/YiTKE02KkKDFtB2eY2tPpTeclFqNmZAePllfNJLxae8
udYElIbXmsYRpDjbfi1mLkj25F48VZoUzTo5N8wYxU4tluEjrz1tqt2MJVtlxWwN
ANuDxqXUC12qjPQ5qtK98Vjk+G+JZbNoQA7fFFNOuDHJbBuAPJeyUMkyhOSeqnh7
rs8qvYb40xO1hKp3ZVq53yaer9b/CJeRA498FwUG377uesKunYsRbcvufmInKanu
b7unv0kal3AId6uEFL/fa76hMDSvtWAthdDRD/R56jTaYEI2KlT9YuC2IvafN4qh
QeTrdXpVQ8+7m3wXYpIM2Xbibc5uEV255yyUfS+4Vu85/1E/ngQixGuXwP/6ytDy
2uq3bpb/A+Llels1IQvl+tL0XZ01x1/GIfbHu5M9XNFZs6fnxgzaXzqQ+9mNab/L
WAJsQAoKA+n42va+HgDDRNE7gAjmiQnxhTHIjeEwiQAOffu6GuijHWvWDGNtKN7T
LyQ9AFdLn84Rx4dheZV/B/vHbX9aDGb3QjIdoxd5TgiD0J7s+tQ4VU+2UF3831gN
vpkd9Lr/Tvo6V5osAJFgSy0fIWBeYf1KXT0t3Okxl1EV8Szv7IHLYqjgX86pHQqx
+/gszEx52L4QXq+UXOiKLS6a4EcLtgYxROjAHxTNxSXnLh/NMIXVmzcNlC4xtOwl
Btbfld5Eh54rfnbZyBUxG9Fxyasny9tAstvoDM4bTDlFnZSaA8k38gWnfnzksrz4
SdmIcuW1lceU4ZLI4MfGBkoDATzq6qMPjbUWC+RIZ5UTIheWOAzmz7bLIrCJDyNI
Zt9TKWxChRQcFy7pCQZZxZ98s8n+uKAX08Mhdu6SK1dEdRs5prZrWjH4tKkN0Pll
B8YH3ziTzV+Xb/HD4QhZOUPs4w5ui+rKv/lDHoTlk0ZImZ+1PN9IyYhSDXv7vLLZ
/Y2OY5hjj3nwPfb2giwKJ0drofFecPJx27lwGJQm7KtwCdcuSaTnlnRu9pQYaXo2
wfK3walkPjJ44ulTs7mEiCwKE+RHNyeErH3x02Qr73/5MKqSj/2VGQ6lIk6FA5VR
est9Xl4hjnhKP7DhB+QiTcsPFmFq5x1DkwMgqq8K27X9RyY2iCOai4PeV2CrENRB
y6O9AWZkkrPAvdRqVu+1k6JnEiMyjTh3nitI3IElxTorFk1LaYtIwnAonBTL4rMS
bejZkXVWIEtdf8w36z3jvz6gTeteGonm41PEKjIqN7ngrH4cwgZDgseuwbf6L9sT
KR71FQbQeO1peOGxz/PEBGWkhu7jD49mx0PIvEeTbnjQJcc/0aP6HaYY9tPpv7KL
7J5R8zvlWfaR3JxSzw86yESu1jF4ogHvOow2GJ9PgEoh8iYEDUoS8MH0K7j0pZYX
LthUE3IRVaQ/ACDhSMlwO/x4SqiPMMJP+yO/np/TDrxWOgK81TOntQU939YOGZhG
LKyRYJjo1jJtAGLv/1mprwxQ+2IaQ6bqdZI7tnW8EUaqqEWjrNbl0H+lCmMLxW2e
stgROi3Dk+0Sr2M3gzThP2QE10sYX1bvVgkLala56gilgZpAA614B/cbIMYWUDLC
e8OEzSkMcEA/bp9ZhS8qxnuzVqaYX2Us5egyC+XNfr7PoAVNNfLWb8EBZQk7VHgo
ot1C/Tj2IXtFwwjduCLrmev8uDbbYI6KXzflA4th4Hc5Tn8couhyq6LEdIp9p12R
fHXPrcwL/SrXDb5AAvr7unjxWeft3g7cuRFkYQvxlI4CHA6aoRa5w4TwemTluFkU
cMEnBbSSuJoraTlKO/Rn/TIh5NkSTgTbj15EJsKCKT2iWJcFIsxfeVXUvqHGcgyH
hw6pXPnb1mV1ieJUs12nimaqCroaCKwh6IT0hySU1MwHhlo2W+4/WA4o9nSDtLoU
n/wwKTvpGEhf9xNbGHYO4NoWRuVH62fme6UXwgzi2fztb345s7ykCIA5UmiIGmZP
jtsDWkVJsIToZwKXYhktRYFPZAxo0xYm1unCIdxjlGU11MVnpqvm+pVGrrCsRtsj
e+bLNaqeePGilZh5hRHOH0SDQWMNLnM2tCoT0OiZlbd0Vl2WLpASSxobf7ccFI/7
XBVk1ewecQjNnpkftgvJL++oOVhaYbWhBpUEtm7dfup8c5W4TZTVi8eXff+E6B7A
F0PPm6eR8j+A1S6ZeYX5AxlL6Ph4Wyo5r2ucWcO2SZRNBXiU7JdAv3E2j2zJG0BH
tyu5PH/bGkyxhpsEw2et/0Nd7PvI09p1Nn+BC5tdfQ34sUZePcrMsZ1AtAPBgQP5
2WlF5WOpGa/cwIAIQDg1y/5P9dLJKh7K0W01TBULmx7xi5HWhFzNKDzBatMQa4Hz
iD5VQed7cTASABxVLeZP+HwsHxmIGDG+L1JY2IDT05JSZrX7K9S/iG2wqWMKI4jg
YkAGjvsjtacLXb5ii0JPvAHudhu4jNNjqdPqXnduSs4cWzWRar6qTSugtj9DkCq5
jdtM4Kl6MZu2E5cHCk0bL+2DJ7ppaIt/KuM1RlU1irhWyHNw9iP07sAtuySQBwn3
Gp3gvPksPC5CXJKQzajo3qq1veuH8Wdel7ju7XX3+WRxBqk8xx64Wl3gzPXkPdhF
nbHjux3Z+JNyVdWWLjquWridSgGbff8HeGErCGBuDGcgHsHNF2tfMHc3KGJTVnRI
NZV7Yl58y5kEKHr/Vz4sx7efDABQIiML00Yu+F3jQTXk67dbfCEKKL2TvUHae8DV
CKW5ByNtMNj3hor+AHvxU9wr64RxfDSKDTwqYMeqB36z51FQ4ZRj8dsjgi/bJ35j
AqqSFOEsNIu9Qnaf30tbC5JbJdFI1w45mMLZKJndJsc6Gqr9TB6cuWdPA8ZFix3j
YNt0Phsr73dgIxpeAsAzBaIpFlvX1nOA1421TJIH3hhjhrNMyeNpRrJJ8qxI143o
D4TaUOSNg2HinoU79cvmkSG1aP1MMl1O/cRVDp/I6TolrDYtx2kjaphqz5WUo6Tj
PrhuivfGe3oINF6eKyHSlW9hfo+nM9hKcZH6RUgNgIbKiS/t/iYFShAjnwIIG2Z0
Xmd/e5YJbYnieuBf3BF8KhPKD/UuGz+qKAYy1xdNBuO6ETLNIp53Yn/zlOEnpJgw
YOoJfoS4KorgaCwp/gm5iCJI8/kZ1ikkaLXUN9XInhiAGgosgrs06gVbDbSdIFOw
EZ77ToUd83XFUDZubrgblIX2xF1upEQ1hZvm6LqknoWemdjWL5JroLs92G1nG30j
AWPeF6WT+tUFrRbqkuEd7IiwSZTgTpaVlP51Fv/8anh1oct3LVvYq2qkCObxMP54
FqlwBwqW74fJtDsmE4PcRVeJDwYk/Qn1YQ1nbn4N6xhTL7WUv7V7aTSwg0OUs+6U
bwh5ECyiRqqqR+pEckCPefE+5tm8Ju7vFaN7V4MuhScLk0kbKk80JnkZ7Zz2QA8L
0BTxXD4+HSxL8433q1/YaS4ERUpB/gpVBPPef90kl7psaFDvEYMZZnJh2iUQkPWe
wYRz7CpoiJbrXGVl+U6LADzLx3b5A7Ac8LWA2JAvGn63d2gkld8V38EIZ5id2/Ho
uPQgkYyVO2Tmer0T271RNx0m+lEzKuQY0ov0lceSoC1ctIsJVUaHzin+NDyiznGU
LkOZ52Q1gMYBNBoJGKG+EbwaKQu6c5hHxz3KfPImmNVbOy5Zmr0JZl8fP7nJ+d3o
4c+U+g1QyNbLnSNbsisbWIodLX4gyc0YZr6DQyBowNua/M4UxjUB99ck3+c81FwE
lFSWFHt+3ulH3bFDmByujyMj0EbqKC2N/ffOUxhqH1wIycEscCsIz+O9vMtftHsY
u7N1BEyyU16H2lxwbol7QULwK8glVtgIqlSdWUR0IvmMRYjDtkCvfDE8L2H5+oex
uYOrmVhClbhwMwrE0qZ4l1OiwMkVQ3fj79QoK6KHMXZunD9oso0ybeltsY3yCyYh
aFJuzgn55GCfgDAjh/p6+odAeaFTiCs5BMszO1eH4s2vHiCgqNcOE/ng1cPCh9zU
p+oWSye3psZIs9RXYsux6aEwTyG2x/yzZL8ezwa7DHu4K+4qF+V0qdP3FFCw1kKp
o4eIgdIYJWDSKODUCKDEwDX+vJdpKcQKslx2lPgAfc3u8dGbQnI83BWs7VXL2GRL
OcZrJFhh9q1KRYQdZhVbTH7lz18Gl6qLQ+ww7mkeOdX+hkjmTGUbB1GRjwXQoTTu
GJaKLI5yxJ4qRxwCPxltB2sitS2wXrkS/Kko910FIxP0mR4NmNJaIBLR3AGq69Vx
advCiSI64cWLSlHbbNyz3h98IvoBhhaF14EH633ruLQWV4NlCbtWoYNWbmy4nUoT
kHJqAn5EJFD4ds+r3q2BQxItHQ9lPfat8h1f/8kMx6KlheYp9+VuSa5OAFuqD2cO
6ii1mvu4QdxHwecBwU3vqRY3tfgYRl/9+yDBAVjHv1QPKihEfxi+xeYKbGPyJkgX
JZfz033xTmYnwnSQqDJL0iYJRXImdg9Kt8RTb2/9+AaBT77eIISLC6rD7QLzgmyc
7+xyp3QsD/TX3OlGZjWShq8iWpQc77AaOLfUVPiwLrH/g5JxyQyw/IdPKZ6OJrva
Uxnm9doOR+4ARqPmmhBCozUm11A4Dq1jA+QnMcACNF1JofaYNi7oMxTO/xqahjJq
Ma+TTW/jqJFhdUvOBt2mJtkhE6s8xYHcRXuOdaMQK16+RbmGt9PeTtUIeseNCbCE
yP4r0NYuOqAr9L6CZdBVN8Qy5Q5zuL+bpA8JA0xADW8ULx7aZQNXAb4GRpjkTMXC
lMB+M8fky04qmLtKHYhXsmT8iRjSMrKq9l92ibI2PS/QrHonzDsbTQc8WTXelMGD
n6lEOcrH4akx+oe7p9/JR7tB+kmRsqLIJVLhB6k7N/hsf/sTNbMO7cC1s18CkZrn
0FD0Nnam3ZnydBlICiyOrm2jy/ZMQhzZH4hUqGacW9bKzeWsxxZfBD5i3XYyYaBa
LCxXN66zE0UjKW+Ja4LAh5FqXOSJmCguAfWIFQK1SQwcJZwQRzIJldOdd5y9oVWQ
40Oc1MivGSX6hLXm9JXi+0RvVHmJNacw6DBtMrfp3mPL4EhsDN33PQh0LrU/JnLX
pc+s4CUHPTdGO9Jy0g28ioCbfpawATaGyGdSNOet/G9MVA9RPvNBkf6hI7vKxHqq
rgWsDpRhDe7uCGyMzasyONQoLYwlN3Il/ey9D7xfDi4laDv8WH5hE/IfieAYjZ3z
hFLWHFyQGOobHp0UbWz6j+8OhNQyxZ0M+Rls+8EZjvQ29MNtkBrgQhaC9HWSJUK3
frD6y8LD7bisLkI+LndWFUBll8ksk9eevmbJoriWHexT4ZxmTUYgPV36M35qs9n+
Zh5A7gVFPnepG5h+/mHUkvmYjXJ06xslDcbnwv8B4gBpj+HXYH4RWn/g/wK97TA1
uk0OL5KLE6p4j7SWWYOJzmbvextD1LSVxS0v5qwrjg1J1V8RcZPc7Mc2AfAQLtfk
MDm7/vXMtmet4JDepwbM/2g86U2UrCNEXweyH2ZXCMZJNbZAof7b/Agt6HffcYmi
R8oFHhEIiELtLUXZwqE9FYZr5EhxJTLbX3WoREHPJ3VeepsWm4rxoVxO3CJ9L7Ck
JLhRYm8Vkxw8eiYljg1/HqB/sW1gXLdfAo528japkQA4i7K9bl6XdWKPJ+gHcdCk
R4fFIEACfrCkJ9dP3PMxLezDzeRnUAbJWC+esJX3PXolhbknM1+EXdB81NjVcH7z
s+c4vCAslgp0r3jnSQ/5GvQ/4J0MzmxkZ+Bq1KNHSFOxgsybQ8VleUoRVsVcg0jv
kPhkmfBq3K8ERi+G/JXABWb1RlghiwFqWMsTtShJ3FRrNPVKaXwDjMsGK8F1GcDf
SHEQwpeZ4PABwBYkOJq7HweiavDk7Q2jaX6Om4ZdTIEMjZF6ROReKneGGj1F0eQC
U/a6Qp9ze2R+bW4Wg2w9sfhtOc0cQV1g/TvBrR+qE5Qz1ZSgk1Km7dTBDpRKtiAf
+9/gC8wk01ND21PwZuSQz3C6SQ4qhnFpTlPMFL54SCkJOpBWAYXPpp7yOJaR7O7T
4wa/rpc5Yi0XgLih7/QwJKf9YuXZni6k1CIBUAKBginNSKMTQFhYRk+qeszON0nh
KiEhj0pIyGJbu0X8kwQ65oJGzG6cZ0NPmAZcIgKpw5QFwE1fAilfhBHcqdYqI0nL
xBtG6Qu45/3+2eGpjbst+NoZfcgoxwd8lEtwYJuWqNKD29eYrrlkZR26WDwy4jdm
t4E1TYFWd+wbSPkBz66xOsaOVd2NAh2qBVHC1lcJB8WyqLb5EiRhqe1kiZmthF4e
fX15/g9gNVSLvAiva/UION8dU05eeil2L9P7/YNH0kxCnua/l5834aNF5eSowHWd
Ap237wgMfUoteIOSE03Nh5IiTBOKVqvamawW8iXDsks4gGed4d+3KkwRO/dnGFf3
+Mc3JqnsUNVdRUh/6YXgHX4fOLEBEkrb0/hx1pQLPXtWW4eyMWOPChJo8uaLvU6d
vF9mk5ONDtxtA/jA1Ncl40QZmYsMnbw8VVzk3+nfhL4lHd5NbrCRUZVVXOofCGFL
ySM7dLT9elkK4DMKjUfvvPOPs7vIt/oGWAhHZIVd45176cktmy5JbbNXBCW/jcxg
81Fc060q92fyDs6QjiZasfYaQUUXdmHw+NrLUe5epL7YsgAmtJ4gqVx62XTlQG72
d9Kyil9v1wB8TNc6bDMqTFz5Vdrh38+PQmd4T9I5MpQr+b9FabkhQJXkxHp88z72
DMZqLcxlbxKI5KMuLXYkGxpot08D09MNAmpt2HJCZ//E1E+UI6KhlUy4dWnud0Rb
IRPLJr6/7AHMtb/VuQWCajBIdLmrl32vohtcCqhUh65hZxNmVF8gL8vtBdqYzaxe
4fTsfPYBppLsPP/Fv2eikNfTk6OCFFKmigQ3L5ZIp7cJxf1hmnylTYFMum0lj8ha
OPgWsWkj/FRtRzETm39QxRIazaV31rXxAOyw+pA90emZUYtn6yKwHEflTdl7Wxur
fa6BZbxFkAZRiW97+35G5G/enzGTGTkId4ZImRbHcmcYUQFr8VZmcyIp0oDakyr0
3f8L/GSayBpjecLrZeFbIK/RLi6OddymuS3oAqDRw/eE4n8ljnP+m3rAFE0heo5q
GBMTNM11gQyJEDPYzgWayRkuD2S/OXadEndZ9ms07aaXyapGJdfXIcA8Mbal+BWJ
7dHBa5m+AHYCa3w6Ky1MJbwEI/Iae+GRx4MEBhQUajhOXL5sUIvt6EKAPA97Tu6d
gVyGNrwjRiTVlvQz0XE9KnzCqZn410lr4/yTAGzcy3FsQaDUhfX9+VfFWuyOAisG
1HYENCX+z1PFti94e4uyZzPXGcZ31n6Ax470gw+vDUNSAISreeC6Sv5oikmTujQe
6yPeowA6v3wvHKs5A4txXiHj6VZMIJbuJbPuvApIof9jtzGZOMujy/Rv7ArGvCBn
2S231AMKVnUqAnVZ6Pb7d4orHcPrvBkOtdDjDkWjq6gxO8iRILn78l6yBzsp9AT+
NBr50x3lyD1DIkDWA4Y6hgkOf/RwmPvd2Mfn8clMaVUmzEDvRKdLtX+UsuWH8Ngb
NKLnVgJUHcgkE+j6153g0J6/vAPlRjKqjl+H7RtUda5qD347hR6KE6aRVvO8xbtQ
HG0gZIgVVzyfNH1qeWqwO4bA0GVqC4KqSD/yHq2tojXfAz5dNqkNlCBE3l+BvdvQ
f4xaIWhwldPi5WX+LyM1F5jN8ngdzY1gdTr6FCLc3VPDnJKGAoWiLlHV02e0n6vB
Pr7FX3sYHp+rrP3G1nLnAEkXgYpCMH8/sXShxdHZUZ2HT2DjuK68e8/U/K1zyaZx
doDlmII3aA3onsZmTJUHlj93gpOMC/x2TLeigcc02oyGrNI494TiukO8QqR/oHOf
59lRqHEjGFVXi6nBRQkdgzC+WmH3Nsw0kYxN7YDP5IYY/9GEMqGNxEHBKu6v4LiL
TVcpVzvLdynZr5AMY+sisXnxeMasG9DbKBv+9zdWvkaPCfKScKGMWfhZPSnVNcU8
f1ljdZRDEc4MuOMdKGZ/9lJ8yZZ9fKK8A2GHjnuQKS5p2QNh+JeDfX4fTBtLLW4Q
21QmTMrZerlNSXXYB+9+5J5LI+VEOwVMt+AqvlMyzS/oEiaArXkPmGWXX/PmfMt5
dxs72j+flVrcmKowOvx48jCWrpwEsMoBS8VYEmkaCqCXMB200HQ2RV75fXvfZcUb
yLqtD5tGSK0ixWw/M982E/CLWSAEr19HCn/hSUpO+RwDIMuIxep8jS1hno7j4Yqr
orsBKtT9+cIu/nBCCYuq6B+aIabC64PGi+qGoZav+y7sgemc+egkQIGZWG8CijZG
6xGHPIpZICQ9TWV9CdH32EHKozqXCU1kNwts9k0bhhXo/KtF6FL04pvqbJpSOMqY
TTjYxg22LmYtpmXrcBLIB8anMk39TeaBaT/BGXEffmThKfO3chfOA/AO7V8QBBG9
uURGdCtS45E/+N3Oh6DYsS0EfQz8LqBMLnbCjOjpSPIaQ+u3zcNmovNtJ7MnFcUO
4m1E36XYE4G+fx5tE0pV1s/jwtlvyUohQpJQ6bQGEL+6WuCtlnp5bDErApVDNta9
hLkKVM6bQFwyrA1bik1MXfiMYWxf4fMNnU+H5z4tvpPrcpk8YJSzj6YpefbeP83D
pd7LTSgT4L4A1zYZm+KIaZsjFfwCoGj3/EWtTjKuafR4HntENAWceacPvAUcc8n4
WQlbGslIDwa2xRRwzKJ0l2z5EjEqsJ7gsNKsxujcfdbMuhjDTU+FiN3BiIYP3ANG
oQh+bjyryinSrcGlwFzRXrAF6UYh8/ucmUfHVbE9bhqwp6dfeJUv8+heGCSPfqxM
nwlrk9R7wbOm3ejcdNTsSOdDLvPSkIDYPb+3uxEXivcwjoRK7cc21XNztuntBuH/
AIgfkQBB+HtFWQ+k8e8JdX6j8BwhJXOrE1iAhAGSacLQi++vh452WO7mVrgE0TUr
FSEDSZPFZjLp+TdHt7HaPjUOwGHTI7Jq2XGoVIs47xVmjlByD0wfuKPyId6Ea7yv
x2kZBlpyFDofk7jvuDjKPFI+jWk/3xtj7ua3agvAvM0+qhD8PgtYnGx192IMkhqi
fvX5j9sObs8mx3hTN7QWWWM2D5IYFuPN37sTT9dQyPTVNBkS1IyOpIEyf4esrBcc
AGOxpTuAfgzHIImE7u6Tu76anOzzMqRiE/YYsK921vQ6oNEr03PMtFXF5Xso2rue
Cjy7W/VO4bjOXiJGNrKLSlhlucsXUrMazNP3iR6sNwbiWjeiXKTLccaqwyWDIp4d
Eu6I/c0w5GMwtthkbQk/cG6ku6To997HSVwnWlfLxwfE+9zJtjZd5jZFnYULBIrt
MpHQ1GKRAJ6KFXLzWY4Bekoiy2tMefiFtcjjFcr6+jxKIZ4JnhZGhOz7Uql56+AP
oXyGGkj/vFPJedCeQCLVW/XUBG1vM81DOvuphK7VfkkhK4CyBddew6Dmy/1ger2Y
6R40KsezJQXc4E7uT0sJ2hBdqUfF0NyqpM3INNhqChl97OVN8vql9ejSQ531TVdT
3qsiqWsXdpPUE9sU8EuJO2gPrpquP9UZZMTqu+8TmLjJyc7OcfgSf2qnWPRH/sks
vNalAu/74fCDferpLjuR1NUKQLPSpPFhIoDUfWce9Yq5B2/56r+h497nWN7bCBv3
gWd0tElC6Gi81UGMH0iVS8R1R5RDWpAF2mK+Gh3fR9HTbkVh3LxJJvhi/EaRxeCi
kns3L1zZY0xzaDEBWQeZKqshcy1K1SAmw1/3xeKHhlyQpNM/O9ROk4H7VnIRvU5O
6cEDAnM4Ia0i5VNrCUPYXw99sV8zkxSsyMGviMNopQUxVsVFqVEULxpX4Z+xrR3p
Nfm/9ZEF9PlzZzSPWDhra40MXzKt3PiQFd2AKatZsm/fEJHhJ+nIz07oHVtTYNLP
ImYQjUK0zUCTWhnUbA13NS+SSEupylr5xEFB/UPfCQ4I5WOxs8EOfyFJUsPFq3iZ
CBdzlSmferow+RFl9HFrPtNad3B5bNEJxuFlJ/li/I4WvNSOBQrWRiaiI136iPrr
Vubd9TLFY9GI2r/KvOUmjRNSX6GE6UqRsP/fBiSicF+nNMWQb3ynC+h+bBMRq8im
u3p2dS9KU8zyDy6UWgczVHglCu4DmUUSfNWo12gxcSTIdaa6U3VLiJDCT4AlKev2
8fTm0YPOENWN0h9WppdTUBdB+ysMH1WOPVNeK4o13WgQpuncdFPgubfju8dUclkb
AaC7006prmep2kugkxecp/QZnz/BzHw62I89guuMyHhhM+OgpEg1Qp21UNvHr/VI
oQqCYHBY+3Qq3fuh0Z/T+qG06+YaZmhlCT43748yV1ib86TKtnCTTcmNaKBnwMCM
dgwIelj8jD6WXhfiGz/uwG78eyqAnzRGDknOKXVe3VtviPGhghi1gyYVEwxZH2GL
KbmSdCd7iiQvWIgJHS6w7fTCX4IBF2NtZv1+oDXh++6qhPbBL06vs8agiwuNDo/4
DALPL8HQ21Fzjs8LV96H9SU9ofN1NXc0QqcJtdYaGBNFgr9l5LHIML1BmuSYCBq0
JdDVRT9hppyKw/w6Yji9b8CunwTDMwJ8pIe7s53qVZ1H6e6e98De45WKvxxOlzSk
YqZidLEUQyCMCEOlVuZ8xsw9MkVjHffZhxL1Ez2AmpO3swc5U2LDb5qd8m5Q9Fqr
61axyGvrBYaIf9O3GuKeooPCHZFjJ9AdzNZsunyQHF7iTR7QhJkaXOjeVl0UGlpA
+bXELLShYqeZ2sdb8OeJa+pvDLPROcY9+E37d9rdsDBTs1nDzHRZQkCPgPx6kvGc
/hpjQBu7nE82kD4nnoDJ4poog0rwgHTGGYwB3Atmas74GZ8VKhvk4oNWRZITdQNt
odGCuadu6yREsMnO0L6JsxGqOcvHDSVvcF3D/u/GT5Relz9HKvI41IPK4HW6RPwV
G+13QC2QtAzw5+eTN/U2QLFomYSiHOFvyDKvwfPD86TM7x8Yw6AlMx6q3AbjRzyU
k7qxUyG8ep+pXB19dLJ1fC7ET295jHkUQY3JfTCO4fXGXDPYGCXZRGuvo5RAVJBz
vxqhW5x8IJRGZjiaKjWs7X3Ea/yqFjEGdelTwV6J0psFT7/qQwvmOvo1OxMErtHo
QuG/g/s0raSnXiwvKDc/cu1EgXqe17+0coMKRQhRPRW3U10OZWeuV1z+MPILY6oM
eyjiMPrEHtnbJuarpMxlgNShG4v8AUI0pLq9nYRCu8yRX91Gr916mLHjBxaP2Jh+
+3iujav1to3mMmgBsYn6Lrc2DqPz3sw/xNWkHehuNGXtS/HCjMTmnf6d/kY4ouWW
aKLO68du89qnAr4DmRUlXNvsLwYXatlXp02+e5umSr8HHmFxD67Kuu1495E27ILP
rGhmKjcDV9lGzEj4qQANoZobGb4CN1/b2LI1C7lXPS1WwNJo1yxZcs5mWLza5qnF
TV1gk3Wwg5aCyXWShREFzzTBzLmr/keJf4VXBuriDHacrKKTOGnFWsdNdw/bJIA6
e8aEmrSRtw7C/JXTZdY99aHRaPXYeIXPGDIlIuD8EhcbGg+PbsTQ7X9IBe4GXbZe
lgL9D73dFTU7/5fKZnOnqgkbLMvwQFEP2nP4sye02ZumBlIXsFwY5axJDP5LMoGd
lL6lrGLalMgXISmxBzxCINWfvUqTt47xUUuy1gi4gNDzLlHmQO2C4S8zNVE0FG2+
FWOAw4Z8se9Eni/OsGjOl/4JR/KPOcjUAkFTPWz/yqyW0MbM2mVSSya25NNGdJf/
gSgKaRyhkOSVzvQ+G/JbOUCmqM/mEwEzspJ7QeuOoeZinWcVJZobw7L999pTMQd5
GmSfVRZ+vlmj9qb/0brj72z2Oca2aoD3BFMowQMJFWOf5IjskFp42yn/Jj/MlNwU
anWQ0OjEvmbaV4GpqhqoSjvEdIbKmF0fmdsZEUcb2DNaSD7cYVrkmA4GvtdDgvnJ
IbS5XavXljWE7qAqtIOnDYxoGXc/1Xcisno02E+C2d4//RK0DYgI+pXnmXwQtBvE
Dvi+aZhKTrnTyBmrEQV5XEfnREYfQ+jh4rbpiu4rQSZvvcYOswfu+OnYPsEXFfv4
UhoRyBEfVqP+tJ2WSjxUacUUzlQmH5SBHUeWwJzs7s2WAStFt7LV3keeMa1YIKHA
TmMcFXaCK3m3mPZcJrEn4ikzHKahow2OaIHRG9qQQkO2B+frH7Pnl/J4fxfTHkDZ
3VcmJT4emxJK6uNhg86r0GuXowfEq+XdIdSVWa9wKR23eA0wNVYMTkP3VxbUwkPd
6pUTpeUfMsogiAJ/00aypl/KE1JCWwUmgLm8LwIDi89VMEWZeCGi5rmPtoiw+1lx
kVXOPA3Ebm3Q1LT+grTzFD/1Lk3Fbpj8aErnOEPFX4ZXt3NdM5MjlMXKv0bkCC57
OILq/Tzh6VJd5/KVcxkvppbhqFtwwq6kWxpvQm/5MdZ2BhS72MBb5YntteQYIOEK
nXp2QhoZEH2YbOtqnSrZ5C1viQ3zwniecgtLTshqJvpsc1TfUMxTBlV7/Xmgw9WT
nj/YASuFNcT6OKTxnachMwTj+naMthTxAirXe3GpLTqBq+KAvZzSiIROMCMAcG5r
4vYIRindOmDrfTdMFo7VoApMJpulYub84qSSMclucWOsUO75coDyhT0LPMKXY4sk
+f2KWy7K68Yhm5tmz8v7EaDMPIsAg1JV0+fYgiAkAuMHfBBmDOahQ4g77eVeWHjN
n7WrgjVvS22zpI/Wyr2TMIwK5zI4PvvPLibiKPR3fmKfwd9oFJdtNUJuhXNP7AkM
Z6x8C9yMYrWEV57BtGbz19FmwUqyTf2xLo6utuvGSybITkWThMt9BD7WdjonTJuD
ZTkvFYVhzYY2RAgUaCnqZVQazFoGET8wi7PMF/jGq3uE/4zdqPF53u8qUIpQ+78u
FkLSbE+rvSVuA31CNXBISPJ9uOAP1l5hcc62XhPFv6h6Kb47dX3TigUS84xhQ7Q4
SBppuAEEpe97Y8HXiFaR7ZAhOdzcDhvyruP4jD78YnP5fKZxQT70DhevPT+RG8qd
1OZ875UW0aEMUsiRfAXpZWnajlmh8j/wktzKOjHfzFWkAD6fvgemQg4hLMKsaATe
CPJYQ5BSM7PGA8k4XwtL3HAb+jp7mnC/nfLhsfcJQroDVEwq9wcjcUK/Snkdh2iY
tXYQCb9MWCtNPCMyLHrpCVE5omqLU6HPzznsUcRqFrRhH1UhiN9xOfthhGzik6lU
WJBmMmUzPNjkcCWYC+y9IFaxvItnnW5jOh7jLDQ9cqU5RvL2nvITtd5nDVcLR9oY
LtMudcx/4diU6FSz681hUzUqqgaFMPnFCjAKkeHfb+eEDNTd+Apd86sh13WbcfP6
M0fp6zzEe6rSlDHJ+bYbv6AgAm3SDbtN/VMNFLJ4Rn2dkeJm1Bab/sv+MKFrobrA
SvBPxPOK1yWpAI6AA475s95JmWCaQCg0rQfY4UklzhQJCN/77xwW6EBLnsws0180
kkVSRxxcRuwXtRaIlcedKzrAZO4tGkB3i3Xh+q3HKet3mpe3xGXQq1+g/Xr0UYrY
54/H1PThDcau/yb/35rq60B3L4LIKL3WeRGUEna/37rabbjpYB8BpiL3huVEzkME
7MXgexxWZkBoVtVURkoTA3jUHH282sMPf5fanfJRkgJWS2GOGHpo6G/x7NMp/n5N
WQjjZg0pVNr6Wgfe3umEE8DL5LuOLxNluNei+3fGHQN3prq24F0QJOI2WhLYeqS8
aMnZdsD/ynJ3vZrLyOPmcbxjk9wnDFpilXCrWv8U/jzq/xGivtMj75zAEnFJU0TL
x/JGWnW6zXSPY9g4MvlhUGLH0QbtWwVUtQK4bXP6AH/kHk6d5DzQO3Fy1+ViCRma
8IFOHBRiyPIHoB1aV+8+tTOWsYfb8HxgjfbH0S3bxul6w5R68h+SXeQZ6L+37P12
ZXBj/u5xBsBGaJ2PUZTrAI45T+WY6bse2CNso/SzfaBIti6SFs0bpO3t03AxPrvg
bi/f28yAUks7jOzATB5x0Z9F0+rbaSlloA+08vt1OqKodvm0NCWqvf/g+JE06MBS
9W5RL5X17+20U85Zytpg9OOUQDK7sOxKcYV/w34Dg4CVLj1Eeya5HRxQmKg+VfkT
9QsujC1/t8AR9hW81FxRIfadKudttWd9Bbev0cebf1LSqFeI7n7U+yVzfwQPRCr2
qK+Pl88m/mx5FUWBpAuvKc+QEC0jtpwa2QlI5ekZpv5C/zGBvmFL31i+sgP47m6D
uzcshzuR/wXNbqvvPbPOn1+6I7sGoeFvtZbrrvAdyGuXHvbLu+2rLdEqOuDbREDR
fu6ojTCIyV4+i9j2ADg3kfsi/eJgieK0uHyG9z3mWX5YQPEzis5f7vGuK5Ac+Zh5
7CWQZmeShifN0CSndZ/ZVKA7s+R6h2s0yELHakdWE689+ASShYKXmaZj34WgpkfX
60w3JVSB7eMqj9pJMonfoQx6yK7734bI0qo2L8b64X8b6l5HH4c0fkaHFJDSJSlF
WsmjcWUqWCmsogqNMjgzvUiXw0jATJmT0L77e9nmunc3x7XC1NjGG9H60rlp3F4I
S96h5J2WTg0ZjnVM0JMKPsF3XkLK7Z4W6bPZV/J/1DVjohWhrWN4gP3mm1SLlFlJ
1s5ghcqussArjWW4JavTZAiJdTGt+qUrC7FV+NTvuhEQwrDE4/32c7DXDS3RKNP0
5cR53rzj5EDNM3GNaLodKb8US8KAi2DTg4aauG+Sap20WBaLz288rc8w3ORRhJDX
4xO2Y0Krc7NYCAPvbNaTAJuy1q/aDnGuHOn/6KDBWZo3OG6y/8D2aAaH572Dttcs
owNRTX3ydsXDYmUT2BoRw4tgMD1gHGkgkw5q4CqPdn8mCDmo0SfoxPSzoCZ/MpVa
IXDzHjkFHcKgtdnVssQspySMGdKRPPoHhs4frPdl2H8HN/0XM5al/sx+6yjNXDTf
IyzGcFO3U1SlE2Flkr4Mq9jPa9LRjDpal1+JSN54QC3eq+ToNpq3n9/aRUf+Y6x0
5o2VASy3Daa+xEq+MR14tmVlnuAYFO/7dZyRst+ON0t3D64MnYnsMCO9XfiZ9DFz
thu3lnEQ57hu/a+XMY62HKoCDEnliGHSnWFI7l8BtatSJDBayzdqfwVdmPSEiWio
L6sWtvFM9wEUSZzJMKp67witkDShaUjdhMRVIfMP2BznMrVYI55ZyTRliffPMHqg
OhFJTrFkPTHq8tDW49h20oK9nxWq9QuQZC8pn8yrllbTb9qIMAIgzGcVQrAhzqRr
x4JswqxCRf1bQJMy5GdnfMWEwSwWGONiJ1luRlK2ispAk4gyJlRHFwv4pKyAkP3P
dUWZYXIcldvMuZo57qQtijT+YMgwhPBSrDjmRkwxE7bHQbwM0QQSuG/Oc+D4DFGK
Q4pB2VLArYVrwulaQ5FNyBidb3Q2J9vSFvXBYy7W71axIr8Zwlo8m8JFiuyGRBCp
BbJDmM+wF8aVbcjQCkTRsYI4xK2TyCG+QbbSmPcS5OTnPAjuIKi6GwirDmMzvO96
zAOx6cDtM4OHh7J0LUkPqa2LPgF/uugRWQDmJGhM3Y/vzeWlTVNttB+508SJtxTr
TEOUmIL4olK2+Ya6OMXCa24OMy90h4IpUUlV9jIy2LVoZiE1jtQDWR//Yz1wxojk
iEKZTjpQL79DyYT/LWpjCAiWaLKSaM9rnDuzQBtx/EpXIyYUCASPLMrfSu5vpqzg
l0UARr6aPVqiy/IAFxDS2W6X7rPK9PWtY/LLgDFDHTQ58Zhn2VpgMD5yBZL9ARTE
gcsdED7jMwUbOf869TK2Z7nWIaec68lMRNrvtPoInOBUJa1dqOoA3rW0DGGQNVHB
AObDjIo5LclJs4LG4aCMmsFgEEhsHBfh4c4IqPNVduBXvQw8l1VMLIaetH2VoOyN
3DBROJtHKFaJWPCGoqsSSTxYo/mOBl6aj9TLdLeqpeBLVcBH5DTEKvtWI5Xf/3s/
4/BwBe6PmYliMmpxJxNcEaK8xe/RMmdT46xq8G5uycIZK134NuicHbh7lYR46pMg
jV0uoRz105Gm/uJWsi51NL0ES1wbidWxxmHPGm2nCAjZgx8+yZSvY0bXYJJN71Wy
Mxo6nvb903zmGrKfzvxNPjbNHlH4uf/utR8GU70KJgx9OfUQMUD+k4FVqWQEgc3d
0ryDDZn/bOBD+b9eULh+oqHm1rqE6jDLABHnMXlSsJWrrHg2GoM+2Le5sT+ww5Oa
5T56zemHeKhs5fv5Tv0qHWVBZSfsHyBmIpTTGabARR7RI2TeGN0jDp+ZP1X/Ylu7
QEXEQvqmvtT3gag4bnHUlkHTiS2ezfyKzPt5Y72hOB45A/EexcXRcYTVE1RdLMMO
HWx5EUqKonXHJrpSxh2crFQLWwaaBM55rtTI80r4Jlch/Gidf2ujh7CSQsA52D8C
75AfTIPExEaSKIqiT114Rnb1+Ahy75T55Ch5jLmXfvmvQA7b+lL5NqehraE0sMf0
6u5wBNfrblMpopXSZtlFIFiOkhJsX/b24VhstOY+pL/Dl7lKf08zPvHU0JmCrYhX
DZd3Um9K5y0f8j/6cJuU+F/BiqZnTOmMvkPB24Q4lZdBYrtkkd1ukP/xrA9G14JD
+CNm9xthD0pR6IsjnphnQNbxzSDbQtwdDb/Tl2U+Qm0RC/MXlxoF36qRoJ9M0BsR
M6HUPfJfaJqQ45YxShaklrZRI2ZulFxDh+7TE6p1lLM39RcXwLQ1B22Dkc+grqpB
qrGowtESPjBtPiu8HD7B+5fi85HFXXuYFIzq8SWpo3gKUUQyX7GNIoyFmp8u3xcz
/K1V+12WaBXBdUmRaFaS7ay5uz51m9CWriOo1V63uwqceCR8bpSv1JY1oFbHOeeP
D+YE3iL2GWg1pWxYpNbx+IoNl2ZfnLlztDhOuDEee7XBaKJhodtqMU6AsMH9+SCm
8fhSci8Tdtwnsg5BB5ceTD9glIlUhgvh9YiYKicml6rLPb3NMGA3348IM5jLkChS
oeanK579YD84RzSisfyGXQ9u2IIDtNg57I1z2YH9mLAAVIlefD8F3OePCEV/IGQC
Oiqoq7hgBb6A41zZj4Vce87sCskdxTqvVxjsk+NV3vN8jOfzxY8KlHXwN1lbDWIo
4fmxMpHxNVCaYgRQb0M7JllFjVo4fJKNLorwxmgYeGTMXdilAZvbTj6d6U5i29oy
ywQezMChfWdRv4qDpKSigZekMtDD+z9e6Lr/FWx5rmeq4kNyLNDTePbcvGkvY/tc
V6fW8/8taKF0kfF+y2no6suL7Qt1npe2UodWR9GmVJw7nYClrkNpYsf/R1rTB8TZ
dJ6+nk6+7Xo8g2Vegw4V+z2Htf0ISUurr7o4oKIrjuOr6dMLvTFSRUT8RV/A5fxe
HiPyr9g8nJBDvWNsV7Dc4sy4jEZnJlNX5YUj0SLJj6siDJNT4wEODqcCjw2MWT/K
O0TaeuAKLBhF6fia+QJb6+AKgPryr/PnnR63c7ucBxoB/Zr57kizEjfoiata+sB/
amk1fzbryAyotbFdStPFjARex6im4TjjdYWms+lnLTEsROULx4U7wCvCDt4GsiOc
DWJRIzPTsKdRTvNpdAhc1bMhYYkJqLdF8pesQ9dJG8Bh/pe5nxQvoqvjSlAhbpF1
kXHfBRcgB4WXtids7Cokot4x0WPVQ25iwKCA8t9n8CALD3z99e0OaTNJo0UmFNT6
soKBRyPe0nLvFASC9hzpU7FLdXSGaW8iWbWOorGqVAJvBNv95x74Y9E9rYhITv7W
N6kzb09vSEgDYEwoF5LusWEfWPuJGa8cFZdpObciE6cWU97bvapXxdU2mSolViWu
yciYzfF24KIkdAvY5rib9msc9dENK6cUIaMgbk3C1xAfDESheGesLksHol7eYA21
E8mGEeKPQhziwTq+FMQauBxsBKJv9uGzG8lqlDYP56gUcHb9GpmlOSEKdgURIknA
kCck931d61+wwTzz6lR1zgPlg4tFl+DBcgNwmPCaNFRuRGfrBX/ElB9OxRjcczAL
hA0aI2J/aHIVXE38EI1LR3i6MvHaL7GSwdPoppSGlYGSUemX8CSa1fJ7a0kodnGx
OITHgFfJlJif4EDn4DIBC/OnSQZ4SBgXA9BSEDPx+IOlRcKUvnxyF3/Vcp5hiuu3
VOv4XTaUyWDCCNQdnGRj65+7fFjA0bN1TvJmPHQ5QjTCPZAExNQXu2qSsAfh/M7V
TiWuaXdKKNYqxErMZnLK6RTns0/WBayvpUGJaS3hCgrSkeJGLcbIBelS64JQ9IE4
qY02ccxD8vHLe/a1vQ9tLBtYtXVwCRy3e6Sx3aj1RE+1c/aGxMq5xjpzzbu9sc0Z
qW1ayfe7l1vJmVPhvPHRyDy76y0Is1NyckFIDVji51Zx1aD9ip3hrObG6x85FZdm
MFJpprwFs52HGzfZ9g9MusWCOex0KHn0jbDV1aVmBhmj9g4oBUuFoEL7kJJCWhDW
phmy7MLuyqJXSMKY5FuzN7Sl+znU4OiPwsT318TdN0Yisu8jSkTe94uqnHaPELCF
KgJb0j+RKFE9C20arwdu6aisOkVbzUAd/X35v2choQEyoaD9TiVzTnJF7URe+Elw
5tSpPb45LOKLlFAV4CP2u6yT/TJ90qLl3WRHUgGj7wG3CAbSuODpbkJHagWTqKET
ifVMSY9spC1LEAJB/ZVP6ntVUqbZ5EnWCbP9+AkzyUwTi4Yy/dqQ4owPmW2wuKhE
xFO5NwRCjP5xj7zKtyuovpID9uvfg7+5uPiA+rcHSpWQ1D9FmrOOYgLSmtz8tQQF
Y8dQwHAVcLT1b4Qs70KGuytghr/tHf6Pf0BfTEokPfgQkFDzkItMDnu8zS4N+SrT
N2j1CO2ElPvcQ+7ApLIJSdj6uj5ocOC43wyiFzbh18rZy61kMTtqgsU81irU7HQy
yiB1VtI7ZILzPgiQhnnzwVVHvr+SVr2+5k45ewWfwzyMt+xiQaHlyHXF7zkEEPPt
CCdjfL5GMH+aPi9EJdgJduBfnak49q+KGF7v4NdwNhHj1f6FnmV1VEGD1EsbkfB2
Fw2NAwaIlXv35FdmZRr8izcke5BzsCn2P7XdUQDt1al5mYAXe+Y/5kkKYBouNQZj
ErbyTbrBSuMTF19zbxiD39Xby33+Y8Ar9rtQnrG11LmK9AOOozD9LitsdLQejL5x
Jhr8V+xiVVC2GpRQ6C2RC1tj7+rojps6Fpbko/3KuRHqAFZ+hTK7rsU+6EIK8tLs
rZVaRJLz8wvdXadqQ1yyUgIkl2aDlJG5uiMarrMrWD5f1a0ZHxCoJD9X4GwFr0V6
y9cBEXnyhGbr9NVodlS4K4VYBT3LMsMdx2XqLIULoWMaOlJfuQAlZ6BFCId3mitd
T1W1GdOwG9z7rN3VrxCxgQxxeOqcChPMtqsJYpDJb60zKy9zzMjbY6bp6dagyxHi
J4STULtYv7BI5N5j2hv3k4alqyF66KpYq1HSg/egrX2g3k+5ZOEHzTcPtyTT7qMC
FNzQOLrH6eLu+2ZblX4IWqp7BPhB7o+VIWU9iclgNnJ98bffaonpNndbXhPfW6gg
wzt/1Gqbl2hrFSWPgapgcPEMO6SOU/Dn7UEtFVpJNYIotb/64leiPtaTeLfX5ln/
8TF+8BghZlXojFvVD+TWBlK8i0tVSQm4h0B/SpwLwlYByTXXM8uWRm1B6SXJddkY
hmZBmHJ2P2MueF7RyudF9KJhGWqv9hC9h39pqaSRig3bHDz/PZ1QGxbXxs5XkkQM
T94/7Ps5TTIDKXSWn67V+CG6DcyVNY9/fLkVFviu3h4iiYI4ul6DZpK1vLdxk4rE
g9rNjlAAtB7/JpBCumEkCyXBohO5t9pdrSZNW5FN739V2JGUovki9cwYHP2gq0hN
gCimmoB1Ye9qoI50fURK+X/nzNytUzimmSh0foj/AboCghpcnAu19K2fVgit15Rz
kHxdd+HLaYLRdILRyw2Q8t2aLcODMbmnexqCA0Rzi3yQcz6w+pAqYGmDCTYVpjn5
jT2XVUH05GmhVDzqB//g09XsfaSZEGEWpzXyiaQMOUbWrhnK70Ue4I2uiUCOxIya
U0j5pxuizw/sWu/yhfzxWBppWTesvNavpS+DYYNCSOjJHOuaaFrghyC+peA640Du
xnuQL9iaK+iNqb5LMpUsKLVVN9qQzZPwaq0jj6+WsJcBkRNj/2qJNEuqZfR1fAK9
cdwtJZW2lDQBq6OI39wkJ5SbiuAI7A6RC+OWi2B6WQbLsK25mSjWZ52qa6o9EndH
lNC4Ezi7BuuZa3dkUOhCuTt+C2BlzSpqutAMDAwQSMqz4/F7t71sJMHCsZvZqFx+
AC4YdreKKy1pqH5dRbdtygceof3tPGqbpk1NT79WrVRWy/TdjZ2Q161Z2j+PWDf0
s5H/9VNl+NZ0uZjLEq75DPm7Jv74QRdvaQT/VJ/0f0fzyL81YQOwBaoUIYabcRdF
TS1Xgso6IbOfwmkgWKK+IgAzuzPjMdv3lU7eN4x7B4/hVD4lRGe+P+uk8X9W5Ekv
zvbVJ7SQ3Uhgoe96Ejn5BVXpVx7vfJh6W3+7aKYeipzgN34BLwtaj6zId+0Vgx7Y
Nt8tSOP6D2bCmR8yra0uSA2v1wPsdY807SAqIN93GGf7qercso9dZyC49jZ228XE
qdfEA3lRkCLQWhA9nZEFnpjJarpic4QwKqjOJjFgn9DxxE+fabDUquRyiueAgsDf
n6AnxMRu4FIqMMbG/W9vE7sO/B12GVmKxhCak01ozM1POJ6wOP+whu++ORckl2UB
4JawM3958LFsx3aESV77lVYZ0yFIEBqazatt9INx/f7mqx2mxMxWNLlyCOe4Umci
v00K3+x+r4zkkbjPGoa4GlFJ3p29ZPWJQk0ay0gsBbUZyt12QBlHzjhIbnvmFayr
1mK+tcFIm9evGtzWa3KoYmRqxjAcYiE1m+Hem8TOh2ORMsg5v/lUAgcR1FiwyJFJ
t7S0suRmm/9Stz5nAzjAReXaClyWJgFD/KIB3D2jDOYgoCBJ1fWPT4cj7bnbjRK3
fsI9bccZ96KD+fGemOdkRrdhy3Bt088IWWBF38ckpVxmC5nZWsyUTkiOf0KVMOIo
X6WHPgt601hYkEIcNRhMgz3BXW2GXDlGDmwudtY7yj1xNR3xoam4MLGTJhhN6FJR
1/pIZYjpVcUIqRCm5UbV63xl05/Aop5DchH3M9hoWb9W/JwfmErhdif6+ChUOJ/k
9A/A4ZmE4Y2Hz19giwQifPsij07CSIQvyWVLvUH14jvi/F4qWKX7mfz78umY160e
BfkXsROx9cqtSI6gFfdXqZ9ESQD2g7ejY/mEfKdNJRzuJaC0/Zd9u2gk44PzLLui
r80zWnyLp2n5eQZVTRarGTi0ZL7LaZ0J98he3hZXnBn62ve7CwAKaa+w+k/6lMjL
TNXyXdYEuAThtlZkmgW4jNN6gp9TKQ2lgxXKLxcChUKAabCpM+MoHEl7ccfbIIXt
OgOkhp/akKkgSATuAGbspzs1e0k7FWoOp094tw+BVfrHmh/+kvYggIDOS3llYAv8
d0I7rdAHj5VYW5rksYf8hUS7WvP8HH0o5Cok2FHOzxalJwroP2St2VLqIE4eyzfb
gioSYVLnsWXOzcut6IuAxkD/xLvQygIu82xeU/5RMgSEVp7xpkkY3/nbvNWh17Tq
fHJUamp2c430zRvzmGr5L8UeNkWpq5ifPOnuPFxTXkKjj9754P7iinq9NPq6ghbU
wv6WgHUX8yDJaA8gNBhmlZoEsdBBHYOJmNb9Vg9CuweKwHl79iFbq8GA54Vv7ih/
sd6X6PRLT25mO0oQiRvWVYFHB5K8VCFH/YYk7SR0M6/hvaxRGBEigjBAYUYNUNy4
yBI7Z4pHbYVWuRyqolCbFOgCpxHO+dhgZ98efnNC+s+/mh6MZ7rZwapnbKLef7Qu
ZrE3yO2vY6zF81dTfNNxpI44RA2OycttqP2pa0gH/hDtCeaRqQeDMKyNa2v/NWGU
UhDmt00ruHNiRN/gYvKvHyDsZyJkFMpzElrSWL4kKEVJSQlr7AKmzfaIpclrReFS
ioVugtJ2P+miebi2MGFCxlCZ6y4fTZfS48/llFYsIAB8Ok1aoeUBQ6RYdsHeX+a0
fgMjJhSyF4dfFkzVKKOZSlZr25GYGrRaIGwecfYZ+YEBCuF+Oj4Uh+TG6Jh1KaoW
LWthCPZPpnB1zclvHkL7XdKMjMRz/pcaJeOhpgEiHhv/zjJ4tNNVPcKwNf+xAj5Z
IM6KlaQzswV8r0q1wrOXRO4E6631H7ddYcOP6X4af4cUb/aUqPGIfAQfvvqiJc4y
7JZrms4XiGrFbS7m6HXTnMIL2F4WG5UpeeKx7/QL8BCw69X6X3/CUVqw4cxoSH39
rXTdiNzIqrj9qJft1+Kz1pOsPpniFVoP+1IOXgoqyyusHBSHGpFvKVhepZ1+4E2M
dBYSOvY3HoLe1Ry09vZfOq7ziSeJB8b8BMvV19UY88ALyiqq/HvrierDuGy37AS1
3aDxVwyEy3VuIPZ7NqDyQkhYGyWSmjTSYRm4RmCywTYKKDiQfYTIH0j292ZO9ERP
CSF6LO9KY/iUWTILK8Jcal8gCQMXv8gTrJBvTe91cA0JicRWjXSQcXw59NR+Hzjj
xFCtXpJPRa0z+EoudEUL6nTIuO64u8Q/w+Q2FmbEn5Inn7i8e4M3xojzHRxQ2y9I
5E+dZAh6t8tT8fKkZLugM2XoCLeCKowXwTWhe5LewO6+1WRqid7bNoKV7fI6k9IE
73TrIkUXJJJrRsGyMCjO7XCCUW2q8M6aV678IpaB0gJg1Oh29V+yVn/nnGFRClPa
BEH81Avo7FNJSNDEYpDJtSB5azsbRkXF75btM0l+K+rhaI2S7hypwuOcJ8uFIAUN
RROUzscJ1idLNKS8j4m5Yr/saL8mw5XJrQzmhAn49HCC8+rAOo3fdVEExwSccuin
T+vkHPr/xy5hue3XK74p2K3DlOO1aVuJXU6DzaalMqCmPZ6MgEPRNjG4hVEWhtE1
UB12EUIYAUPQj+7L64UZdrCzOPoMgbbT1Q820bnY6apl/e7dzFlec2IZDxYwsD9N
1QBMNEbB7neYNh4Q2G83/EPSYSMpiJEBKNAUgs8WqagNgdbT3MVEHQyo7Mx8FHsb
DeWoRi8ZOMx7Jk3au2l2Qa1l/DBl+wm4tRJCv//qJaRKq1mzL94z2YnwjET2cDx/
8r5PGdA5rehhPx4PT+hGFcC0Sivwjyf0EP6sIFhCvdBdd7otMiU+SKOiJKYirPvq
SjllL80yznn+aKQsnIS9HPF32cn+aJYr4SffQOkVmBxkZDnnO12c79wPnwFJlkVl
sIKJJRnEXXarazKnlSUH6OwM556OBey7LttRqVbpN2YHw2YzboZDkkwEMC8VIPhK
XUpP5LBhsPMk7NxesEIq5w8UjhpTRomM1M9UbkHGgSVqgNQQApZMjl5wcTu9pL1s
9SOWoHC14sWH10cpABjca4dq0wBHR7NkWQAe2ak39SQoNJ/A9hJTK6im4k3oVksK
fhlmmKExHm3rS3VvmQ7vqwppZq+N5rgNGnYFXEiws4/960Zw2ECsJm2ydHAiaTWb
+7u1HnHKG8Xo3L93YC9cjkiSy+hrlbhrffxUC9+03Ln28mKwkNmFXUnyTqeWIDVC
88Ze2/J6l+cmWXS5QueEx1QcCEGFW2LoLJyNou/E10q3Fk0jpq6NsSxyQoxXabcp
wahCQmQDEJrCeW5wm8nK5UjivsZIRoqKwwAxyQ85ovI8HEEmzwcybkl/6p0r5+FS
TqnPujop03I3XXew2dJtIOKYjOGIQJOeMHwL/TjY/zVP+0WB05xdSCyWqPQ1vCjy
RGUs5LwnRaFrBYw6NlaRg2/vh7+zqTJRY4UWSb7TuSgx9xAYuJDUphgJbsfH/75z
Gt/EwDL0kPcBBgZviBODhVR3fUz5fCKDY2cl7IYKNoDPrTkDr0pux2yTV9APx6hZ
xiGya2+SdAWsUJGDo2Hi0pVv8bkk8stLF8228deau7HnWdlywPhEiZWQNb9n5Dbb
7uQZIuy1OXBjuB1PfLXdsOnFqvINI8ZOKsJYIqZzogRB0XG6hd1N9IjA9YJ+KIGL
ccgBKoPsBXqFFrpO3Wjxnku4RJi8qVnYxpXIjet9m7dfodKcJ8j6Cm25Bl/gWKG/
BCGYmE/OYblJtbA+H1kHmP/tw6KT+SqE4yOFryJ0WQhybdwaMc37nnogQV93MFBr
peSwzIP8ZFEklKxtwSiNf6Bi+lfNdMPPe+XWObdBi0DO9WNv/ON4Y9wS/IsZzbh/
JOoWAqL8U43cwBqcUllWVtywm4sIhYAw4Apa5JK+KWap1h3aU5QBmYzZfyUKQg0e
iLmMemB9sTNG/dyNsBZQ2GhfrxKmJ7o7ePPWgjFbbvmGs2x+7RpD9IkfZ1y9zbvV
qKs27kAJSLO1kCc98IVVIi2dSqiLxwmlacRkzS4GHnuwNCfadrb6fRISKtwhan7O
Nsd02NAH7lSV8+I+vAvRLhNAR5CE36OkBrn9XHr4+HGSLVyccEwuBguFW7JTIgYf
HH56HYKcMBKcHU7ExXPg8EcygWQJMBaXz6m+pH+fZzUK5trZFlwZmj2OPvV6XJmN
y5qwWWKxI/M3VyZIFXS8DRur4fXW5yENzxhZ05izeUx9VjNAx/0DnYh1y8miG7zu
AyKe4Uv6i/Cp9JN7cNcpaG+7bYGpU99LwLDMxdWSSa5AQuTvyW7n4/7lNKXJpBIZ
dVT4tc/iMdqLMHhK7xywOcXNgLyq0nFaBoWx1Cjxoruye04LwrKW0uW2JUS4KLq9
CC2bDDANqI2yPj5bJ17bmKz8zY7bQaGzAXt8Pqd7hbI4tkq6y1+k0k0bBmXIIpo2
LCh32v9aVV+dyFuRL+z8fUmWL48ch6jjRZ7pvTxrEKtcLD4XOm3MYVImUrGSSCdz
00rRpzKzaJENO2CM+rAgutck/Yx2cYYTp2jA9KLQPQpfMF9BJWcsJl0S/eElf+s+
00tW+1NRjAt82l/PbiHP9IKKRlLzrtXR4sSyQcUAE3c1Cskln6Doe368k7HzLChR
k1akSh+hbrpcAOUtSiQR2NLW1xSXOObRhIh0z9Eus5CYIq/0I45/YkA4Y+jq4HMM
PjyL2z3viXeq9UuuMak9KCz3gX/R2FKMRG++IDIfOAl0b7rM70IZzDtVOo9ZZq1M
a2hb8T1JD8YB98y6Pm4vSl0Lmmx4OqE5I6ixUC5lx3aMDOnHMG+sk/7QIw0uA2Cj
sMkHhDDy5QBLyyigwTdoeRGkFnmS9glO0i9gtWVEyZp1iQD62Nogzpti3GWK8Q+N
zKaAo947Jbk7auQTfDiFGackC3o1YtlRpLLNJBRo9hbaHD+ys1jlOFg4JCV7RaC0
FtZowzxLGpgT4RKT8cTEuJCf3DOc69sMIM5gjTvVk+J+Pn4Ob/MQibZUrKxm/Eys
a5pczmlkqwE6qbHQcj/cDtmGXlw+S9nq3oWqtRSpXaSnOv1P4qZq95uiUwYfXKb0
zTHdwXWLe0/7ZL3s27QEDg3DCuEoZ985uUiK6kEGJM5So/xe87rvTwMWCE0KvH1Z
Iz3JcjH6pZiSlSTYeX9LVkO8HwUWEd3oktud84QRKlb7FPKjJT5czxgqwk0R0Hz6
eKIo5Us71SmOlCXbdQjWH6jkJJ2b/mjaV13hWucz88NUGHXESsG6KTjmEVyxzlS2
1UMqlhxj1H0oJ/9gwXOAv37uKVHyY5d0Et7nkGAZkQPfNj5n8F3H+9RAfOvbYWGf
RKTP9uwIzFRCgGtbLxfXjA2iFMefMRUhONYXnIypxyyKuIjKVJbFny9gohv1kM/8
IukYzycxhlHB1WXmdX4Upm6fThgUER36L/nVGutkkRXRu+T8lVTEq/lycc8z0ef1
GOjJxB1kkaSmlwvSSM7MPeuXk/nv12PBBah5/xwUGcPjCvoXryjb8terH3dcYkdZ
Esuc3eQcWOyQN4WVHOptFW+IndPotrVo28wyviGwDTe/b6M6UeozhFmZORm/a3Jk
+yrNn5tSGYuZyCNgnmbQLq3g0WJP8jZocbJg6rNU4dFCZtkdH3cKktRmXO42+P1x
RR2RASyLRh9jHSFjEXCr/v7/4Ca0Zkx9TOu98zD7c81HUIqPi9InKmRaLwOCyC4M
XKd1MPsey7WpgI3UpEmkEIno5POB4sHsoNguZ9N00vx5wYW6UYu+Z6fz1JytEiKJ
a2n1MXWbaYkLyVytnhrK/IH0VpLOQAR99sIxEBaZYYx19TQcd94IdUc6Q9S1EJ0O
r3qgOnJa23ZXfb+8Xk5ri22ahp6UpSzIbOWU/KPejDGu+ekwecocvzPWdWUGXc70
Ws39TrzSmFjd0J4iulv1gw1YBSqGD+MNvPrKfCWLn4GIgbGioIxJE0/YEXkEc6+O
gq8FOtN3RZCdFgxKvo9JaOpFbhVxD7oojxmFPKwvP+jcGJQUqgImzT2gOZu9sbnb
TCR5wOLIFYrgBv3YE4wuF7z6L0hXngMa98OcE35ridqF1jZj18n8/gwuEKTstLUY
UHwOEWTbtsVCg925Oy8zos7cw4iOLjuA0fkH5oRzschoYLGvZZ8EoL3PLNNhuDJZ
UN8PHOQtDD/MNolbymoV7ymu4t0/Dg2jeuXuYyiZRZoV3nijl65lJNRGHI3eZMo9
WueYw8sutAYgiZ1exo50JaW0Tq0u4WQz3+c6NVkJ0oHVpZ+TUHoSGkozPzBVXW1q
vzWlmyBSRJamGedpG9YtkYQ+QGfe4RP56Mn2sN3IOHKloBRRZQyb4E3eOc+GgBBX
27K5re1tkVToVNL5pEen+/BFl8OYMmYhU99btsnjRoppQPJlk99irATVYJujm633
dqKU2vCTu/JAbetpMAbYepMXxZgd0z/EP9pWp4WcKWGAF4R1XABtZE6CjHDoqcq+
3HZUzgV1YI227URxaCuZpMFU8Nx6JXep8Z1NFgzbW75kkugqusoSVVGhd0DXO50O
oud3PTe8Yh3HB34KNqco9bRlGYvFG/8YNGE7O3l3C0KkIACPOIS4kD3nTLomAilu
wLpgdekfDnvPWXBMY483ginEMBCsx45/8FHc23UkhC4kXsATHsNGZfklfn6Cm4/t
2ZggnvLvNSuAXoe1z+a5JJkafEKFbo1FsjKGn8LXL2hjxFQTJWY2Hxf8sA7FCM2t
eSdWOK50Uv6Lz088zvufy3GJ6uzRacxAiRkXitLUGmX5fG2VCBPtqnvvzQA+zIW+
zfRkGqSJmZLkFwY5LMXfTfoQIXV7L9DU8uDB6ITqnsar6986KGqtr29Cy4HLWvOU
FIB+ZvYU7LclTBzooMhyqH7TJrCjFjQg0KQqSW3wgPddUkXyrYV1GH1NFWNi0hKf
LMc0bkeDMF5dta7iLIPg2ZoXNoPrn6lt9hi32lX59/7gtAsvH6Kne9pvc1psUbiq
Gxr5I4NynG0oUwJvy+SkDdyDiTMQvyr0ntnUzVvlc9sE6Zapa292LSKG8LB99y5X
+CZMkHkkDWH3NL8KwTSGlcOpr/xfQsXoUorPezSQjGzn5+QshGC23V0mEmRKM/5w
7xGM1DkscSh7Qo8Cuja3qZXIGxysAkE/893v8L0pl74TpWkOTX39VDZH2R+4Y+g1
0efARr78Km1DSi1kIP0QOGWqoIKp1hwPPZkK65vgqCJwwyn9+gfYJ3a82ZbhNB9C
hzEkP/rj7gYQ4RSKUlalK5SGLi9i5jGwfKzXNkB6vuXMZPs6KfrT8GiDTMn05JyV
QfKQ/0+wqZRGZPzW5Lgo3AvbntlHBnR352C/nV9zvyeRlfLE3yZhYzOVo4ocrxo0
niyBJzjXDYdSYgJh8NFKe6tJ4212btxzFbAKxfPTUdT8Bje+LvVhlI5O2u/Zdzm7
j3ephfxhIZrmffeTg+KqkDXOAcDQq27UScCYf1H9wqRlTvnJDAl7HIGfdMx/9IFa
lm33ypsYqkEX2IgvLJ0kejnDxoEuJNx5KFRLvPbckiUYCKVreEsDrzBTvpwvl8gQ
7Zs8r2FuD1qkTQz4sAaYBV85DwpiRacziRPX5CUxhoyYsC5Ys9a1I0LytMtTN4HN
ZtgGPeY//XvalKBnVy6v9lRHsjzGnALrK5NVGLRle9MJynE2eggAYMuQYEOHIkNJ
HZNEOMh7voTUUrNfQ6/tO4WCaRaB1noNMIrT/kTgdVTV4YN6Xut0KV5bOedJ6ps6
yxJ9uEIcQA0RIb14QPgoXnnioxlh+lRtJ79BH8jGqPkukAZMln1mO4hBPafyOPxP
NkzsY5zhOUA9iVA2CAmsAxVHhjxItl87F2ujItvrjA0bBGI15vGLaTx6vJmG4BPn
YXioM8CqBNKvcDPMtWg9OGyoMFNC/0H9IunooOvHgJcSLQ4oIgJEiw/cuGcrbI0S
wLGxYr/J4rKs8IM9dk11RP80c54CUSGh999BJrlDTU2mj5y50rj90vI3GO7uESG+
8UDEtkcCCQJsEMd8uav4pY7QEj33jmfU98ULk26rE2E2vBj/IBznGVkI9ffL0aZp
KE+kUHFn3PD5Nd0DHsdJkp+Fbsfdv1tIxyYEZ0tB3ABHFAlCSjaeG0Bbw3BQznj4
0azprZRmHFo8veDmLnWbNfHyvP8F21/xoi3Y1vqm/A8+H61oznbdBSGyKuhzPZFH
2pLs9DYsCG34ePSCIZANAyo2Aa7wsM/BxqosjV15O2XmfpeB7R4YCpa6SUWg7dEj
EdTmubBcb3SIOlg6X2+KNqQNp6CNU+Xajr7EdogAqHgjl53O3UEfH6mjIhI4jfro
Ih5RBq/xBPRMLmbSJYoT2ScA4h/B1qyf5gh4uS/1Mpbkib5CDuJcSnnHnWAJ+VGO
mbuhgrMbbOsMNl3b6DQQh5apu27y9pZnKdSHOM/YzhnWO6ryNh7J24EAGGhtne0b
a/oKEpXKf7dfZpHGlCvEw6Ev54hx7rx/rpyHDNYyzWLOim5Psne4iGw29t3rX2aZ
I10G5/iayrgHr2CqYMq0eQVtNKp2/r0SYFvSk+1e/CWVlBVbad+zYyw+JSmefnh5
LyZ6FwtTBt4F4mUo/vTtF+L+GMoozdYRauDWhWkeurPqEwNH0vxhmtw6s0tZaCLU
PWUz6+hmMvrwO6/blOe/9AJtZsRJbFbSx5toGUoFHsFkW6g1Qep7TLwR8iFTBNut
p1PG3fnTzGiKpqousB14RYKtG8X9SQl5+XWn7G3yCu8vEnuiBrrjzks5lbD8ATIT
IBC4P+LCFPBccoIh7TV9RxV01rs2w/QV9m7fM9T8oAM+dkdjGgpz+HWPDqT10WUA
roHSdo/FhiKcuFCxS8UcalI3Qo+jEsbilpAQ5OVZBpjXctAC2+gC8d5AMMbJE1uQ
CtI/iDf6DdBHzdAzwxldm8ONCkK/USSLCKPt3RGNy4vC5RXeQjNb38yE1jNIiRYi
JkY37u8cGDynFeIsgKuq0mKNtLI0lOdby64lwGc7XExE/hntM69rxnINQvlcAHsG
fhHnWoalOiaNLy/YKXT4i3DRYdzliffIYoLJAhpU22tTLlhLNRBErNg96q61jOvM
FR98WJlrRKFJEZ4+MV53phhzPlpWb9VsEF2Cac0biJGgs8xnzGShd9FmcPXwPbz5
dVPF/ZtR15WXfyyNjtKuOcSk5TdBQxyTelYXEyJLVp8BrEn5l9f0eJKiSSBHusJz
AmQl5+s7dp/3hM8LtXXqCSDC38TflXmRDVjRAFb0sUE4ok6/O2zQRJmzqISC5YfG
MzQa5Ed/3Rvt2ra9534IuqDpEXyDaZmf9ftYaHQXWnk59Ci430TJgSI/S7iEu2Ws
av4TGZFiPHO8YcgN29o2j1i8JuawCRmUpgq9oCoBSLqAqZKZhQ1bary1lJqGYSLG
HdxifP0J05k3vUgLoB4RoVoqwFJsKaRl+HA3Qg4DjkOlfjgh0RAobO2iAn4EH1Ia
Tq3hbDK1IOkVW7GHtwSkMdml0234m5lR+mZmEsk9okd/k8REwk83LGxjPyN8tIj2
F28+eo8uE83EoYcO58Hf3i3EVZdz94LIMxWlYmaz1e2xVpepkfgcql6og59Ezt36
fH+25RtSELfTm8JvGwQqe5Tj161heWDZMW6FyqSyVicM8SC3zy9uWf2jt4CQvT+/
pQLhEAfeHjrup4tNz6MaKvIb8kYbxNTFWjoOC1o/0j8MSwf8THmT8nlZe7yVcwoa
4kP67dZvTohjKqSQsDhLZocJsPUdyV8XUZJdubMVC93jXSqRLdPixuntsjD8NGf8
oS2YoWIIcHWnr3AW1HYFhURJPrbaDMhdFROA45q+DBuX7uKG9sC06d8W+2iaGhLC
ljfhY5bXUvDdzMeBNqgzUI5CI3JhmTzyRv8HB8NgYCGN1aOb+vVcp7/KfL5VSxu6
rpRm1x6i12JoIybcmCyemznqEeNLo1Qnh9lJKCtqlSX3cyrsRi0x71R3boPy71iN
cWIG0qHBvLR/nsFVLwm7xujNrN/QDwlrYyrjxsbpWOwAQMY34RUNTYtrEJ0uaJgr
FmmkThucVd1QddP2Lmgp8+VOXwQ7vpn0xeSDquaL1HT9wZg5ghIgteAyUFB5l0SE
h5uvK04NV/snqjunnPjvLUBYIooCiM/VDWn1xahDdG+DYyOvVpeJoVHjXgBqkcpX
kn0wzrEOvb/LTxZCYsP8Vx1eCnAz0XwInrni9orJZYFvMzswkoqi/sqX/2tooEam
6cHFih2MLnwPoKHY750Vk3ADBNE31AViBstYJX2weXJwBSQHImSMZUUsenwul8WB
0fk8X7pMYBAdHFvQiM0LpPQ7HAJzeJOaKjy+USTQwgsEgI6E6pFq8VRYemG8MJ3T
SPjqjxsbZ6/6G9ilK9+pmxmrwSAEQRwLdCF2bf9fGSqt/TZDGy5CjQblbXA+nJn6
EVDOc1mz76G43wOf/626LgRfM0+aDKazvN2blbdlc8lJ/2CFMRS6scp7ohGWMDsf
+0mzMukLaMDUD+6Q+IPtjVaCxm8ISQ712BpE9hs56FvZAwnt1JkpSz8SO5kwHJ35
DY7t5uBoQVsrAO5hK155myetn2den9Dd/mRIFXpIAQjGmsNO3BLHcOmZZKjLNAd5
zzZPfWHSFMRol4GVcMsvx9mvAxJXsKGwegWcnyDSbmQADaJ1fhb5jyvq8ACl2Rvk
UiE1G/Qlr3F/egs0UXHazZfH2Y/ypK7OX2HcSaKNSHMS/1z3Y4ZI3tl3GBjOd88X
DanDtnQZ2gu+E/7t+BxPFuBNNRzJkrcCsbHXwRKl0FxHshaxFboDrCOkdJmNlHpd
RHQJGXcDY64X3eFRFz1XbvfE5FM22b9Wjc/jeymNNp/hzCFiF0nGv870InU0BDZf
0znCEdGt0NNxS6gE5m42uXtgxBw/WoJuIABegD5CVhxI3xy80s8Fj75eSOTc6QOu
+UmwDqShfFrfQf28LU8G6kRbY3RtlthxxSvD1Y3+6eHS5eV2QEsowuQWwmIGTNXw
CDmjs3GqGBZGZxYPr9YH6B7+gI0ePh2gm70ENKX3CLo8f6TQm2VqFPZumm+U3nMB
58YYWRuWo10vvCNBOVXOLZXjwrhNunBJH1C/c5vcSwYiS/qksGvb8Erokq1oM+ZS
to8xrW+Zz26WakAgHALeADmZjC1MmrAG7zEinjyj9BgqPZj17HSWxBip4h0kSLax
mRy6BThRKjOL8beMUXCWktSvav7HDS10xo0dCUXNn4hPqXCTvFjQs6i3M/mHGen4
8SwoV0VYYzsbaDR5HVN71du1/KLefGsVklwN61/d6YBVqn2eZ0xzgXmnjwBRrWQt
NNeNC/GpcU4U73HDfMFUO13IQL1jqNw/3yCsXNjYzBU50ywLwZr5GJ3DG1X0nQC1
bkN0ikL3gVFyXpwS3xnTuEde2pCWuLGBVA46Gma/oigQe420Pp1E5oqywOvDbffj
pd189wDYadedC9x4D4zl3LUIpglzALym8C9A3wsXv+K6P/0BuTrI3Xqq8bTg+P7Z
KH8z+DmwEmad3GAXry5/0WLvent95OQ6Js7k4eIouqKDQZ4teWDlSJOABVuvTu4F
9xzyxURW/VjY9oETJys5ej1vJcVWwfLu7LNOCVfT9QXo1ycRDBisaecedHnxxjFq
fcj0ywP9c/S3Qydd4WWtkznJ2jGUdAO5yNf9UQJp9Oa+OKHdTrGf/NqAya9TXchF
55lPNh5n3RDdpyw4jcrhrq9X+9Z4filNsX4Mz787nVHje3rlcWvH/b5X8i2qe/cZ
MZCX84RpSo52gxrUfCVdqKkgiiWZ/PaNPSPS5rS7ujh8XJn34YeQRbPu70BWbb/e
3/BjVL3EJHC/vJ5yWDcDgXBdqToa6hDNdFPGlr3sjUpuPalclGTu+YCoYltBSL6Q
h0gj4Fpd4RZBawbfEmOJzcbFGjQ9C02FxY7ar8aTtJ/J8UF4Z3HzMHVoZtE1Wb8d
b9FDWHQzAgqQQl06I83Pgaqxjla6Tgz7uy+aosNGEqlN57f28zUOge7HGDbPHOZk
kyFFppN+z+B3iWFVbTbWTh3rOx+Y9hfWuoBW+IoN/gT++3XCYjpWzZNOd/91w5nD
eXNGOjmW2nQILHeXTLF0NQC+SFb9HcHxdXWO3RsYpjjvZUz4ikFRypMfPGVnWxdy
IbOH6gHKffie9MhW8ev3g1Fck89av8zV0PX4NGTRrj4H404czRQVYpUP5flKzkAq
rZKslxJWSpHM4+mZkmj0agGYtPLoqVldNXC6uvPD+pj7/lwB1VpLzoARlmNwBjVd
nZ9fm2f8X+yGv4YBmeweMEDRjQlmAxE3e/PXsIWMNLX5OTVLBBqLdw2gheCps2+W
9Pfx9RDpOZNprrx29tWPb77xNTdf51mE0em4fmGiD9a3T2XwVLgEGWaF7mQ9+wRt
1ZYMAcBSnDBx2D1j0auz0RlrX/JaQYwdQPmp36ewv/x9byOKQ5ELNzbl0ngkw+HB
amHQ/Y15C5k8quLrTywGjzlnq8rcuUYXkQUZaf2XOIFMldiqCCCrnBRkoLpC+xz5
zoQyIPGxobohhq+WKwR6+xLssAjrlSd7o37bI2Qrus29k+aY3Jr0KmxYEBGcBc3W
0aT1UxmXvaM19sLxNYz2VcrUrQY8Z/iL2bM7Hk8txWVK4twvXBirKpNMR3kWsct7
q/wjhD5i+5Z+cNy9IjINm4aHgsGs8/gkS14MfS52KexOFjozkaYGTR9JpKLcnKxm
lN84ty63OoyiZhjo/VFU9KV0W42jAQwK4Kr6zo6xQKsrTU70MAkWrPIoK33SGEAl
KbR5UGkHVhjGHhTu6VvxAfNKf3diGtLb/h8o1dKd2GuNtjQ92TUBVRuYtfeyGaVA
WW7t+nbES0QRiiWCRIoSrAaM7l5Yu6YSBsdsSqguem0I8t0yRbhlS0vGx0sfFIT8
MiF9saz32Mgb8Skl/shKkpKwoLT6C4/N3Uj1xFhaWALYeH8OBYmi3D+S75tMhbzT
3wE++NkTS0ou1154GPF5NTtBunCndgg3PgOvBORRXuOgpjy4Skyg08zRsbwHBizd
JprOyW8G2g1j0qgrgnZ0oZWMKsuEPryvvJD3eDvhXGnQIf2pWc8kFauYPgb2sVRw
lK7S4q7V0K4rdbRSLPtPtjUWplZHOzqroEQqqk4lG1HVrC5JseKQw/q4C8V9yuaW
MkgcRjVnISY7uzRyR413Ia0tUSsjJT4oWKp9M2N7rbBXnsTRsCGeo2xWn1r2VKlq
PVZ5Z9VHBpIeOF5ILLl50PazWw35B3iicLsr9ZONqa6yTlSP8rCAYLFPD8/wS65u
V/ehi2rY/NMx9x1l3yWmspMxbV9jnm938OAJLMex9coW2/Yk3Dq3l6/nD6uxJhUg
WvQPfIGU+zHB6rLKPIESrTKnksxqStX3DfycBCtAAy2EEDnOMy4qq89B5lzzq3Cd
D0lqFz1NjrnzwgaMkMwxzpTqleKHEM6n6m3BSc7W41hWujmtHWCOWKnmAPHqgWzQ
G+/RrWEdqSHJC4XT/ViPSh4vpIoznwgnk1voDUkBexparODb0I90BqlEyYpxj76B
X3NAZhdrzXOgPpjjKTTSWa5S1foLbE6noq2ii5HIDZJcYU9JQRGE8uWiSVMHIbDu
c2y7h8YCNEFVWJaOvN7PwMNQylX1a/ce9d5+9c+YNWo3XJ+RwrVwDCrB34PkwobQ
MVNWQtjSUVAbwewrZn6HWstj1jgRUiUMH8x3byRA2jvcK+UTcHK1VGudkTV/AQyx
ka6473LuGN3d3We0HIwkW+ysCjs2DxM5zN2c7CTh7bXCZMfpez6pjUWeDVEVXD8q
f8mkBAYNTph62HEZFlkJuR5qhwUtSUl0Btjrn6mQj8NGdtmMueBnAsyBmJmDXxbg
cnwMCrnUopwRNC8ZrOSXmabUlxIOI84Eej/mpTVXgrjXHcezHfmoeRysctIK6czd
9vfKIwBiBPQnRNEdda8cvh7+B+2iwbFOzcTobCh239FxPKaetFWZxOiidOLDhfHz
H96EbKvGbT153oyoFhDH99ZqK7I63xSY0oFJcvFc0Gi8dLYkNCENWla/CTo6SaJm
GT/5vOsxsYU7WJWMUAjk94ONfc7NBKi+fSdIJrb+AUUDcjx1TctBWBkIH6AQntvR
XE5VSImFFu1+/G7s6K2Tn2E5kb2BA7QIvBoLJB6JR3ktmQv8IeJaAtN9XOCzkdgY
ea8hWKqZn9JGXhEA7hyEB5wK7NmAEZZGJ6cfJAmdKpsqH3b1CNBH4ojjcNTL67bY
Ks8886CJZXqUP3+3GigQdBkInblqd7D+Zl8tYTSgluxl1IyOmp7enRtlCoH0AmF3
ix13qXCr5RNdLiuga3cRJGMrx41iLcxMgIG/e3XS2RjIIebjbcVt15vxieWrpu91
agRvLSmiXQzsqEECsUQvCtQu4552ZxifRDvtKrRCZEgSLcLPxEVg88n02naVE7n8
V7KccDpDJMbiAxZG+6SYQGzDza3z8VijFxFflSr1/ZI6xJ9RV2Yj6eeSS1QboI18
gCyLoP9Qi0DCNl/Y9J763w1OsrCXP4unbY4ziWl9Jbxd2i53f6UIfxQ//y0J3zoa
TzfnPBLSvKTWfFvMme8kTWK+D/RGcnAFp0JKtpFq31qAjeUOg+gE6+vn9HpXkgLW
3lBekpXfryGrjEbpZAa6XcHImq+QM/B9RIhh1DrAFAxEO9q2IuYpwYnP/lln1bL5
q8nYEGgLwrR+jac41VkFp9fSaIvdmHUOQmdQPbQFaNugI6l098XEQ+HkSxWp6/Hd
D5BFF8mvWiXUsqtaf75+DpSgvFpUebC2N8rREowbk6udaHJ7/Q0q4f71sc8oBnMs
1nZEFEkYNOha7cE+3K8vtGd8nulWxGMwAae6TiEqpuHTu5pV7D12KWE6NtmVr1Ag
yNnKc+aNCbXL4POsvOZsWR8KAOhZWVptSc4VTW1wZqfTMkLX1iVbg18qBebI1Rcn
vsqmiaMOIEo9sBVK7cf5XAIhaiPNWSYSoEkUJyQ0ubR1VAKCuUMJmbqmlsOdGIhd
kspFqpuO6xZeuW7bU5tuRHGBNgTWQMnvv3/al43Ag4UYCOmvQDFQ7DVytCEryLaS
2QtXW9BYzGCtpcn4+HctuxNiL9ZYcN+srW1CCv5oEgWQ246/g+M+zUDeddp8Ngjf
NHPG5YMKXz3C+DL7iJ2Q+17WDVId7Ov8U9MBMki4zo27RSqnjMWSeLTFcSN6XWMb
3jU0z3CZb/m7eDOFEYmHGRYT+gUkl6Eb6UPlWXB4hWqg1WwOVhUpcWH/zL/isT96
6jZ2FuTYOUZZ59VYVNb5Lm4QhGlZlWRuvI8i45BHylzzTgPBJb8RP8KMB0q5FXms
arrpy2rlmIOjFl2XZVBZmELrJbKuXY5f8jMdajh1VQSqPZqBXNibAWjFPmK1OFz1
ANFSGMEjFxQnsk8uta0W6rjYmT8nrJZfblt1FdJOCq5NhVtWpzNAeCyPzAe1/xBz
J2gz4FaXnAwoZKLi7eLuEDfOi1Pn/IUmVzMx26sryEf3MpbU31CeTTMRfUwZOEl0
m9LCMGugjEEFnpzFPScFghDK27U+meIjRXQTQVUXbfaa4S/jrVwk89TYPnJjymmT
ABwOh97gHw9hStePYqYs8TrmkugVns7nIU4/FIvzh0pOHqBf2GCA16tP6yE6xF1y
dvujK+q7R5NGQYo31E8b3jbS1jA7SYNdfTEzpapiOf9RUq/VXSzyamoTXh4pl3K1
hEGn0myZDC/iLPtuv/OYS1Af88inIdZcE9G9g/k0geyH7dZ2+1PbTUOAre+ozPe+
/xxz9hB6FYQwfh1V+GFGfAHTfGqTkCfYG4GeeM+vNkL4fa543zTzKWirWSjW9cla
nP5FuAj6sLJBh4Qo2iL+ZflxwwvUq70QAGfYClbPgp85imIAcgvmWNEY6fb9nucv
WDEwbV4WXsYtllyKi65P3AGjIxgRyf86TyNb++PuFdpRWbMF0ZWkCilB9WQhWAZs
FwRAEEh3VsEIvpBrkLWklp/i7WSKyPsm/WfbE1BGbqVY09P1U4YdqdxbZdRDyDVr
Ae6hxo7h9pUi1iwp+D/CyRx5Pxostsai4WlpsEsEregzJSHqU8TxYIxwzfYUB5v9
0a63HRDmYLoUBc/8QzKh7y9US5mvvU9GXtmO4z6ZOOCWqIdRCLQsV5z5LqRHm+5D
ovIVugxyLBPMGLKG7axsJgcAiXdGL9wZgwmJE8IgpoXWsBVuZ335nxXE1HnB+4q8
OTcxgJj7uePXsDXc8UDD6o/Uj72Wy/5642gPHpK8Y+l+c3LnKKPZlJixB2XCsls4
YjwDHs0IvjyuL3rD7cDhcDEd70RRPH1oDNhGxmB3zquXlSTuJL6i39wx1WGYFcjI
lb+B66DX8JKpB8TerVyaXg6R60gwlF3W7VNhk3qxx2w1AbqzT/wAb5cpdiEuY/Yi
mXMsETbpn9pajNwevK6TNEuuXC4vroU0KtI96vyT7mFAE4yLS3WL3AGSMfu+szfx
/nPDG52artfJN3PmfZRbraom6H8RbrJiyw9lzumWYoVPNIGAJTErgZt8EeiieQId
t25WgYZAfwNovlBRfQYEk34AG6PY0YQMd7E/0jiTN7p66EfbuyleofE/GNKt3cwT
yULr4hfx1lwQv92sFwS3Ww7ki96nwN6pQ9fCc9r9s4nly6tJ8BVuOeSfB9k2iTqd
Ta9i3GNu8w471dZLOM9yq9hGE84WpK5CXGXO9gXTJK+UF4MNa/U3nMZIV4JNyAv2
NCu/lPvjPRVUogXLXtODhk7H3qfvRmScMDfc2MWWbKKZI2qfUxawuSHxJr60TXXV
sKXsJPYt3syN/SqXSYIcdgLAPElhFQ1KYrK92mJKg8Y7FMJblDWLR54SemYXdrF6
1Ecj17Q1aohXIUwxo3pkzSu2ZygWjp4bBFJh/Hh2ACHXtQQ2A4C7Wh23xWCXurDj
fgsJIstTpj+O+LuJyQZWw/7t68FnWqXPyS4IpdMmHH5ymTUgL3s9iVJ1nfOg5Dd/
ykYBtZE28zzXp9qV/HxWs4TnpvuQAhh9al/HVTINK+tNc3QY62XQHJoqCo6fhs5j
eIKPp0on2y+NDuawrpC03UMUr2IDjo538uTGLxw8nVuyKmXpWpcryuxN3sfxt3sh
QSBp38gg4br+3nK1IP+QQrULtLcv5oAxMlgvloAjOqrUAQG/1jm2JBniw1T0n1O/
vP0S995hD4Egrlj20d8XOhIdDCEVl+RPnBd2bAK4re2OHZkvLRJGHwUNwZTprugS
9HUOgioLezfxGABZzZxoGtTV+Xqnq62H3SGiC7FsY6SL2f6tXElUlUubldmA+BJW
3LthRzIUhvA8pAkPswtXnFd3Jxe35EEC72/I1bIhcfCs+y96hfMRzTTEvm97SgZL
SxBZez/JubJZM6srNwbqqFsk+QM7naK++tm5lEQA0It+2MdBXK6psgYsUrRVrHyr
5Xzek56LLupDssADlzqOzMz70XU6b8sPO6WWxodjS6/61LDdGFth9DnYnIYj3NQX
/ETet43vE64tF5yj0hwQ2IvwEX4u05KS9zKalCezIqZFmQLQOgQlSe1fr2q0t1uo
H28/+YSIdWtVvNsepmYPeQbNV3McgX1K1M51OKt8iUK/vHBMvteFwu4akhRwIjTj
FbcentC2wrttcX1Ut33XRgxtjArzFJtyOHNRWlOAGyPIjEnffCM75sgS50zR3Duy
4Md94qhzkLesjeV8eU1qdAI9CW+6Repzv7yzuTWK3a5+6STtJjGgB+otJJO3lcBU
+7LYDPFGSPDqy5k2wyEaoeTcNwl7pNafoI2vavJQH43jwo004OfTdxpX7pnjl9Lc
9Rj095MSh0Frf0nkcUz6NGxaRwYtQeIzeot4GE0+FGqHTNKfAG/G5bKLzhtzaV3C
4sEXi1dZZgj1VzzUWtY+yDCVLyeSJO5+rzc1Su/tKqjr1dr3ko0iGx5+mwlO9asc
vimTHb/kgAMZueS18qVQ7HxZBHngKOK/3q2FrKfZOrRP+oRhFrVR8T4a2UnSwEBk
naAvcXIc+GCSOTxHVqwUFxdHvmF3lEomfbgeJxI2dVWniUxaDVClk986md3SdyPT
Pgqyd0ChQ2fzTtLLcAIhZmhg29m+dCxwaPsm1wvWM3h4rK1o+9H0kbFtAwPcFjfx
YYsa9Sywh81+TgzksKwTAwQmIVP6XOLaQVwPAUBil4CBeVAZFAPcNbWk14TtpMAf
IJAhaItTi3FPlY0/cb2qdKKdAjs8EacSFG9GYQ5pUUqZsJcRiuIWndyn2PX4VY7d
f0wrw3CcTxJLFX2WgejcEGYPhf5tdoLJCTzCvz96nKjDC+5WuLynKv/4kXB1rbkt
13sc1G9skD3776mQjK8E/8Uj4hRRqEKKzTsZpaGYselY7bJoH7qAxxUi5rdB3tBI
CjWPefLZ/CAygDqeuXl6LmdZI6frfgFr6FG14VAJS4OxdvlNxBCu+n20xKGQIkAT
j9RofUSN9VK+4N5D7/CPTCggZKiG1mb1APmXTTbpv9Tr5AMwQ/PiRLwgo5xHoVSj
0xFEY4n5pKmDVfOVwvzbLHkWzdR5HE13eRRpTQbGaKJ75U3HXqmUTGgQViKvu44W
TUB0AlOYHB9O8VDXRSg4lYHsqdrKrMG2wQnShtX2PNLNbt36pQzHkqjx9h6xf7+6
pUEWlWNIkXni9diJBXnWfy4FwLnU0atSt1KdJNcbDoEqALttdYHtqLzaBIO2Z4yi
+zdIVzUZdDh3L0JinJiySWvhVeG1YjgjeVE3zONbzYczeHFDMwatJq6uhICy6HFk
nG9iH2lFwFpOtBX6IUoe3VwuJDVz0DyIOwnxu01ixSAIgmUegfgQty3eUeSbpv32
ABYnZvD7RG1Lu49GC4W7iEYdU/41kKF37aoeOKoxU0IVUJqqJqGG+qUQ7GQTIzYO
8BrYviD6/TFTwpuzZwmKSF7xZT9o6OF8XHg5RfmnLwCwfbVemZKDb6FedCZfVyPb
mSw+tlvSVCRfjSkuo1QRIEqMagVrrWv+Xo3pqxZ0y+RbavF3eOTeynDbLC4ii29o
MBFqgN9vNTxVhIEVuA+4x+4rnVMcZGZlsX7vJ7yBefMHoH9mHS3/3NLdc+RbXGAI
iT//1shw/TfL1JT1UkQkOs3UnVoGfuWUfFQjWXIZelwwuikggB/afzkbz4ts+MBw
RhsvUc29jOGH6sCauG07g9x57v0E0bHLUyltaDoPyOVhQqNbjoYvMdY2NSNnu63R
+AbByd+9buEZPGHJyx36g9Urb8ED5LI7G21XOeuVL+p3/0Y6UDIj3T0zhRBEllWQ
Bw/EX9nt81cvKYHMIY2Cp54LIYRTr0b6ryzJiMerr4Hf8yPRDUtyTJ8IK5liERLc
5jkMOz5H0Zn95FS+of831Tfva2972e9TAzCBGpUTbd4yBYwa4t0j9Ovp8md1txje
oSCc0L9JsuUPt6P9F7kF/GQugXPi2EM+yttL91E0sTxkpdbpk/U/BF9K2XaMRW5f
R+IFYPOFknB+s8OS2R9AUcQ+fFvnYcBNwC2TIsP9zpxwHeA0SH7wq/n3sRdo60DX
V0l1S++RIvzcvXFUVDzNmXCfdx8gQRcqfunkTx/HsKvB/U5ld8vbHlh+4noqmYB6
Ts3CvkCCeNggLJzhgekpUm5wXi1q4eOktgWro5lkIamQXE9MZ/TYetsyrB8JO4Js
DgoV5IO10D3ZMexr/gU9byB4k0KWG4TZvSjGSv2YUcvKLphDRUyQhuf2zfqlAxOI
fYXprPVFrUdhzt2eXDZZIh7kHVoYBIJKTDNC3OyldYzxCaWrfWQTRIuQXv7PCZQn
ghlrPTc+h3bgjwB1pqWEJ9zv/d2hozYX6HBYRKtW5saEE3IInYnB4Hv8EF17tM3g
i+gPHAJLoA3F5rWQLX0g0a3w5jO3vKnbk0kAWhpFivme2ZGZHpuJ4jo/2BZoARla
UIpZxernTcjxfCZKJQ2s0KJgHqKb1Zc2qR3Nptj8Rs1FmwZVe3HqIVbT/aFaGGSJ
omq1Ul3Ew1P70w3a2mYknOdLhi6yT+XlfKJquelPiXgTo6gQ6DuMj3748d0AZLao
CCfLgeV5uyEMPfMEK19plkOUMg92U+Ijjul4YCDg8Uj2V+L4Z3UYn7xu3JYfHLdK
UGQlos+OV5uiZSOnUwVsq/cdJDZ/pLfksfaAu7uPwlntMkMzGSPL9gFtJbqtvDjN
KG9X9KQ4yjcltxYMAs+Jezl8V9X3YxbOQpgP1/f7NMvu6olZwdIbNPQaBmG/rjZU
KWUc0LQGikszIqAulJ3dFpjaLM/6Qutk48sfCkbUcusjAiGJ194gQcxMLpfN9NJ7
eUDP6dq8j85mq/rmh0t/v3oQTgY+AscZbCx5+fwVECRBKtiP6e0yTqttad8EkyIB
TK8O0oro/sPKOk1VL+fCyZ8luAbhkcfDO69/7kfQFhTSSePhEr/GTsxgINnuBYEK
N7BE8n50s/ZRuYIgHwAE8oU5qPBU8zcv1vn/6OKvCAnoahC/o/NkNqRwcWOK0Ejh
Mxqm0nh4Kb/LXIRdEfEEGm+uUfNWG/IEzLciqAdck0qItP25I6SN/QJy8+ivunTP
JsYZCrojOKaOoI9xjODuU4eWZ5h+rqHiPIscRSpwosC+2wApwEEn4VLxeT4PZPWR
dXeJCq406dR9BqCIqr1v/LFo3aEm2tVO4DvsA6cwj7fkZlgU/odd8bHnk3ux1yQS
ou7mBAGDKz7cp2jq5pJnTnMzAUpNqh1OEL4Ko9nR6agdvtGVKGxCYLP0Q8MF/Iau
o0+3xLUUvukPw/3rACICYSxA55kkK/ti091pc79cy28gxXNBkuYXz5KuY+SkVMRt
xi9xiUNXkRDiCwUnvcPJwUexDauLV5lYbY8mkIRjZyv0Yvm3j8PMaHbvJLJa7POv
FiaobdxgzcmsrAdTNnKE7tgpr3xmIL86Tw8E0UNNgUBfV/zQfQMrXri8SrenVzMB
H9bUh9yBChErzYELCtAVG3MTiZQe4pUmyUtpYFupS5+ZOYgKt6176m+jaNFRL/NC
sIf+fdj3/95TtMw0XfwsjpohcmCfjAZDCE0+CNLxWFlVjw8kdpTrjSCPevJCkFKC
1RskFODnR1a2864b+7gktlTsi0eb8E4PIO91i+tHUMHkdXPmsCIWKqzQiQM9ZYe9
OHcOR0bNiwXoi7hK6UCvcrarqy6yMtYd8AZKzL2UZ9Lb6ReHEa+VssZf310sf7TD
KuKLCP1KIbHBZuIicm4l8t+sFn4jdwo0w1L4ohYCL5PFd5BGwVoqj+zJhVL2AWd/
f6yCw9JSNR6IKwg8prw6BOlpimEsG4XH3EvIRE7OOmK2EDHbITIT7zw3Ma80G+H4
YWjeCNowyz+ni0cBnho1tp86xiKETZ7j8Bw6NidFnzi/heTgf9ruaJ09i1PGVBvR
csVMSeE+KgAElyRF+TqRmXIy/drCh0KFjKuWiZHqK2fuyZuYKKGkLZzCJl1cEN9E
OydK2bEtkZqizO28H+04fpPpJRZLZZFOizjNtGXOGjTkKrkUPe8P5TWNYpDJehkZ
eSEIBWDedvnB2ey7zr2hjwfwDiJlFXI/XF/e++akwDSwZq0WDN7+zissARNy6OSv
VYzcAUMsIEOiadtLvLOUxDmAMsR+i8hBfhTVrN/zr2not2NFZuFcqSZCgm7YypcT
RWcviUw7bS6sKLkoK1SNUF2ITdCsg+9sAGkr6z85F+WvlVvVdwyhMI6XHxTdqdqF
x/mVtOGdarodj7FZruC7cfV6Sf5Ew8e6pPrvDQ/aMz6+yv3SfamGnOQK9dPiUgU3
sectU6Y6qg0C9msOWb20TLcmDw13Hel2LZ8Py4dGcJkeetHQhViapO13k7UBYrll
6OMmw5Oi5zxi/WRN5m3mvRl9k1HKwL1tVLUq4Rz7GDyzUu/yZryTCjudodEnRdRf
9H+n4+HaQtDdiIInZ9kJXV7266mEMQRSEUenF7kEKw8JIh0vvyFRlEIuZHl32x/J
VslEzm/WqtfZjrhgck+fzaLPe/N3pdUcV50dfgfUYD2bBWxCH4gHvN6wixG72jl4
0hE9WbMQnLeWnRpiGjClJJRM5rtNznTk6gU49SgEw9DM5gAg2C0kMtfHSiisY2UF
FQT1XuGtDOOGAV6kmWgviiBZRTcKtv2w1+6FpUQ4nH7F8n1N3bClpLVOolQVJTkQ
pLyGELVrp7BlNNn0bbY/A7L/rOD66IRzQzoHrwqHQTr1UI+VGF4WEZIFThSr4GaS
8BjTraw4m/rEhYA59XqMTEiAZEHVvXhPfJs9enIffN759zcrOi5D2VM4FgwHUrLo
Om1rxW8u8KVs9T0Kz4qOkzbwV26Zg0DsRyJUb6WKHSpy5vzg5V5vTpa3bBByyv15
AiMtEjP2uL1XTJX28XuWDjdeO/spD4DrsFWuxNRZil8dd0COc2ucR3O7w4aMwN/D
wx065a7L8WbReLKQR3HqP3+vVrk9VazPDHF8T6EoGeIOXtHlSoHFBqDqnopRLjlC
HubNr+YkcdkiH669WzmEJqUUCoNoVPwNjluZpc56Yqu7/cmWVTE/o67aYOEGkMuH
DyQz3ra7tBVueIBfK+PLIgsJioioeWsxb2Oo5IojMGk0Mven2o2Q63pN0gjvlBBL
PBo+ETA6JPG6rPkxP8lojqtwidFO4I4xQT/C9RcQssf0oD1Hdx1t6oDPKREHDakF
QueVgWLu1JM0KfEu5gVHE4MWQsrK+07wIJ5LK6kAhtF22UtUUVZwyYTxVrUHm8Sv
WvJixBXbFR+M/3VDHHuk58fiLp+khmstOylbL0WWwVz7Ukr6Ak2kZ9glpYFKrhfn
LqeTgDRNna5QRzQ2FJz2En3Diu34GducyfUzuZ79j4pMS0TFtMzUWtPs9lZots5L
/GjYhDL+INTTcNEj/aH6zVp/wdGQffqEVuuram1tVZGKbMvkw4JyikP6KOeC9t92
cMAHEWEDWEkd8FxPuTE0ZJAjy9AIixyGwgIGEhD7mEcD+Mu1ttH1m/Y9OQyleLdh
BWAgSedfzV7lCaQgFEJ6WMM22RXjRWsA8VgPzMkVlmBZA6kXiSdRwnZVUrxsBGQ3
NtHvrYfPvtdqUHBlHQGdeeRmMgtCoHJblA9737mfaFqioOiMLfQx6pZEO+vOYm5m
gvS51muceHcOPfGkDyZZ/hlU6PnZwPNp/qNp+TNHlddrfFV0oBHCSHeA34W35Vnn
PbeG+HxAWVKgUZwl7d2KWq82QH1c17VEcRs6Nx7qzkKwxHtI34IuPbL5fRdEyiRv
PklxLhuzzszBnfDV2m3ofjhqfK2EO0R4lgPchiEM5BS8cKGj7UIni2KMdbYWxdZy
sPpcw7E9DlHJsxYujPpuAnt3/qNGqoQbLwMBhUtAQjMh41kkyjKa5csjlQN4Fc29
TsdGH7mq0Oq2q5SONjQy1udpMzcvgTs43pt2GjG9JSpgtnJC8Bm9wex/EdxPiCOS
OVQ4czKfqbPCgReQKLbDTR/6tEWYwT3W9L3AoCLVv1VRXHL23Ls3liK9lQ1uvbZf
r8x9PhUAZLirVKQbQFQ0u4cwPzmrT6Bzi30FF1dKTRsa0mGVxLanqYQCe6zhrrN7
a4YjWry2pMq9xpm5JWTeW7G11hLnZZmDmwfEanohhjqh51Hw+4fShTnUKm2i8RCo
EI21rI/gjEeppUMTiSy9yUqxTgqfic74ALHRua3o2UZAJNsYP12jx/stZtTvRbdd
W9Cyhrm6NqQqJGLqxm+K5sJsaxf/nWUF2Uxdyi779aqY6f7VuofE8r/g38ia3tPk
6LdZCJ0UB13BISkSkgeQY2GZGmUlT16b0rIC5ateNMuwXdF3pnYZr34pvfaUH2pC
FQOiot5q1Pf4vYquP1hynG5fGVn+v8OTcHDHOlSzRtwfDX8qXoh/ewwncj/6zPEb
/H8V81bZoXuBdulIwxsqPZhSgQ5etpoMG2cAcWWQSucy7242jDFofSQQKTZ1FZB0
ExGUwl/G4yJmaLvDjXT3ml2tx+qfnyv0GScdC1UMlvOr8rGzzgdRX1/LY9qT/ExM
DkcQ8EQkLaRbaJ3tEzDYNTRBj0SEdfW9gRH1WoUFWJGO6nV9rJXVQmBSOTQk7+nM
FMjAFC8fnFmRVPIZyUcZCp6SLRkSw/K2k+NLNA+U0mgx0J+qK1FIdLAtZZefyQIJ
z7dfVfAanaUyVvWjAbi7xnUoD/HVHlXsGesvmsVlH2gw2ykem5EhcyeDQNxu4WiB
zfsD4jGYDx5yVGsLJboBGVJivGSOyH9600D7boZYV9qHBLOE4OCzhpZCPFo4VAS5
tXQDVZlnz5lreLIJ6hgUZuUxXuS9ykOhCJqlDXfy/IY3mJt8EmBJ9mSiNIA4L0xy
kbxp3gSIy39BsnfoarmENTfBH60SMMSXq5FTE6E6Oai6wFbI8nqzq7Z5aPayyEVS
xoJjv5nQTY5/wDKsnoYA2vOs+86hYrQnpHYzldcns8jeu7X8irITzzyomddJPCLj
6YeBVGlhn2lka+ZjiXLarVi0VdB1dchQK9P9RDCMu5MI/DY5K5CvN39qQ0BQtUNW
ccg/WwYbeOhRA2nBo9J3wCegJ6oeg+XZkrcEz4fK34r4teT28xnOiLRy1qZB5ilN
tO+YSan9qHy2Nrg6SFfPBwzeuzkc1swGysxtqCNyuTt5V7Q3Aqz1vCyQuafs2tUo
Hxt7QYChmmpe+fb8M30KvtoATkVimS5kj1InEzrnBu8VnDOA/UNfjLvPfz3IWJfD
mWwHTaUGH4LNS7tWpfQ8Ovg3kdugJfAH1MiBj+vnf9O77Dv6/5pBbHlI89NFgO/S
gI8HNsDde2z99yMOxbm56nkw1af/OYEK/7dJuMEweF1ud4mDrNOgGhX9T/MUU66X
ylozshn6D3/WpgyQciRa4IA5fv/KcjPcr0KaS1OQl/38i+yoPb04qClOnpni5K0q
4IxPDwkbKrnEiiUSpYyOHIDbG8fqQeKlpD3LBilp5ts713B0vr3ViYbiC6IzEr13
hdeq35Er8HFWLJLU8tXL0Zb6I9IMDUqQdx+WULn8HToVT9b1npboWKzblfantVSy
cbXYLqxQmXemJ5oaqHh/0A2kJZwTUOpwkyfdybb5h2WbSKSggzwzpP6NUNSn8/Dv
20byXcG0LyHiSxlJNWwpxQ3oRFt1tD2+4iJx8/UECfdALh16/fwZ/ljHnnmIqkzp
+lOxadE0ovGov4sGEOdqhfIetBeva9t88E8AGHeZ+99BWSUVfKEOKcZcZC1nBYka
VCxYz0XYBA8qF1+n+a6ZwXvS/VT19HI7aGaGn0KAORIqbo2zCi0utXeddeDGFU2C
uMUau9n3MBDPJHDeC7AKcN4DGhuCBnYw91og6tpiv4ntyyK8mIm/nAHTOjPnQv6d
I8m4W2A4mOz1J7uu5KLTEXCFeN0EbeWN8KeTZaIM7/d5x+o1GNM5RT/9uenv3/Au
3KRbBYaYW1cPzmq2bPNuizBPEePAuwiW21eY+M8+Vh8OS+BC707sUoBlEL6MaZaP
Q+urcSlBcqPAQ2MqYRals1vEVvgEATLFkaJaPELGxaq3ZyqKC2dz9iiY0kGieVnP
JvI8qPEJkTfBdUrHVhZmYzCeb9YQzHW/sv3IkKtAxFHyKCB+6Qgnc20d/fXxf0Bw
AhiZ6XZ8fPtmGGOILdhVURBisuBUU4hBKQxd25oGiS8i2HYU7UMkuW3/ekZBiRZA
nHardGiU60m9MGa4hXWQmgFnYJd54fg29awoR9pNIPPo/fJg5EJ4AKUW3pGTtIHm
CAPhi7NhkzrQMISXuDTnqmMvZMfZtaN7Qbd7b/0mv65Wry6EMfB2W8FXx31iAqcE
1PMF3dZfOhJzrwcHM4RlyUM3YHlZx0dz61m7epx7zcY1DJcbv91bURPVjUfJsArd
OlbrhSXTsuKcj6rE7ubLzddD941v1kiRxOJxKMr2MQn4Hu5miOGApxE7HEdD4OAt
0vxc/KGPUnwfRswZYsefecL7XPSXRaqnEUO9gcWI4shYUWoGzkmSj9u9T7MHNo3D
7u7fDU9uxRkjZn+6Xq5eDEKXLSKT4pY5Vc09zo4pZd/PH2Esl8NLpi2MyfvBryyC
dcspvcmrs+2CwNPJK9+A4vvfdqBdg4lDAgVxhFtFS9SOz0/auhUjTW281us5cLM5
/9rzj/KYioccvUwWCv/MnaLb9FwO8/Y6KHvtRl3yUtVGKxTf6ymbJvomwIMhAkYB
1tXs7oICIjGVcH+4EPkUnpNX7DiZ0+UUJRcN4riCTn8eVvxjIpmTYkH4b41VITqz
welQNg6xsJscp/CS0vlJ1IFsJ9BCH8SjLgW2VzbNoG4u9CTEeoZdjpeAbBTUmEoy
ICQ++gyTfpfaqviLGRriRLN4prazNZO9Pp5rOvH5ed7PscyCmpSOm9xzI78SQI96
CQJP05hnxa7zB9GJIbkxxAEaWKd1/4ai4FL+CUMdJnpdJfPhX6/pB13LH+TRkwVl
+ktaFejFtWw3bg+dCDSFsLKKVEQSBMJbnbtoi9akJJnXZDjqXoetEeR9OONay3V5
IGO6j8O0BChB4Tz44tc4qC5BtMlkBGSsi3WEzTH8uJFxviB9c3slewTX1cyJmjks
L/Soo4JgM6Fx0n72Mz4ED6pmx0eBEs2sIT+kJds1PrEvHUPqU1TT7ROa1XfO/8wA
c1XFj8MuzpWFAlf3DPQyAo4Bz5/ObpZBxStCp/vTjK3sw5DOImAhSzraWsQeMVl3
f7Fd8ipcN2/egqEwe8tJDjJ2OafyVuPFYaTR70X5DfynUvB6U/XKFzfC9k5lQCX/
1np5Y2WkVi2+yU7Wulg9DUbxV5KXE40Xy8UGqHX942tP9cIt23CzhgNdqLmQqM1m
9h6IRVQsvWZtcTyT81ikR2Rn/o4WpD3WrdLU9dDLgm5VuBAA/EIWVfdZDjnyOahv
eYilfmrHDX+ebIt7sIaiwHn/37H8KlV7F3D6XGsZ6ri7bBC+EDx/q3J5xMQcYbeK
v2P5ixjMozEbwSAYHSg8d7r8QUYxP6Y+NBWCaLPeX+IZxA5Ztnomdl9zzrbBWhur
By3cL9CuHAYtTR1rVNb+Xxhh+2A5SkMf573TAapjpYTqR2ydFbSJ0Hzouov1QFGR
w+3NZwtchkaOAHLYdRhCYAD49XWgzy8EKjvRgQIWc6CNW/WZytP341lECqpZ8zBs
zvncvJb49LmzuqpUviTx5UkNLvjLZIgIX73TDvKXlZl1dOnIQmx5+pyakLtgoDHI
uFRm6bjg0iYUFgtsYflt4u766UKqKn66w8xVll/Aop0mhAFMl5TcwZlbloNFIvud
XjLsUq0FGl4d+9V9Z7wXNMc9FY799/lF24Bk68sE7TCQ/xr/Cp2MzoWtNWA8bVqg
e8zG4s5MiPxD553KNkgG4K4zakeSTUXxOKPUSaTBy3FvFuAmYwE7cOBpeS0GXW3q
TZR80OWKwSbXM8PSj9sc568mVfmvMmFztkOE+7rkiihWF9Rgec+Blah7hi7h9t6a
6Z1ERmyt5ufySm8Rs3YunAMuZ3b8gwjrY8m4ODerMRdJxw2MYWbPR8aeeTzDIDuh
ioj6MD629CfCBlio8m99Wzek0jq1rFSBe0Ty8RZf2ukNdNtWiEeBhDgTRfRvF6j0
Yyz70V5Ee2mDgAjjtLdKdBA3enyYb2o9qC7QROi0ZDy4PgMqLzxieMc8IoD3Wfm6
0Eu2+Fffo40HkBwMpou6cDTAte6RCVebe3SLsaEn1EOGW/LTfavW1SJL068U4REG
lrlQQIGo2vHSILQlQC445y2c/8wuxuIclf3uTDIvP1e8QGkk/cx4GNibml7/8rT2
HQ7JOHUqdKsefdqayD648JrM97/cV6kb9K7sJnMlYVqtWMezplmQ0qLVxkHqqEer
IQ5vhCNbYsSb0PWP0XJmhKUVs3nDxPLmnvd2Gr61/JaPUus/C0K9UB//Hfu6L73l
G6wdbB2G2RLmJThalvH1HxDOLy+1cdT26TwA03EPIV5Wqkb8qcf6L8FzjNK8LEr8
qAVYhGudwkU9N+2a5nixlu12yUnPso/17bSoDNnEDfnXysXDIJqFGtkitRetT8q7
iI67TgfNpfN+ij+ulee1Stwf7oTWEkqioGVuDAw/4K19WZNSiw3qWdf8lsPqzJa0
2gpKPMfNtxrX8BoY4H7/773iMCd+ZMbYT5ACUvuMw2Dq8ZR1xf5SHXDfOSHIh2qC
TyYzU0lRq9F9Snrl+YALRiBxcXTooKl1ze+zNDy/RcniNb04MMkAAighn/GRnYNK
3WyJ37Pa9PDclV+f4T0xeAf7+L89G/KCUyl+0OKbMOYHPhFZN6sEtxhZWFU22z8F
dXD8MKYoqH04gVYrKbSgEJh7FEfRiVo4vQLmwY94FJyzy3U0rTPRioaWN/1Sc9w3
DHstCayG4B577ESo9l1NbNZoPWWPx9jh6DO4QLQa7Kb4z/+LgMParhVT7OLKwjRm
Fk6ppLYrrZuXxZUu2I4x5tjTiGOJgClHkNX6qAy9BuR7hzOcPoK9wXEgz7YblyFZ
TgEQwuDsL4L7s+tTTMoGqxQCYZGN3S7L3xgwmzdkPmD1HE56RLCDrXp7V7Mq8DQ9
ty/9gqbcjbLIB/oEezZE0AFOPXF9I8y/bp1jo9ZwXb+uQTqXh30w+8VDB+6ksBKC
47w1SZzoTtUvu9tDhf/s2jLzxkhaY0Fk2rqcdMBExdYm6AwrTq1XDKrcAwcs0s6h
YfuT/WN0aOrI83vErapFlD/4sYn5E8fMU19OcvVz8spRhm2F09rM0Cx7c++I4pFd
wVqdsYIzwDCXuEU2O1LyAg+z3ZZD2Ws4DJgNucKeE/gutM5wq8+vy+3a/HuXRcI0
UmKR1aM6hYaYfgf9riXTkYawAk7JkpTNbWiRDte7VFUR5FXGzZ4LUwVCf++75qTp
uXio8O35d5/e4fmtDuFcL7lg+/GNFQGE8/QtdFTA947isCPPEZ6U8MsH+ZTCuBBU
R/sZoDJhtykcHcQUqcgoWBSrDDwQedb0mbqc9xgbLYC5SsoD0nJMHl+5BXZ2ukyk
zirFpEYcuoUE+fO/pXV4RcoYx+dt1CkqGExIH4SZsb4hxCfqwdKrZ9Yt5FavOSgE
MEAZeCXPZRjp1ZZ9ua4w74AgIDunX2101y39uEB5u8fAB8bbVULMFA38lnnALhn+
Fo2Mal8cOa3vr6N7gMEBwx/t/oC+X0Ok+9BEW98U3fF7rQRzOQXifZN+xlYMty07
hyaFIjloF/liLlt4J4Y227UsA1R/JzKEzjhU5GJ0OUpzBRxQTxKy3SjcBkOkPico
4twjRW0I/f0vyeMgRKIQDyYIO5XpV4sXfVQcr7av37btEbrOcf1komPUjsros1gR
yHFW3fitgppxE0JEa1xVVSIKEq++VEjFxIFmMXbiOMdY1+OBqzZWFt9f0g0UTfH+
7z2GN+Bgb1Ltg+VuYHj8OkqOzofTJgVoT/yGpyyyj9Mg/NJmNg2YCl2n7hjlveca
bpgI77/17F0YA0bv2TQqd0XlXan5zBQlUXZca9VVCPjgcJNMQZNGg0aXyPlkrruN
lwH4Wv7vZaX8LzZw2qiidJPlCSxwMa1qZLwqdmjUgwD+rb7Uruu0ALzUA6MHw/l6
dsjE1MiBoTQKs3D/qboRal19od9lV5OO7j6Kidrqo1OgpdcKZa66Xy1Gk4r5f9ri
0G186cuNAO/e39nBZ3ykSuadieeGiK+XEOpnThgLJEFiC+7ldaTxuNuGqJWmznTr
My9aZAu2RSQYWEk1eb6bCDrNAogj/tMgBvWNYLpzKfXOpIFLIAvbkc/SeLSSCJjG
Gm/xmpyGVOJXTTcEtvNnW3y6bfVllVf6rtngleezJqD02aQXNcLbKDcKZZaPUrfL
8tG4Wnjuvro/A1yrKtuHTmf3Uxfo3bInXeee2tbhpUEAhslwnifBBs0MXK6HwmII
n5/L4WCO+r4Gc3XAlRyozpnDE4ZItRCAxaAv4Qe7G+1oWzx/KTsf4wqo5JvZAM+V
n8JfRPdVPZh0tFQINACA2lfWSYj0hjzLpE5rO/dy5kBaL3wLuN9sQRWJCOChpa0I
ZsxILr6gjdHyqhNBw6G+RRPu3t+2gtGsDgr/utcZi3yHllWHUHGrFANRg9rbjfbU
fZBziif6yyx6OXiIEHnTZbhFYCCJV5XeQf2757WXH7h6xmJigmKtYOGm7NG8U21J
++0ziGh4NFvZu0lvzxz86axGADtGbJKfO5xHlYAqQT5gNoDe/L0nK1ecbunNBspW
/g0by6Gft7fZQ5I9bHjQfabqDEulOUjIec+8LYlPwmQMD20mG4m/7CRapaph5esm
/VPVV3i5HruGRKti8GmNVaiHJtSMTU5MZ/C0JoMRY6/dz1FFuUt/MTuxZ8zqci8M
+2/6kEKepKnAHCg6ywozP0d00xuL9x+5B/EVeb2bYvzdkVBuBfS32t9fxI1xuClB
2JdAiBmIhmELNPmOLm6BpygAfcaIXbpyYDSMg2/OvZS2eTYwf/Niisan/mxmG9Xa
1KNzrTNf4TzvQPptbziOrSDixYlFvbDNVdditeGEG9B2kr1PbK0OCzdHzuyrcwx2
SF5rZ4xNQo6nU1NdKKTGUxIm00CfVkvVL/NF4dGE85d2SimZUtKQ9R4XN2/tPe2b
1ewqaZSQlBIcowsH0bMQ7hXewMCXZSrqwefkOmkX2sy02jwyDrtxEs72JCdkswUG
V6e3HimMS/fh5J0iykDClioqOMGPmIw5ClVT1OQ/rXm2w5EJoJydbSNN6kavmKg7
qajSiwYVx/yyZkYg2FvBG9IHK1pgQ/De2z0VLzcEefM/gVIZOk1kT1Hw1rL1JZQI
vwDgO0DcbrLWxL0N4+ZxZBy3e7JUo2clON/TB2uxzjr6jnKv88t+2XYK5q/klczk
0jlw35hQov85kzezbfO/f7dxovt4pI+e8al9dg6mdtOYmiQjEkt5EOuBbpfkDOUI
TrrF8cJoYtTDqI+pCq2s7Hfs6iBDgkqexubsrElTJPQgJ8gpy1mxFFRbA+JvcSpJ
w5O76f63N8S8Y75ogW0rZilSrgjkjTFLn8jJr1PbKrOceTkxg/d0w/NWuDbkgHem
5+mVutoBRF1+5AMx8Czu8nJ8Z/lR5nc8PFNxUdCbLd0WsjAmd/4/Z1Ssr87kPvrH
gqZReO88uINVXDQLvbaeTMoVIH5qmw/6eLbpyYmZSfyJEU2VIdag5Z0Y/+hAD3L1
tz9saezgDs6cYBHdwge5iTv6GxattwpqpavLucK8U8exlJ9bh5y+xgan354nJc2+
3NmrvnRKCK9p6RTuL4DBPYaxwaVgvRgeX8UZTcRK5G/9bagvBqHKVpOuPJqqfwqs
kEs1jJnUwyw7z9Z4uKm1tnl+SQIFoVMbJjdH9LyCLjb+yk8BCOj8hs/te9Cmptc4
nmazx1ja7fDkD2IlL5JsUkFmNOvI4N7dME9pyTU+0t3mGEZJgj9l6QGY7gt7/bsT
xe5mdFEcDms/7y0C/lwqkSm+c4zA7oQgbiPZ5hmmwWApZJAI9BDrOkHXic1D5m7C
ytzhHclu8nQR2wGcy/x/c9lMycnXJv/76qqQLbnqp8RABslq8j76s4QT1XNJpoPq
2MBoFROJIJ4LLAGzBJb3L1C+vibowoBSNiZ5iY5tXBX2LGzH2RCV10lHy82eZWcn
OzBCAWDX5MV4l7HVs0xEsoxUmmANn4egGLiylKlEXOPQpUskmEndY0TRPiuSLhMd
+xF2m049GLqy+epMcFn+9KvjcqjJDmj4UyvRkcDdcidnS4Agip67/7U6Ks02vum7
ZvJxVG584nIc8XeAllVHhBHAnPvdFk4QaPwaKKJ3jINQVAz1f9n287azQbeq2vYD
+FVo4E66ChMJkHdqF7/2DRs2dBDNOgupQB/ZLRfbu7icG7gdJe+7DkwcnBxWvD2h
S3lZE4ov6zpoLfy1eZFWvsx6rHXROeuCQ2KIHrbo5ChgrcPToOROV7YMzswKT/A9
xAntBm4apybTPM/UqpVbQOT1BZMDMeCThqAf43mR15kxN1+v9HhSsmcNCJnJQkIU
Xc+7/FpNO9UMl74jNBFiYdpb4htjJLXB2qWnNTanRaRl9S9Bzo1YybJJkrz9/z1E
0xX4mYT3P6Mf/9fHmVUIoLt8Z71C5qbGk0y+Colb0TSEDAYQWmOAygvtgn2jZXBy
QQUREMWvHkqvlyT9H3Ktg9Ri0tX7AMiwVzMIT0ba8LuAOb4a6dcOnW+JtfKD5DUQ
QlE5NM4zsIJTheN4Zc7LpCU6UEEruktVOqe9ZQ+f3g9eNfwaD4O5jH+RNYLTT7qb
J/3MKgqopkCk/3Q7K3oUwOHBQChkYEPnO8zRkdAYcfI8kCiUB0PXN9GmpY2eTGhH
RJySKvHi9WjSSMmS1/bUpdzx5/24fZD7QEXGqdEohTfrDRfwROBhNkuSJTtkt9ss
GPtMbbqViBamEkXBFSFIkUlLn3dN/6BzNO8ANtmoDrbbcM8fF613hhrqb1fLx/DM
TWbh70wSF4Sy4jT75LubGC+4JSvXWo0OzyHVBm/L5ToS9NY4gcqdQcPvDGh5oR8J
+UEGS4JERdIl/bjDnWxNPp+CquigEVG1PZ9/rl30QiecTLoHydXeX4A+HPhj61yB
3RGdsIbYr3GBmXiEh2gXxZh/fR6HJiYFVpCiWgGQ/MOFNgEARmdUPvnxC+M2NsTi
xXVsTr7MO8qZPxo/yPY+hikNGOAOq/2Fm8HkU1XmtYptXjP167/WMChkt5GwtqKO
sNcC/fByaIi1AU3I1zmbryAMzmjZzoll5qk1J8lLCghs0KAsHBI1RUzMwySW6N76
G6DO7y9NShL6vFKT3YpgOHcFy9GVeGygos1sE2KYt7UqytAn13T74dUR3VBra885
Ovwpgg0gD1T43SrzKk2p2zdgRfhkl7LRvEFgdaa/4pyZj1yKbp1p3KoXzjs/cdGD
EpaSJXbXt6NNVqfU8uyxHBG24AaH62EcDwUNUMOJDwg6JzG5nUy3zTQpL/UG/+RP
Ak+d9Cb+wS87tDY6ULEPYAhMPUyZYeLv8kUBFmZYEfAKyQpeTKlMCux5Jy/yZeNh
bECX6wnvhFoRA8pzJhiZIdMbAtXwa4GB+sSXfMoH5Y6l0jpuYPRfwZaJTFdtNT+Z
uBgvBg8LgeL3ChaM438pDkB5el1dqPOTu09XvzYqGRHncddVS7qbNktD4ufB4rA1
1dP3rTQ3IDkbd1QYbUF16whEUJnuD8egcWHSZmx1nf9pvyDsziU6lCUYE/S68FxF
CHp6iCMISEp/IiaDo2ZO0J5TVjLKttpgTYamAZT/h+ZB+Yjw7k2rrYcTcn/OAdsy
g+Gm67boCUo5pGzziw8zlOUTpAsSUy6/DGKhXyMOeTHuAZV6DF5PmJapPU/ZQzOK
EnYH4Dm/DPbJS4E65E+50gCEx5mzUcqLFqGw4h6fAmTpm4UNWCAs9yXAG3nnldPj
qp6p8zszV17GpTG6umHE9lddsepL9FVXUsyjAGmfWxIx6pBliIpRxtU14pMzY77X
wLQ7KBvKmPKW4jNnbopeaMtsO8cqvhzsQokyzUoDSemDQQ1D7/Q/yNB32omKAMlL
DCjK6OX0DA7TvYywQCMr5fTXjIgk5SSKCEJ5VR4QBkG5TDTOHMDlOUGyNQgayf6X
9q9yg17h7KFkYx3vXxUcDgCGYpmMWFX4QOnZnhu7Ik/fv0968pvAtfkCIJ3mPgWf
JaSaiN6AirOxAWArap615fnRSpQGw/cy0l/U1sP2l5BcBl3pQlkJteRs0d2ts01V
bo6REN7gnXzs1KlhYfCgsgXet1uZFj7NNHicXP0nZMtKSUPWbfRGzOguGPwu7C1v
MDUuGQ6dw8WebUfw8+cqggFpVzk8hCVzsapISt+LIgWgtvzoGPAz3qa30U0HwPlD
FKnrj8oyeXYi4Wmjz8r4YOFrHjHklTnYXQw4TuvLpU1yuF0FiB6UKmkHKJjFAwQK
YDauqVxj9+RhuIhh9JiSUdPj2lzmJaPeiefFGAX5LHADt5XrFg5CSQZ4dIpTMxrn
wL3+B+BaWI/axE7fjzuPhyadgvniOMD54TcPX8upHS9AZ/MAEA7CvU5Cm2BxtJOe
k52PL+81AdqA4tPRrhbZsu7n5+/Uy8FPoWENEV8ELK4YtHXec/ZuxrgU1sWvYbFJ
PdGtdqbWE8yqrHsrxhVzp4gcSGm7oMj0rXmCCKBLQES3lVvBHkC502g7Vw82I8Tr
YyfOauANAgqdFJkKZllMSOFmBgj53sFvzMPOzdyVI7LK+GuYIxBx9cZChZm85WKI
2R9mzWBjPK9L3K6V2jN6Bmx4rUhQn/IupJ8WvX+1KRQmoXfxWsv1HqvTWdam9vbz
7woC+RScfe1/vGHzHDEKpRGK5GpeLGTjt2JZoxZa1T6wdH0vNd89kT8THoN2pfpE
vJC1bhNZid66Pqqy7pt8vRvaV7soKiDfeXnVy8/oVrfdqDmBNgnBtPA4iKZQ3Uy3
QIwLYss9nl4sCwghD7fCcmJu8BOIp9v8M9PV/RshJMEIFnVYMFRRcC0LLkepue7A
rEJ8FbQt5TSzQMm/YVkD8jODIh0JJ0TWWLx3QmkQJzTkdwd2A9CfL1/KDcXzjjMo
bui7A3OOA5zXDXyos96DuTN/VOgJc529cd8+KZin0h9N+1OY4aDJ9vLihzPZorBY
8R9/9/Pp+NuJDNaWXUnkTRJwybmDO0H+pzD+XpgzxBnb5uf9YngmV/xbqfEGv23+
zHjc5xZR//XAP8p46t0fVSVIqIMpwTNJJcwvOqr8FmazaE+FXKVr4twNLPNclzd2
NmvysttlN+l1CQmkePzBif8SeUnC74hrzrkLp4zaQWbJzmUbujFgPAIgdDFjSfT+
znHV4U/rPmvHxmf1gJrZnG84c/Q26CZwg5oWR/BUlazxXj7B58c4FjfjV+NPogY8
2pcOVsVQnmo3PEMkm9al5BRyRfeXkZ4aCUd2yi89uHoWhAl13RiONMi6JPoMBbtC
SUSt/75xse/1sSU0IqykocidHEVSvj7/Pn8o5mTU8C4YXE5HULj8xoto3Db9p6fM
NhQ2F25liXBd8zKxG0MoHBtuSI/JAP02T4kyuA5y0VarrT3z0VrcVvJM28Q4I7I1
0s/7NrD0jAJghst2nXLj2+mIcsEDJ97pcrEckwR5T4i2D+zh/nEkH5o1ZPC6+lpo
kJDBRa32KrSftrkZh9gYGf5L6PSpDtHzEZPwQLAqDrOWtXD1YQDZJqiIMwMCWoT7
ZvrpYOmvpDAtDgouqIBfaL/Pb0HOismptgLTBP0Oh6GHPxCUttF4DRkre8w0LZUk
S/C8uxgX5U58rBmKJO1qDVrvKmXAztEBHQJUiW2cKL6vTn9YIwz3U2ht1nU7gky4
ZB8uvKF759varp+q3oMRMebbVYErmhejxmimrABQmMFFlnOlIABRr95GYOFEVVj+
ANdLLvH5rz6lS/X5FHYysXfBnte6lm7sWD407E2ZN64P2E/0W2L7P488vyNYQeBN
fnGgR1qzILLn9YaZaIm6cvWEoX+bvM/IA0QbvJsr/2/PYArlaV9UxkVgr/k7PMeV
DUiw2nFoCANdO3ySpqUq+tovvkhBTpI1SlU/n0Vppdob4yQbHkcaIyqXVx93za0C
3zGdZcg/CGIyYKZEIXEpETOG0b9GRjAaiE4ZYOLqIUKRDKon/o4IWPgWzPiLo0yX
NK5wRyr2JZzjkFuIhn29snon839ewfigw1lWXenOoQgb/3WeCJ5ee+ew62ZiDWlC
T/6gD/6ieGqZZre+OsBk7vMBCZLxUKEjV+740sOk/+dwaU6nA7qLR+q0KcqLstlo
LtAPTbpV6Q8yvuQC6YAoZn9bRdWDr9ZAm8c+On4UKMrIo1EH/3+KFybH82jlxD/D
VmDnusZN6zp7KVFL9JAwaLrepyEblkWcBDk4YDk1w8JtZNKNydR86HOTkU9nPiN1
gbMzi28gPtcnZdenmbUX/nby1l7MNvGFGfJ1mEGq2MP90APwA+RxPJB1o5x4bnkZ
h1hkJzOl1EhuqnV0SiOI11NhisEwoXtUeRTlytp/wdQRG2yRdDfNGQeeb/A1kAKB
I26tO4a2dy4hsUsJJUHQbobj5QeqsDH/7uSyP7nK0Q76cvKGNjUbmoUl4UkV8k1S
/Fp4BKv+cx1bfWu3LQ/0smlgbbieb+4CPHQvvFRxHZPrtVY+r1AQTrmp823Aj2Y1
Ljk472gYFCLDVgVi6Su3a8wO6/VuwJYiXL+BWBKWvrtG0/eTTfXpmte3O8vTAjAt
CZmKFY0MFTuC7USv9aUliB6nZilWZ+SK+21K9i9WDyPgmIBunJsOEj0Up6pplBkY
RkNpjFopLkZ8C78wt4XCJtSaOmVf10l+oJVqzXqfXFk3GtJlbO8l5O2fdheYjuYQ
H3BPtUATUKNHYC6yzoEFUh+wgm3HqcDJ/IT7oNHXrz9s33OTaOc/TFU3/v6O3AYb
XroK42/xdYsgmsgIbQwCE/frM99xH0kg/ChgmiMAFEd0jdlJfiPl57OT4N600VM7
RGzqHTMb6FDRTg1WMQQFMCJNm+osVAnr+Rn8hzx8diZkHfCaQNUHLMQEoSE/VP+7
0ywk7KQiGUmCUdokawVjd7XRcStWteyYslIhF0UBSqNsueTDjtL7I+yBFVdhLxY3
cG9cJ3BwvQJns2QONU8RYKauxGKnHnGBSGY5E0h+o1+HFMOMB4IStVFLSKWhWhHB
4FA8+PyyW/dj7cCOuVW0atHjPt4qUBFTrfIkG99ZtzKc4xZ8BtpErWQFYaVdOaVS
lp6NLy9YZQkjp0BO8m/1gol4N6lMhXZlnI8Q8akxzDZ7MawjzT6GrVLLvW9pUJTC
nxl7jQrgR7R1KYT2qSjM6qgR2aHgLzP1bWrxFGX3uk/G9+4mJwkX0DbvbR43AIlH
VG+WIp+aGVQ8HyOatI7wyin9saiEzgPW4JJ6K0F5WQGyW+UCtYWVCMpsOOI95jwh
sJmndU7oEa1ES+tuOz884DGd4MF2RO9WTWmyAAQt0OG/I2JkQEQbCKn3L4WMDD1h
QzPq5iq/onmqPtwK2f9OupCiRtuMuroY42GS2G2I8T7BFO8PVjtJS3j0AIFFTQmJ
+BThVObHcqgliKtdAPHNBquzLsjD/tQNjKKYqUza2g1O/xui2zLdbtYw9Vov3+da
H9TDe1Lyws+kDYs7gUtPEF16e7bSd9qjbeAr5taqPiHaoQLqqkSdgMp1m0CU7oPc
dcdTru0sm0UZR68UD3qW+kc7uKbBSXW8uIvvY+mj6Ac4unz1iyezra9/HzizijQY
CIEMrZlDptGJHtX9UVBHK+Ce4tZHWlYKadd0ZNOdaZCp9ClOROq6wse2TXvoZwfn
oWU1D70VavRiVUsyihiypZvClojUMkUcRK96gQNHZXu38bHmkwTTleWc/4zq5Bxp
7yoRtnK7TC4D8EwgNhsrKzauDxVxogmk4zXKcJL6KCm5Z3CPpTrwsjrlhZGX97TY
p7wD97NpRDEOD1CI9uGJN5yhZDiK8ZKy7WXVfckvOS+mhwX5pWKYFNZGUllbHFCw
mgPcF1Q6QJrwzB99oxaq5Y2Gw0ySpuMq3oGTCWwl+oxoqBR047IysdanpDCLPZYd
4o4EqWEfegDAiL+BVIsJn7MqX4VXNG+Ub+ISFhXWUHi0KvJ5KywT4wnu/7HoJ1FP
ENX1qOyB4VnOmMPnJdq2nYsV8rJdIfuIKbgDwku7D11oHBuxPwbrXJBobfWuRuCZ
S7fowg4mnpj6h5oqbpSZQVOIfTgcAJbH3xS614NApLZx2OinT52wOUonOwxRsNby
EomHU3SPKyAdy0j6a1beEEIdeQu9a9FpT3AMoHkm8R8RzMO+HQng/Z3PFK91GgD3
aQQOMOLiYzBURpFDXOE1QYQGQUDmDqpmQBwkE5mTuNdjrJzLVXjJvPdks1W2vv45
0/AXGIdB0xQsWFEh8usB6R0F3rQ/Sk8/90SJl+6k3hXEoaC4lTQXOXyLMSIVGQ8T
cixeBGR3e1Gohk2zAuaC35tFTYSBmcDT2zq1TdxDWTAIKL+wm6fWO7aa9zHhIGvb
b8yNA0Foa9NxuVNdfVZdWgInW4jwRImsdOqFZf1nsy9m9kxsDfc0RvZ8tuKvBOEK
VnoEY5z6S5Qt4GXGB2KU0C9JkDoAZf69h7/CqosWHL5bfUft2HqZNHs1A8BN3IUZ
Jl5Cu9R2xLFpuHC+o7GwmhJY6bKLmfuFPpxOMIvhjTmF6KAkys9X4urmzysp/itf
1+4fkqqkzdW9LORRyhRyZCCYpXsG4PiifyNwNVULOKAjtMdJHfM2xjLeyIkpFPLb
H+Hcl1bN8g25RVkCnNbc9JAD8T02QzUvLRp1YUN/9QD13GPJleSvyWn7yU/AcfQN
R0siDBx4fFLPd80OTpKjLbR42dEgPeJilItvwo7Sx/b9KMu6DHwbfaZGY49uIkJ6
+ZkzA06b7CRYG0PrEzQEawZqRirSuvO2ofg0qeW04+ueyeQ3Rr3cagn/4ZAao0A+
Ze8Nw7QEMJEtNINQORGJEIIHJ7ytz1KgEY3jxYzqp+SdGZDhdLpa1GnYL/mJLf7G
8XXNLEMPDlz6IztMuqP/2OHxVugVe1Am/c5LP4q1btzK7H0J5A3UuXxRjNs8Y2id
u3Mg9fVplB1XT/E5+pk0rL82knj2fTVIDjpGS1ogJnP8cNFqXsJ+ZrUPHyZnvjl9
qQqqfX7+3DCW18huauo3z8UdYq3M8CnmCqhDiwdNf8ZkkwwYYY3YsG5DH7+pUy6Q
UD+SfzQZxk8GcWmf4grQf26QMW8hm6zL9PBs7esoAHSzirIac/Fmub9iQkJ2Ifw9
6FBoZCVwEEYx+e3ING7BgN+0kTBdUowpMja/AJ8BSdCLybeYseMAnt9BLWvgag+3
4lmV/rrsknl0rGcAPzqG4lZK1FIP933r+AsHyjRBAUguOMYgOAH6CTeQISsNyOiG
uGUB0r6EDcTF1irbtph+GdVLOqzPWqS0eWnJ9udhbq+3s9s+7rXzRHCUQnApvlwU
ZNMA8aNRi1h7QfMsuk1ZHRiMqFiws2nR5OqIGHhfU6NbYufawqdwTMMH1aO1lkPl
mJsEMcoykZtk/iwpijz5tEC+iDRxXqiN+pAkPVm8K6f1Mmo6yabHunWNc5SoN9iy
NX9dPwcWj7IHoGBoVRGMnRtG3nPoKLhTN2vZnc2rGrSG3yzPBdoJiyT1K1Fke9VG
SLekmZW/cXTgvc4R4wh4+UeGOXCL1KEWM1RZPSct+Xz9UevlArDq9RNmqcnLxFp/
vqhZqmttZRiZWUd8dJFAw8/eMrtpEbwW3DrrU+spQEo7kf14DIDOjxdAy8MFQsb3
hdfqeFNxZnhf8L33xO9kusdMSHLA/Oq1a3MCyoHoQD1pxbB8gpDgA3XsGeIj74yV
NHyNRNf7gpp5oA9tpiCoD4i9IhHbnzRiVk/s7c6LJnMnhS9saoCLmAVtbBUu867X
DfL37vbT05rjdd80dGb9lzkb1Ccx/12j0vdmKhx25K+JBn2dpYqSx2Zq3ueVaaab
YDDX6yCDz+IIq4L+cacnwUc8FCkNOPglFpQZugBOkrRydj6uWr7UF3DpQIEiw7AQ
4xbP1cXLeGmNfdI6jFfutexOwo13qvVRP/DBe27DLBBc+KYYi5O6r+GMPp3ENJaq
lVf8oQ+8psGTv7k4Vq7UDGPq6InBK1nIVv8i8BekoO48ZWmtAPXnLRv7H+tUdltU
YmvLjKSIhmQvichRB77WoAGQD4s3b5zen16uRWf/fJtADPEkZrLEE9eGN40Q0776
1insM826Fes8uBXABlFKxXbYwWHvnWLbtvabf5BH3pVfJpYjuq4MtNTxvAfuH4gs
bS3COKnP7AbNLa3Rj0+msmqhj0uIDn7ecb/YCH5pdIZAk2kKvaE8CWobFt1Fkgbj
DtRgncjMl98C1l4MVnhbjBNuRiIhpvM2o2FLKE5BbZz8E0HvVDay2ow4TqZE+N6k
L4hsGIePlT3j/EuncaDTRPY8q/xH3l1ZO+xOsbHuvoMpNj69YsWHtiiEKFSNNDwP
/HoWHbv1yHLzy6DXUdgicioPiVyzOGw95A9SCfWoLaQq3+uk7EpGkKRQ6PqSuc3A
1WmwyjsK46HpE457HSM+3EMEQ0ZqQx7eNtzTFcJihK+zCN1Kb591qnJpKLNc5uLT
4wIO1ccyae2RO3KX+XU9PjhnSbME38Rto0tacR+lewIQpnzcs+lYYIBDCOBA28VB
jq1tVRCvFbdpZEYS8X4utP18Ul/RMtMknWyjmsSeeluFtRFr3FVytxBhV6J/NswS
0/4/4nVikhgtehrnTHlj90T4FBJ+rNm3M4ywM83h61r1mVm4r/WjO2fEBO5DB3Wx
D9e2K+7nJ8nQAktWrVYnEgC/FFxjTt7C8kuCMtAHnHHMDKsGi6dxBwD8Z7TPRT/f
O14a3YusDJ3eFjRWvU73cOm5MXP7DplIpho8Twe9i9XvSt7g64BV8b1BuE0CsR5Q
5LAqQWqa7bGsGzu+oieMw3WTBS5EcudUnV5G55uRiSmTVS9kCjlXLRpJrwVpAXrw
+zn/ACoPiRkw+mGpWVXV0T+QbZzjyrtTfuwMf5KJt3yMb84f1ume0FOXzfLtuNwL
M6Bx1/yfzowQL9QKccK/yzQal7HPw9E8ChVGJ+KVDEsE3qYwDIz4tz9d52JJDYvJ
P3JerZYieBgMoBbR9WKLym3fhVfzAOfEq63jLKl+L5K4sPLm4VoaS43fRXOcXVrn
QTrnhexzwaqR2sLOPWzM2AXdYtT/J2FQ7UFRuOqDwtWzbIhxg3NcSkti+XG8ZaxM
tdL0hKAXHcvRn+UfdRzo1sbw+YDv2NiWXriWStW/6K/uL/10py2tFsLtIMMsSCb3
lvyRopXVqITW2+SbGlajBZir2/keLw/ue/cMvumPwUUykBoOroNzNbWqDdBInYbs
EqVNDwgpt+8qqFAv1wOsGsRI1yfQb6G06o0POXYc+kd6koJn5g7Wia7TDUHVkafq
i5c/cdP2Lx/zRy/LeOgLgGEYCIXxEDgNO7vH6dJqfT6ofcoynmrKAJefGFqV+Okx
T++hYsB3BYIzMqW+ktRGxngWkMsLnva3gzM/bIKS28oUi7IRjxqZKeFsN3cStggj
TwmTMk4vWV0p9R5cqjui5qHhODlJaAfXutRxB4gXonYu/HsZe2W96FH9p9QPMqUM
cewG2k6IJNS2/wN0pMD4U2S65DwlG3UStJcaqZhfoVskFGWfk2pzJTR3BjP6tqKd
zPd3NXY2X9cgGipnq8YmCUEvbWfO7i35OX9dTb7OOZnQ5Bi/ez5pSA7TfRCqkKvx
cRbHPUjMUCTDOEuAHU/oSzF5/mC8EnXG9+FSV6O8aRf3FAlhErHY5BFnY0Dzp4K2
N3bUgZSNanPlnW9RRf4f2g90w51cAcp6i4fd2qCdQaLxwSd6qtZQZivPZ9zt7VwK
UtTtS26itNl+xsFQ4oDizHyL2L347H7CDDwzbz+uil2al9fBjYqWOQU8/0lm9oRr
eUyDVVP/P0zFLrFVYxc/NffQN1BZAviwrOsaDpV4svFOzog1xB2KQ+mpv1X9rcsE
d7AtW5btaCJx4PSPOxdmMk847DxGVRMlrfDlbKTOFoYWvb1YXYhxQ8S6mvVSJGkH
lRxf22BOqfVKVk7XS9/l9JqM5AuDDDnaY/MIRuhEp2aeIKl4Xzj8s5qIaHat/Swh
ZWxnritl982w7gchjtGhAVFma8Mmz6YjmRxULsa/9865IrUNTX9Eqm8/bnZi5m0L
n85+PfB6pUFUP4IzNX3i/qIXWbXnR8jYplDQQcJIqMbsDr++4MyWupZsj0p4YZw7
aUxcc9RKkq6o3f6xZBZCmSULC8rGjMCvlJ75sAsQyKL7XnPfE82FEwG0tXcO07H2
76oyGDD89G9JvlrgiWWm3MTrl84D4fxN3j/lVZlPggInO7x/YXgw3SUSIDYmuGhT
lvrAaUiG+3pLe3U8k5a2sZmOjw+yTxNHDFbRuk7kOhK+7wZlbia5AvnZRCqXliFX
720hGR7Bd1vD7NdUOFVk93s9l5aU3faLhjfk8Hm+wLacJaXWANd6ycVYz6cEDyU1
CHAAAl9vQeUp/1NqEd74p5RsxAAvXMXASYY6VJn8ofEQvLcW63tCUtQ88fkqrun4
to0GxUOO5qvoRo13Y7UiLAY6e+qi5KhCWFskykrnAerxnhg04x82/tMRrlpteYBi
/G2eoI/09nfG2qIL6xYad8AubBsgK++n/wnBlLtZ/4h03SswLCbeTI51oTzmPWoZ
D5ZzTw5gGsnqgLngm2BbZeMU4Zn+0UuftiyOy4Ot+xylPiKkfirlbzoHrAQfDz0v
bIK97lvGIUBUVZHYM01J3l9GOiuiwhLe4h4xcy0jLwktvq5bWIRhXIRUfyMzdu35
dIf852Rwh8ab3TlWu6XrjbYlRgod+ogNgUm+TdI4/7vb72P4unpl0gRUqkJIPgUs
2fL2+JKqmf+uTiNnEeR96cdr+pg5Z5TJsdSQPK/7OhlK6V4H04GnAcrvszhr/ipQ
q48GUI2RN+sZVNYeXMUigSGX8nm624EMAnVK7zg8yPVpzKLm2JtQWSoeeOidrIAL
IsZLuv+3Xm+UT+Ik16W5Q0xCagiN8hQx+MygtVPa2flanvRSYrpJ5XdMnJ1oPUV7
ZE0mgqBr0G6DvUQyG+5NXvNEYyJYzSbchdN/aPps99Gc5s5EVKhzDYgLS33aE1e+
lAzWVjC55gAQ97MUTXvdNuzR/gWZvgnn6RU5wO5ttvYorpcF/Y+fLgsEN33iqppY
b/r9nFmPmn/1Hg9L9ufWMrJ+IXYfFcuLTp/6cIeDavAQ92IMTtRFP6Dx2EN2Ijbi
xlkhht6OkZ29d4MVU1U57tEi4vjar0K2fKSu0ifAGv6ac0/cuho0m5r2fwSGlBDQ
H5F8NgHe/uEscjRu8rVas+HsZ9EvhXHqv4afo6h8nX/NNhJuGf8HqiQVOvd8/Ptx
dLN7eXJpdix/hO3kctT1OeDKfC3hCrehsB5jgqzOGtdr5kLVV9oBUYsJwoK4E9Z+
PjVBSy+yQfIg8MOjIbgQQLLugTPQk6cRU+7AnqPTmVMuLkPmyshcejURwM9PB/jQ
zOBJouAbZdVXOtoSQV0WGFkVFIFPD83v6q+O9LUuhn43wkZiYyylbwkw62AsIlta
xLkQ5+8x3T44YQ55sVS732aX+YwGI7UKEL4FcjMHbNJLEBZIv3YkTwU0sQiCi28D
RVkbDzVC33CYC9NOqQUJd1O0imRlKu4AHy0TWhntpHdTdTHsGEJNk0v9j9qbxQs9
1stQfVhWXBuwUig/Mr5D9MzPp5Rnx32FNvY0PYP4imFsfFI13XzoYHOFz9VCTdVK
CQB9prl9T7r9tgFUB2MYM8CAWq5v3jDQZ/oe8pDdr3ChJU+Y9YSdB6MzbGxy6I+m
t8qDo7wkYXZ4DMOxGNiv8TAZ3dxfDZ+klqzrf9vXsWy1cxPVHnjjtbhsFFsLPy0R
r4svFC/G3MvKaFFRlT62BjdfBSMenm06SI2G2fJoEi3OkrLFYLBI2ZeJTSAWn/3y
NEoYzkp4S1FlKlV+GT1mG1oHSnWGmk7JqSZ1hdi4nSvx5nyGdB6cPZ5UrGKwCLtM
eSLFhs11BEjjER/V4sYP3u0+e6KGYLVaH+l7RNKMr1jxD2rvZZ0LJ+nL+TWnM9X3
NfOY6JG+R6hUPKOj2elsxnTWffQD6ZKgEmZaptTL/mruMOarniv9ootMObor2Jh2
oFKdtNScA7dDNTMHsg4qgd6EHpC0rC+pWfJA7w7ooNxgRb1oiCSqCWuFfd+tlh0Z
J0wc7FfK6+Bs40oJWQtLegdQcN0R+MJH8nh8SMB2g53ICJh2sYsloDgo6zF4KwRT
3w66Z7rn2oiEugJpbqoih2xTv9zE/UVCBPOZ/E7zRt+rYzffxN8VeJW2GGHX8qxu
OCmNuHGMNE6nb37npTHSxrl2J9USTgSZQmC+L30rrRNgLE2ECMNRCcKnCd+lQ8jk
HGRQJLzI5Ssqsl5Qw5cjTE+DM63OeR2osrNKZJxC/l+cfDzaNo0AX7fjBWwToC8A
1yX5vIXqj9uNP/W54TRm4sSmI+vttishs8KmuEa4+Abra7Jg/zaWaGOSBhhG14Y2
wWB6IoOx8VTQUX0RyflN+fKxbpWsH5bmQln8XjHRniO1SUU6P/2bQmYdq4zXjzH3
xagC9Ndc3VJfsPvmYWQFrdnhUObkI4sW5VPe7lOBl90IBKMNUjHRd6MxVoeqfjOQ
r1yt9/llrZ1r3enPQgg0ICXg54UkHs2NpWeN6z1w9Msa6Gmzi/f4TqQdF2r2Dch1
1NMh9+yvYASR2xQz3X/ST9ugDKGovMTvpNW9KWjIBD1ghVQl63p93ZtffG+YC2qe
jZiUpsyzIsYn/2hU+KRLavw5UQbyJB4JxR3L7WL3G33cxqEWp/s8xC6vPsn5kRFD
190wAcUpScKA59PUMVDXi6lw/UOa15r1CulT/TofDYFdXdXkDd0/9mQ8d846ysjq
ZvUfMmcH7zB6sp+0pwSZeXABe1rIcpISlxrCGwC+0IEN06vMSfN+Fl+nRJmdfT/H
O7EiZ0DX+nR8v5NcmFMY7WoQ9xUujLiHY0L7YH1+g11SEdMdh38edinKI0FXtciC
TAPwoiU8qM/PgazAYjCFaDlQNT/GtwGDh0201vPZByt8iaIp+Zt3AKaxtWSlPsMm
ECKk/S//wg/cmf19w/Jz7fp1tWGbuarTpbVRr+Vsezab3yADY1xEfhrtkR20Finn
11XcOknu3DbAqzyALYCNfsrNWJLN50IOoWoJjOpGOj6moOzMjlUIF0XHd3sLRBtM
hrzg5DmBwK9UynkFqhY0kzi00hWxzHiI8t5rbkkPdRdxrtyhucbQAflxI+McpXkL
zTxTFqtDuCxMtPHihtg9Iun7RUxmufdmPivLN90CRjzji35/FWZiANqSDUO4Qr++
PVGc/xDyF/ZT1RXtbWs++by4XbACBpYuJmXRRp6M499lyQSI3eK8DzThnaqSn77x
zW4aQjglg8ExDb1LlBSmKbcD7SMgtT6ejZKXECrPjWJmRNV8JMI5bc6iM6bKhs8n
9rnMyhMvtFcj/udWaW6EaU0qORQVPFYENhesWY/rxHe5EDZrXHm/Dt4neWnVtMkx
aL1uS7BfZkC5PphMEliiiY59EoTTOhN7skAP7n9LEN9M6SfhyWKGLI52MhJVqfWf
yVTWsB4iZfZHBfcSJjFH7FU1PzM9ghW87dUCs8FvwA7Vbmm9z48FsZbn9bqFAQdb
PpFAk/MruRKJ9wrf/WA88TI3+AVmqsOy3BXX/0y/2OsfS80YUxXuISoIozr5tB/K
l270fCI2Kc7Fd+jSNk8j09qLhv+DZw7EDd0GNcyyeDvbfqqHAEKecN/WEeAoqPZf
WpmYB4BALeP+zffhMm8urR12GdcwpfUcY/vyWKC4q6TigDYxWuWxjxT/wjU8cgRM
BLXGQ19cN4OuOqnmmEU7H64hIpupXmzAHvIjSz8guMWamOX2cU1F/OxOfSuPMbAW
RG7Dvp9szhOI+LnB2o/FXTvn1RhFiuRYy2bwMEMs1q+lgN5U4+3CKjLCH7Gab/Xd
AcYXiawDpOnhc2Gnub632HLDjtYoDX/vZG8/4CNAr21wljGm1rYS4wTt0rRRJI/v
7Cywe8DPwzyN//pyNSyfUYg96680nz2q2ldhfDgxNsjORMMLWo3+96swJhDIBKxI
ZuT09b8vwYyde8GhEk17TiaQj2ICU54nOq7QR0+1BJIVycw1K3wzidmqu5CvxojT
uclT6x63rhNxxPd0ZmxZq4bhudCtLdU5GnfUZH8lWceken8428ZotN47VSWq4n6n
lWbDEfcxxG+oZbh+o1Xvu1GE/QIKLQbjnMC94y50QFgShi32GRoxbk9FGbxf2r38
u1KNaA6nm3DBOgYHTrBm9wKbCFkrThvRaRTTumafeM+M+i+Mb1jRUXC0sIbnpYvF
aFDt5yhJ7u1BxD2jRrI0JYUMuvCPfegENfvjjaANoHDC/Ji4joUPw7b6ZRrk2LTT
FPsEM42ot/NRefx20jgrUFCh32u4Yj7eQsZEVcdPLsJcehcBK5iLHkw9oh9Gq1Ke
xVFkqpg0ReQil491vcyHBx7xz8maO/HwXVGjtQmsgWthI31OnGXuFDU7IpSmbeAQ
/CUt8frRbVEazgcKrniDTc5hPUwtlA5cxuU53G8VdTrNKeT6MUGtMHCTzPWMIo6t
d4U1kIWemk8iZ/DUa8esGKnbkJkplHsOF0Cj0Ay0M/ZCKnp8TuZVJ1teRQsTU3iP
eHuWaZHURH3BiBzArPlWvLCTqi5V2vppQdWmhqmfuEUuCoJqzNOskJUgfDXPCEun
HAPC8Llwu29AZZN0dUnDgOwLJgvxVVp5jEYEGLnfHPxhLgEohPHmPOdDsPaejVGe
+S57iBGk4ZlgRU+6NtT9lcUwaV70HRC2HGsbaNyAgfCPQuJbgragmKikzj9AFl/k
RIAKfXOD/g0zjGZHfDJhKA+kNtfLDIAEtCcIHpSl9xWeG18HdpNwopYDIad6st19
Vz+th1NCaz5h49TayVHbk88vs1Cxs2V009nKnL/cLH+S9ubxb87R8zyLsbBuYoRV
IYNH9jmuIMcAhs7AVvZ7D3EVoKnci5BQgLu8WD2R/PT26wZgjGJr+suP6Rvn4UZM
j+X2Wk3y6NIboNVjyjkhkcmDs75LS8uP2hWTPfoHS1RefKEJRxg6TxmaI1wBfyr4
XeKEF8O3g2VJWke9CNKCrIYMFu/1kbViaYz/ZqFs6cEm5tEu5apM1TRbZP+Xv8iV
c5qsh2Hw/WutQwba5PYS0J/48hyBZEJGbDQ1WKmUd7QpLMsi2qDgfsVzqiGtTOgj
mYbuuG2DXSVaW9RXTfC2LjjnyTFkKejznW/nt5DHehOyoM9tqsmrCtQSeI/jMztg
Y3tSvbwJuS0DEnmib+zXZpbbSoOh4LSFAEyQHVj9nbsQ/sm/CZ75NvD9czC0lllo
6eYJNmlBvL8R+4+VHw93FCSr2W/PUIBFNMEWJ6BUEqvp4tT2f4KUboCPIagWVzOX
l2nVOYlhsLJkqI0yhXdDaKbAk3LpiZzgQMb+SGnTDnSMwCeTGhjQdg15Dg0JsPH4
aydfxWfXIcF4UuC7opwev2fcRQ58dxWY6R4AGJPuNDIs7HvbMDlKDkjuhmFR8Og9
UO6IE2d2dFj17uzWMvGB7XCSw+y67unG18fqHTUoYlKpb4LJB0zaisVwAHxylgay
pxSjCx8ImmvTTySD2mMFgMCUUw1A9SeaAUsEkyIGEXgOJXgsSOsVPcepPNMe5Ka9
ZwWdI1t5ENlLe2CEoGVDI0FzZLQPWDbAx12xW/gMM7gjbM1MeehcOTwPYxj7jUgl
oYhqQbBQIKlQHlSTcMTM5+fZA/sEMFH18d5Ouvw4DkvAQSgvfRLeIlNJFTDPAHfi
TK2NViaZztruQIZv3Lv9y2LNTmX42BfJe5SqQoy0mVcIQ/9QGnR9dOH32Fp3hW9b
TeAV+nWE7ZBEdIRGBiCVIr8aFZTEP4gfu8uSw8HR7MpEjV77BsCa/kRv0zqp1te/
nSUPaGOeWWQGWgnc+6S9czPaNbg6QJ2Ng4qCJ7d614XJUjWFjqyEUN8JmqyAX504
opIP7X5EPZ1wFRyZ05dBUvEDkgR0nP9PM2v7RjQlSZsz5aCpvrtCX6WNQoqhD7aa
kiCkdWJ/4QQKGcHPIXbuBuKuUvTUEryQ/50YjfPZp5PaQmrzKq4OZZWxI94Iag0S
wSeAgnyyT/DXM+iELZi+LXZO/+3r1OeICTsRZMBS/w7Ghhxj0TQwgX7LL7XI1cRQ
AGGh2adCCiPrNWsRwyE7163MECScR36iFj6vTW8bsLPz3M8QboC0n1+iA7dsyaxP
8ilncLxmZ+pW/2EAljnataLzvFZoK1rsCpzst/coZcqdi3kXdYzvwptuBxP9u1bR
JqJrnQWsvWRxD4ueOTKsXE4UBRk8s0+KJ0Jp/mY/jB32C2FlGRRUJIyvO3FSqgq6
IMU1V3aOI3/sllo+IjhunkdKT/GgfjPicLeDLINENBtO/Ozf8KNYvnk6cCyBn+zR
XBQ9jebgiqZjHdkNJ4uaKqmxmh2jVnPG2TePaXhpf78DUzqSgnJ7iXNIbEyiMfiN
LpSLqrS+H5jR8+BvyMq4l8Tsm/e5KjJvXHf3Y0w4aPn2nIjJ/wVsE9SR+4SVMaUT
bA/mJdtkNV7N8Yjht5p/ejs2av7/82mTWg/3dZfrWx3kGsufrz1PWASZEH/erSIu
Q3ksJbcZzEJ1TEeTcPyufYm/ONIYpI1vM/sDWfO9R2ZMEVKvIiuVQCSZ84moSlE4
wYK/VgzT/BXvr/i5onNQB1OxKM6nQhg6LA/iY7+TmLlbT/JgdbLVqYAVVNSJZhLu
7v58dsl1GR68VjMzPduX0kB5qMTag0UL6qTu2Cuvq47Xr3uCG8ENxO4C0GaJpW4x
SkYy/9K+9OTzv+4C5jKHWE1uIhjcVorsavoHfG3CtvpLdSX2F4wMf5p/DkxZo8E9
TTRZN+E/YgT4Pr4YIMF/ehjJI3UtTvVHPtI/sp3ly6ck1UDo8rBlYsQA1j5DIS4V
Bba19rf3SzpoNqK+ZdORCY7Mi2NaWB7kQEtzXarPjQF4TTn7LE2BiTeu3q8zvQ+q
4X6oTgrRKBd3x3vIf2TkwIhKOeKjYNYPrEr1TCmDisLWALuSpDeFe1IQrKhOd+wN
YFTyHSCcvO8jOmJQ3F5/dAH+1bUaOpCG8qRIRB1c3Q6lnUcJitPym5mOh1H1OLdX
OxLNjZh+rjJ1iigy0zOI+a2ViqgkJiBENcPx2xyPCsYnwLQkeJrsqsmbY0MuhzTd
duubXmZpyW4X5W1d5Ee6DYwdZc9ShM8lvV/eoyA9cF3nshHrp6eQqOhNCjVWw7Eb
iVrgTGdbOMMhvk1JmTRLdrIfXpwtIAqAuaTtr9mkC7ju8c9sgbaejCQBIPclB0CR
rIoaOp8xEGJhyjgaWR63Uxj8FAmjJ9UlEEba8DNl7TuuJOLGt6SIGFrH8v9lMIIc
z2Bha9vHaCgHn/CZPV77LYrYCtk1G2uSv+udsa+Q9W682UAzfy1mFzdkxTTFbE8L
EHwQK/q/rWnxgTeqghTJYKXpZweZy8prRCyIB1b1QKx1Z+VRggbkkOA8JQLuBccP
uQST2MgYTSS8KYEnZXMwWmguzRX6fVZ3beM4styQYWo6kDP0BWzGKMw284ngXOYm
0bhk005rTlPj9z+6JzkO4E90mUYs2sEq3W6ua1gh7FtLIHh57GInrX3gRK/Ov8gZ
lIhMhSe9lYgfLrVcl6DNaCYdxFpthRCdYGoLSDddM8UVFBvknvh2OtaBpdU/Wr8s
Zj/R8iTzq5d1MrBnvDvQoVBB6wiNngnIm1D8FzCe0AVZ7qZ9Slrk/IAii8kl7riA
T7XfEdfIa0DzdWb9y/6Tsa2HRomAFM85QVGDa+mrFNnAsuozF21SwH2BkEd+BgBE
/trtJNvARnjOOOZF2Xjuqzwu/ulu9/8ed9mtbyam+NEdlr9BbUpVrIkyrwJM/WCa
3GAOeLxjdXspBCAV2qC1FUvfijLAvMo30GItEDyXr4Ud3Sju7zmNjOsQiWfnonsq
jvub9ohGt9Ed14jxfx3GENqV7DliHAj3VrOWOPTBxG7Hs4GkTuoxdg825KrxXCoB
LJkuPhhpglphxMB73g1uurF2FAp3e7ZHXS8M9UYrKYAkGX0aowvNjsg5t4cLawkF
U+xEvCxpGDgnR/bwn81AwmGBdu8Bia3GbCIMLZgd0a9pNV1qTs9buVGujubn8Oqc
7EAsOw6B9TfLzPnCfkOcXZUBuqepJ0Gqx4rdRkPgVWBy42xkTng6MWjkpkVCJsAQ
STBkpxwI21hxgy4uoNk/G99ii2WqZTP7IpxCPZz8q5U17ocJMcGlZsbwNeLkYCv5
F1YqDyM2yQqpJcdr24fSTRqzwymKawRPMoBVB1AFcnxQJM8XXqPQ+4jyWxDRpCDN
pefZf/7fm1Uqkbesd98lcFrVa4bfLZGs/+PLLDOGS589vG5GkU0IUdtaqxDkpU0r
aSknqTm6FOGB5FIq6JSyzfjgAjCdvF+ENgp4ZY5EozoyNKOvVx8HOUORbIomCuxB
aRP/mglewg9V8kj72kFJD3cjeTWYa2bx6uO29H1TBOr5N6y6JcGhCWAz5MWhgG7e
GIBtJQyy3S4aJnaumGtQxVFFsuYqoSQkIMol2O83CnYdGNN8vAkNPHDTmw/q2/dS
vtKVgHWWwBaxncmTP3jF53xKs0xUVv1PB8rmZ8UoTuLVhyGfFJ12ZEnR1MzTyeCw
x31Ofoc1Z9aE1evDjIupt1wz0t7+a+CWAYW5YCOZzdtgdZ6xaOoJ7pQ2FtUW8keK
3JQs/drtoP3/cC6mvzfMhRD0MDKXHLLuFvbHBxWFukCNBGX9a88RvuhtAq8wwMDP
IQTVxLFg7+4zbA+NSPuWOiy4sccX8tzM2ZUU6cC1zDHJLM5Nwdylpis4DJn7DCuW
+MK170BCpGPio6bmCTJaQ4+Wnk1rTh07eNIbV4qU7xLn+i3ckKcUTMYhihlTlySs
ti5Pq+3a7+P4yugemi8zq5pwc7MLb0NBgDnpnP4fQfTMTb3mutZ/0Mev3NCF2pPf
icA7oKlrcQ4H9zXWEGMj2XupQigyaQY+VVozh9oI/05AoqVPF5Ir47m022pkjbhT
kljNho2bjqJXWLrxk1JsQsrX5i4EweGwveE/lUeuJ/XK6NcHsyt5JgA9Qk/JpfFS
3LEHVIi4QkhBuYzio9CYuEhAZgvGvdyUvxBnDK2158PoVRBgg4HCPwuhAI0CCMH/
h9z9iyO/jB7WL0kl1BZW7fAczAcoichgxbNOWqNK3Dr8tQ8NxuMernUyxK+Z7XSa
3TNs/r9RHLormYQFUPqPQcnKV4azY2Cg+uKw4hkLb5OkGcoS7TUJjYk5+O4QjKWq
qIsCVxyPz84AoJ+BrhEyQYuSZ9bnpJNWDPtk/89Sn1t/k9EiDYky1vHN/nuxHYV2
llbkLU6gC1aWhUENLlW1pmSqRzvBhT7k5NJGKQP4uy1zzKA2g/3xCvxpXiF9YzYm
RCQC+6LEzq/P0c+NlI/HG6/EdUVjzKn8vkOL3mhWVBqBl4USogqp+iaaQ82jdN8n
3t7gdXiSc8IPpGmMHMHS3XSCi0rFn2gOvRXJM3+ILpjz7mm+uGvm/kYRbMFbhrIt
3kSO8+MX9LC2Po3YmcZRm+XFAsFpnLBJgbeJcZLgpAeMSOtXD33r7xo5L3MyBTtk
KWudjQ395GqTsp7MhlLXInC+gnfyPn5ZaSxi3tJUQyLTd4vBk/nWplHVGZnKHc6B
to949oZiksA9VyzkfT/VYMTlIRXxl0j25j+JhsF+WH7Py58cYw6i3N/cWwvTSj7v
97fndLzTMsIV3QcLoOYVWMwyBR6SdbUnYZt1ydJVRVlH/qULYyS3z5IvEo81xvXr
Ycq+82tRRLfFpNb3weYP4dD8FazA7F44ovWhWQ8pf6wrawI/P7hyTZTO2dlyxjdf
4MJNvrF0WQn50ca1SOKB6k1q4K0txNDWovMpDFHv4KL+L9d6udA1JzRXz9Q8avVj
pD798jeHnrZgH6EsGZAw2XeriQ6cyHD6saHwy+OnM6+qhF5422NcP7mqakPoiNkU
nDSm1GHgM0R+03O1vjPw7Fmdr+ifaK82lvNtdts+2tjkqks4Omdc1rAqlQz3gUN9
H5ByunA1kOEIkH/ISiRMg4/pznLGNgJ3CJ4DRnhClezCLAVaQdFA599+myDwz7sG
S03S0bHSp2Xjvgy+grie7iLjtYmI+9R2zGDnzgdFzF3VuItkT+R7pj3KW3iAAt/h
A6o/3X+k3fDFG4Lj1sW4ciXSL7AjYhT1ftIVTzYXsiG0Z6KPluVO6VDXKnrnbsT0
tRpyyj1hQcR4+FI+8xnFBm1mQypmdHe6xyVbCgYNqITw/8q3hjvmcCzF8HadWTKz
qd95JHNE1NGlk+YZTLZ2H4NS/S0K0tUPDdVXN8BXN6tKUWWM8rBobdIam24NJY0Y
y11+EhCGljKewQS7MOZlOmSjw6er8h+Sgc6W4YvGaNqseH6rhPhSS3zBqzpx6kxK
c6+EDv6x8vuC9M2XeBOtffeTXLhR9JYYUYJ+MhRA9UaXdcMSK7EOczJBKNW6dvx2
aXOM//LIDxo9pbwvnSsJ1bnN5iQRVZpBgA4lj0AjpDEcQ/sr24q8JlN69w+p+PGy
UknpORQpHHTHGi/hBJmULIBeMYXvd21rGXbB1sgYhGyXxrAouJupf0wnHrwP0M4P
uVpENFZ5FDBfm5uGDBUfZYeGKxqfZk8d/dWU8in7CJgBnjxdSDLvyjeT17waG+pV
O4qHvgoVknD6IiaDMyqsjasFpClE8zr1GiXhgbK/gep7XnbL2Nlhpdw8w6VEsDBh
t+U+bJYjjN7XoZcd24E+s2vxZQR+QFuiQqNKTjh42JNjspO28lUKWFcWCMgoXyoo
7zwek9SyaDUxzX3cfAHWsmFxdNWcOLhopqmCSTNNOzzHkKL9t/FGp48RlHqK6hfu
4e78OQsiconDV7LLw1nvf5rF6+syYcGuvYqWGuGXOQ6Endyc2XgPEt0quxWk5NK6
bOSRKufbXBOUuf9fHn842qB+13b6wWLzDc4sMFadV8kIPCo96DEHaAWXe5csnC6S
AoBbRHDM9US0QtfO1ClmIKjCGwMr/5AeyU4N9nLmUCQQ9DE9gEWID86qPQKEFPlL
KWAL/sBkZoOz273fuX6xUtr75jCQJsTcQqhTrtrlqKZYfkKuECKpU5oL9e+6ZQCc
pgtR7i7NwVepND2ywnJLaqbHpF3FqU9EGRVK89aUy1bPhFyngN06xgK+KHzbxZJj
a9jnr0M/eehEstQtJr8aRtUfZL4t/n7PLr8RUXbzPNmubrhRwBkB1ZJCQ0uYif3W
EHeEda7u0W8KDTuD4g7enQRidCb223Zuia7pVnTPKbsCiK99IerKX+HbeLSxVGk/
FcfenrRW76+nz8UZ245aFVdVkJ9gZOoJpvGHwsGUiKU8CjYrZd/CLd00FGtuFLid
9MGW4hsMGFHSjSoeKqOn3QpGAXX64LXntdbsdiDGmtpEcMEC02T5eqc0GqLkPJeS
0Ttgm3g+d2NfNKlwk6u0ViCU4iGNiXPj+IsTDtM60bA4fgGGSiwAge2JCu62ejel
xaVNTzKpX+quC0b1G+PSqxeXBW6QfqRJp5NT/2g79IxGytxXQAUnW/IFE41jIu43
VBhYtRNKAW8I3ynRx9m+vBHwr8mruFr0v1L2/icqE77RtuamKnq89ybr/i8evB/M
zZ2T9eC4uVXFs5GvgZumMGPi2YV9fZdrx5TN++1F14A3BOFfKT7LvpifKo6i4NN/
+gHNk5/4LbZ32uC+c/yx/10apFKXDlq6ukasP6V+4kQiUlOqG3z7gFKZkZdDaqvn
MSXY/v1N/G3XLs0Qk7sDrdgw9agONA4QL7zYWfxF4LkFLq7vjDsXYJTZFizdc45Y
CpUtABdHAMFcBGA9SYk6rjJCiv2LpFJG9p9qXSjEOvD2JalHhmkF/Aa6DplqeMlX
k98qGgJ5e0IqescaxcBbsb1x4uX7BFtXPjmeSMDZnmSMTyZcf667J12Ih/ljyww8
VKw9hBbH1nZ1+cP/D2j5NkBC9YixaGI4TlTjgKtAFH2L3HExkQuvHYJbnVYUtuKJ
r9e2h20iP+SF/7H1h+TTI6+qjnqQxi1+9Iwn3sqMFvoKisUxGwrf0DgpyBYaqOni
7gj9r90luZOh902N7h8FC1LrJTqrA35uWIOe4YYKLqSo3pUnz3wy7WTkZNZx5Iqd
/rFE7DT9D8HBBkhJe0oXFpMFQZYY8Y9If7FDgJCd9pZZ9MQ3e31syoOUH2tHVvO7
4LlzVgZMjY6wE/Z91Jg+tgdTnxtEmHxkbAMcKborD3fL9pLPMWxAwcKBhscMB4D6
OK1W5RoVxKJ6EN483Er0ahqOxBGSnN302rzxsIDdk1jdSaCCGnM8VFspu4TMOLhS
UDYBTeOc7tVVENrs75Udja5RTxur/IIlZ62X/LhzYGgBvez7TWf7c7CiZglI6P42
2UJwjJ1P8NiQIoKRAvZbERvRka7dv7PxAAleaboR0qylufV5onHVg86ly78omWI8
kEtI2NnjRb3H2jnSoUGMUI5EARBY4EHToL7JTAPcBVeLlGwkejryoGPqJG+DgmVW
CoLRTYPVIjb4cBKrBZR6GcjsuZP2jDuRo1QJr/p8r76vCxIBHPtBnrTGzZ1K2d7n
4BGYuP/3+1EEUWp0o/Mg7YAbSejhEi6O9RpL4J7om+nzCREmNFeTeSNErMIT+s0/
WcHRPiIy5qHHHaEEWdbmqAqsEX8/A43jDprdNfz9rRG6CM0Ehb1cg31thJkNoY2e
XjYCow7iYKZvznq8R7MZwMwNFinhfFZHV9zf2N6U5DCWpV0YsuutiJ8L/hx++PXy
O96WuAUglYYXOtbbQdAisbs+Y+0DiO4eOTVD8gpt/b8ZolX2GBXtd1aE2ZVRp8Vg
L52a7FyifUPARoTpWJ9/xTOydzesqBLuCzRJVicUb3FIWqpOi79xowSm0bNEagIN
UB6Ypm5RQngZG4/nGXg8PKrC299cXwLKJJWaBk5dPhV2JyfknK7VDHtsmI5X844/
+hpYrWG9osmnUDKE0RtoRbymC6APKzDn7d+7RfqHtDAnS9mLvd9kHIPQcuZthUw5
gAnFkcDIaCVCbaBAqZL7ER2+b1lqKX1gbiwQwftO96/+HqnUVdu1TRwBSeELpUEB
8MR4syL/4Ye2e4Tcx42IUUYqR+MbsiQezViMEeRIRE7BJEtUEhFLXLCeP/pFV1ye
zYD+LVnzWhrcObd5DKtsQn3FB34qbQy3KEDVqjvDoJOuC9yM8+x99v95KRVBopzL
FwK90vXW6SFg5l+zg0g28AWYCqWh94iwhI62A8JaclLIudA0+IO41MT0tWRWyc4i
wk1YZcilBa7Kb0lZl3JBDwSztBqFUexun4R761IMem1VSmLQtiS4B+pb3tlfJfTb
8xGquEMGBG8VZKhEaQwVjX36hjfsK5ariG0bWAmjktUwIQ4uCqIURnMmCRqu0mMc
CRD8HYrzWY8GiPNOc1eW/GRADsX4ZhiPk6hHMbfW1KuYr9BiATfmMOQQfynlT9nH
Ulv2YKU/3x3tz8FHIZswhJYORQQFQ1mRWGUQm4+sJKeZ/A2qZ7G2l5HMaU8qV4Dz
D4q9jZCLxh7Pi4JdFruTx0nOefzXhal6Yy/sYOp9YjZq8MbC2mfmxKl0B2TXcPg4
c5X0QnpB4jP7y6Fa4zQWZn3g7vJamhQSzaKFxfuER9k+p7N3a2IhOo6pmbr0DKBU
itTeYGXgIamrYvHvi39DhkaV/Kap8qWZTaCzmWJN1hyIXDKJfzddqTmT542FkDFF
QwfRSS0CVm7ErXvfZ0/+Ryh+rfGXx9+dsXrGkJZSd/ot7K3ptuclnG+pjW55uNqL
TCqYJIst6NR6w5Apip6OjvCTEQe+KI7zZGmwscL6kpOBVv9kZBZfXRgMM97DxQcW
GH51zmEupuAv5ThLKEU2c65hkSS3YPzaPR9Nk3dAd6Zkt9/iMpeUpNGRI4p0ElE7
2spraBkAneODpPiAp7fdNu6IMPQZq903/j3REf0NfbTn5qBgc0BdMGg+FDERmRRg
ECnzn36wkYGdKGm/TiO/krlY5vNvk1eY5LjhLN7TqcnkJrb8RYSbJm+e07GNPMwN
44Xx50ZwLn9JF/efbEO3H5FtsRcx9LHjAXioUqNAafPW59Si2/bbCiUob5jlQS3W
36yIuZW9DjqCt3qK2CNJcUhwk6KsXuLempWpcW5lx5Bw81EfpwJw4MYSNAgPb5b3
8MrdE4YqZCrgHqkjFWw8pQi6GTC4P10ErggZbWDwc1Sr4ATGBzQ8ri2Ky6F6v8Wc
2rgzYw08l+cUtJBQNiJITbBU8CdOadEAhRxGbOaVh0TJxQS82CPM/e4cKP7vJl7Y
78lt8ZDxXX664iLQveBBoa6dfXO4Cs5q7VS3QCEV6Ytp3oEKXUkeGP6RJOgCUbMI
LdxrWJ05Sv9+QxH+yH/RkVH1wp9kGUKyl+QKPHy2goFOF4HcsxfitHmKw9abL/V9
vN7NpVYekdTrk+tfbnNqHcifwbDBJgOYJHwLSMlkniqp9Fg16oVBJXOj8+NgTRzG
z2wWvjgpwcvXQGjQfgaO6EdyUu3CD0Qi9wGpullYIhmfch4mLrHeKcDXkpjHk+RO
b5UYhLCVm2Xd863H6qKPtCiJC8bRrldgCcw9w1W8WKMAlVi9uqTpoQmBnbzh9zLg
jCwXm3h6i9bErjLeBlurP648jZjKyIE6FKwHH8U49QVKgAmZfKiHWFXTEWsVnukn
dTrx1ntP1QeSo869PYbjic5BaZKaof+jekib0uN0+0X3SGApIlARV7pTyGasmHYc
wWgOfP67xOU/mH8GbbjtdIHnX8NHvrFxN35UW0WtU5WvCgfSc7/LWpxm6YtdNyZ9
AU3eFCOl10y/Q+SVvkjpTtcYaUBvyLkgX31MBys9uAHhBRE9+SH8Hvlrzvo+v60I
Hp5Nv7yrpu9WZ91Kk7KP3rPeukgxpBMPkkz2n4pxTgQAJEU42rd4+NBwqQDxegoA
JjdlfC/uNp8SfnyS4Bqeho2/vAe6CCDtjLrgnsGOrfVfMfqq0kVdsaKXaEusZaxG
CMiT0+WvFxJfVbaX/rX6s6WKkJg23uMTj0CHtpJXFtw/bFcg1HyHZdKoTteitsoX
6t4OCaJBXtEnGj7HE32HV/iMHgaNIxtMiwN2sm07rL3zVpDAIcaR54UDqa9PxWNg
PE1s3PqSY/HBjXBXDOAdFOXgyXKJPiR0ipeZpWo7oat/mMxt8rjnEPkU1PZ3qzn6
RiZRzTThbFgkq7KeGNFC06f45TcwqBW09+aN0f/PE8DPVyHVx8dRfy0ViBAOxF+k
BsFRJXNNLDURaH1ZWW+38LdKsXR/2wpBcRzT63axKnDBB0RLe7mzdp4CNd2mqP4f
2bnw80QfDKoyrvym2RJBpBLhsiJwx8MaJuim45K+OrWXvFl8A3tNEyFSTOPZwjjJ
Mo8YRglDRJXDMM30wskIE9rcdfV1iZlEhMkIbWEG07r7mYBMBfNsSuRHEVbF96jR
m/kJZtiCV9why1TiIJ0vhDW+ZdRWh1q2ydQKcEWlH2Y7XewYbfInlM2S1cZGeon8
mxviiYMBIGChFaY7+k3VAwNAaCPEui8be33Pflc7Rh3qdxdC+cREhdzpTst3jgbC
BFf92m3+WsxyEP9dxby93JHwYaTBsKY91KRUf5ux2F/EQ6HMOqGSR0+aruh3TPY4
NlnoZMfLOrJo00ScVUJEeDTL76WLzE9fwDM8FCXJ+MEJEn9Kdkkq+qDZwKB1rFqM
C16EHK8SRm+yR8Um2EJJmP9+d44yEEbWViOp8+LekL127LIT/5Ls8rHb1K8Oj9H0
+bm+ynZn/boFurcZCId2+zIjP2wXbUXGPZrQEvcMuqdnTX+YCgWVX/Ya2y2RiO4G
ydsG36U6b5/KiUAglewv5eJnKiFxC4JF5Lv6PFA/wVw8x62q4GfYh/1uVZsjzR8K
t8rczJtDz7+auwe8XdED8+1tXLWNrJw5w53tzDnyWC6rKNoLuRMd/T4uhOlIOGhJ
ISEg3wQh9HKpFgWrrjiIdcQNXPV/7U+3FAmX0BRL9ictWSJyjMOuSAvPEU/L05ee
Al7/myLw/UQ/ed+zUOpUGhXqjQCtueK1fBvn50QOG1wI2wgrrqdcX1Mw3sGQ6GTF
Xf7bLnX5ZoJVCkdtia/7IFIdHLR71vArw54Qg6FxK8BFv4ICqtLD7wD2mGHKOlCm
QgiunYNRKBkGdZ0UXf/BpTODJMAPIWOaYl1W+fiF28+gY/Q232YOPspsc9PCZpCd
qISQxHa5JpgliwlKjB206StB4E1MJvwcZVfhZma48cBUKFp/TD/2D0lSTlYb3L6X
pYlKDe0u/27Ek+b2JWaoDdGMYo87rrwlzxLURXPe3sUyxiLJtj/fUCsbEDEIcE/c
giwkSz2iV/HS6Fpr3LWrI+S+K7AAkbepuv4oNhLQS0U1deBIVJ51hn2u4NK2lHqb
WjU7jKczz7DlQjD50t9+5VKhzz+BPzwB9MVF0LHfEmJmuL+NTaJgzWuVQhU+kINQ
sD1TT4D4jk5IJ3Y+zhbgvsvF3qfgXxd22ze30q7mNMrS9re26W4I4EVdYve/bgby
SFvhraSPF/irCtGlSVu7+5JSQmmFZwsGyYXnzMiAyE4MPHO1t+vSNQty2JlvJBQh
0T11FrIzLRxkbxom7+t/xCbvoP594kh1weppGx2H8zgU73dCuCY4qOLj0JCUM1iw
fLzQvT93Rt0+5xkoJcmqXHtmTQ9oaC4Q9Tv5Y8JO80aKXPV3HFe/J9xQCFwzkkds
JoxbhW/rO1yj1HldqYh8s/KdXS1JSOCJjCVSmj61UrBTckKpxa8CawTYv/3CobGj
b1W/tqv3JNs1mmMRL1J+kZRMZSJsn67WV87ZmW7NA86GzSGN4AWRld59uKDoFqz2
9V8/99ftux/jpbvMRp67DLpzN3/bQ2/if+ewY0fDy8WXh8GwoHwSORmYB4K2OomN
GEJ6ncetXdp3pa9dZyDjMYJ/sksKxvzL2VtZlEBvAhuQTz5ay+5YbQj7+rwcAbkp
xcfujd0/+2b3r55GDboSjXHYuZVKuEc9X3xZEPKSI546dnMZm411QpEisoEG+8L4
HG51TsXm1EstnWH1MEv28ZVZG/07FQWxdAHpreSwplQpL+Q6EYbgpGRKkRd59SE0
V1TqV6Fhf9447LsQhgNkFR3vokekgOzWpg/zFI3n5VTte95QU+0jvwYXsAa2jdDa
mvVj1+nX/l4zsspX8jnSPkEoV2h33hLcrDJtRgQBXQRo+bE9FaLZs8qIU+rMQxXH
7Nbrn5VWP9D8rC6XhFR3cWuUPB/kY4dCN6DfLdWNF/R2uM19BKfqRm9Md06qwwwO
+9Ti2GKNUQSe+5uBXzrOMus9tij/96L4rpGAKHv6WH9lTzjINwf8GbZR7qxnl1KJ
bhtQ3+Onu2Nc4WFeo9MTb+X45u1Q8+yhkEOe0verRag1fb0P+c9Jddd9lI1UXx3A
d0oihR8Mw+P5D7xFBHcGAxoW2mcose3rOKzh6W8rJtlepUh0yw/Z0A3XBhFmUkBO
f1mlGt5WHExWMudfcjHY9b6BzCDefEQ4ZVyrp37sweJNf8VxrPW224crNK73jFMa
dETSN9EiWF+7G9jUUKwvCfjcujDVeHUNTQWCf5vxR8ziwS/0wDNv7G2tmIdiOJRk
Eq0CN8zhYKeq/ENjunBXZDN9bV02oUenBZXCwZPG9nKapHXy4hWe8TGs2xMKPg0b
2DSpu8q19HgO7WNobcCX4wFE0CMHj6GehPK6/5VPXuLTbJ9aAxaeOYAbm7bynuhm
2jCu1fsEiERp5WoKJ4R7ivTztCJjbeWTnv0hcWQkqtpx0+8GJKZRuqANuBN9hmiU
CNCAOp1y9syI7rLSTj6MEZGvFbdrv048NRI8r/JKLW033bwN6/0NBY3YtJSjoTDQ
6i6ckQnftDg8gCATbX+g81zFGx1H6+o+7w7+9vAyRLWA+zEQVjcx/MzUnQS/ppbl
a0mVS6gXh7ZErs7WGyS4Ee5klZrDfO5E1M6fCXxgjzcJy8M6tjSSmUQzeY7+U0TB
VEI5UQ2diNdhWfanCCXTVfycTcPOJVZmXg1s8lvJJ6JrnNDb16MTVM393XjgFj93
2/0dS4UjMbtm+EK9roRgc4D+SxHv+RWRtUjsHQf1JxmP2NrKGqz+zDPtU1tIfdEc
bUzNji7hb2jhIRKv/JoUQ3MH0e0i9vIcEQOa4KIgVuoHHDRgdWcioy98Qk/2Dxx/
H3Y2rFBVamlD3LeT/MHBLvtRYg6li+PBaRgqsoEfd2DFo7SRSbOgZN4JIWKpQ5Zu
Qqukrdm27x/m52ADwAhZ/NK5aJwh6Y79FBXShJb8Cytu+J7t6Y7lzkIOveF6sDne
eU9WoeTyMqzMoO4B7TKLzcImY3M25mrULKl8jSbJXcd7Mk5Ff/LUJTeul+KaW7iJ
SHFy+IjdTRJKw7AL+cvTOVpJm3Gv5+nAIIWd0aX2kyNDyb3nXgNwsDcJefZsWi+0
WN20EsNo5sExSCZScs0tgoUk74fJukLQMIDu3p/QLU9pQsgmfSc+GT7HYihZs6bV
ioZ1nJX61e/kJLZtxptD9mttUy6S6VZMEwqeU5AmCVHRuoRsGsjQriBDRGVqRemJ
ZRlw7KtqdVlf2fuX+ALfzX8J0TRiBNUSeH1LziPVj2+L1YicAslED+rUNRqKztLN
yzMFHpoFklktWTFV6DMhBADC0YN1qdXmdh0OK6rsEQk3JCS4wnWy29LAm60EFKdB
Qf5GGXwHuaG5qozX2bUXxiEXPddqVA8MHGSWJBcpjng3fJ1v/VnTX6smw7A55K4C
IXbk5GEsY6B0c+9keQBZKEHmhnFwzCcSisZ0CptGSdwqP84j6g5b0jOc+gSIhoGn
hjdtVtx7+E8xwR860NIImb4U2XYMyFNraTVSW3/Vnw6AhCzDcoaigjqLXz/mb65z
bJZ5dLF+X9VgHnqq5qkbARZXaw4htUGrAh8T3d65ldtsKbTcR0PgjMQmk2UNkP6G
zk7gU31VNT1IXS/i2W48x7STCSxgjhLCb5HI7g0FMS5V+oYZA9ezMu+wv6Zv8LHS
1MJMRNbqoYuCVu/KUIrlI0chAkEIxWeiIcrl7C1Ao542ZJ8hvrMCyOdjOUkKWjR+
4wO+udWoPLBHM4BwH1Yck1JhYq5QJ7c9Gy5h0Ms5EUYJG8k0zC6Vwj+el2oLMvYr
UR+TzTt97tzwKwWiQ6QB8QyzouwdumMmcAj59XYzrVKIV63FTy/cx9C939owza3C
D0S2uWmle+mhrCO/LgJt4DA2P/Zjce/y0tIeTT99pwLP1EIr96nadg7/UpmEZLEf
0YUJA+Tda0+dx0iIDP6dXfQe3wDYjM9TF9mcp1lv4IbRCzO4rXNUfSm1/WAWO+pZ
kY5jstIfaSMgdbvr44cDpCHkX2xMvs/4T6oCBL8bRQz2Zv2BKRULkWRNxyT1+Z6e
Q/hNO+yPnPO5TcpRsCNmUExzEwPEZWhVn6/SpRZQSQuQSmqdsWu1uK38ebOFUwE6
vzanoN4KXi6LZbhFWiak4NolYfFdD0KJ9r4vtK4NcABMv4Vp7HpDZmS3ZFh6xfLx
YSkCPr/vf9qyJBjdPedTLvAbh5/A5hOV8waqlEhMsG72bUQRMcw6Dt5NMcE6gznf
XtHT4kJLvrCK0pc29zqzKQGzcXqdm0jYCiQ0DzsqnKOhdmLAuhIm7PGaTzE0VsZk
X+jP5kRJmwQ6sbxBSJNe69luFwxvgWoDtYWLwf9jgErEdek4WVRX4hrl9CsIPpJ6
KuW3d2IgEn0t09frCpHSBu/x1nDbKsEDnJudHgJdZtw3rl4/nuPcy+goUIIAJWSp
P27BjnI7FKd7ltGsW/7kLMDOQrNabWPSNUXc5cfH7BQ1MrHW0BuNbJSv5MINiX8G
uOfVgS2FSTdFbWUqqNmJJWHOBSsinIA6OLm8ZZ+AujuzeElt1d8Van9xxKesF0co
9HYNjT2volLchVWtCv5zUdhE79iWk2RZ/gNeXqvVBC13Zpkz55iowWhTSmrqnXwE
GrsAYtcZCm86uPWxeGuf05K/UrYdr6ZokmgiVl5wFRUuMH0bCwakAy/HknhC+g8l
bdXD9gGtzt454gMMu7fi1Wgb5PLIhdU11dDicHVMYAmegRJ2Z0dlhwCrSewMybEo
bFeCp15GxtBr9fhL9eCk3KThuTznsmOG+E3giYy9fMbXZ8vv5BVl/X//YFx7rR4x
9Uo+aDYpKkNQI+gB/F3umyRei5dfzKOXb/rFXbIfWnKVRu+KiouWxeJ2//Fh+wfM
EetCu3arwnd0tr/H+SU4UcZZcamJYEhdL6Le5pcIWwRyXLuz+QyvrZrA31SHyMAH
NEwRO8aod9NXgRThPZpcNQAUb4g1BDlJaE0OhN7veqp3+sw7YyodcBOOc4klFuB5
mYYCaLp6C9I4KDrSHqxtYwO/1HZD90RFzC8kKWLJYHX/TpZltrGXKozwNx0nPaNw
cjoUOoelF8T0Mf1Mz36pQVnFAfht/FHsw857Fr+/fc7U2M8fR+SQcZ/ORNq/Zd6W
5dQUk0+Ek1q6ovQMAbbztNjd7hsdZJom7n4QzYbal3+oGKPad8t9Vy2/jFB/vhjX
utRlvrii4yQh54Qj4Paptb19qStiHJrOIlavonkmAdjQIbynnSLD0mzH3cm88809
SQDbtQnNz8ldy7RI8TnDgQO1bzpIaXGRGwNMgM22hhWL6i3WLxHCikyufNf1Ft0+
8/NLFoOthAc23NVMhetOkshvKbQ1SYnyusSXyFxdbkF9+jbRgbG5J+bbJxK2j/6v
fN01INtYv5qY7/r6WE+50fwtcRS70FXUDSXSXBOV7C9Y4G7X9IllhgaqZfgf6aGd
XIS7kMsqMluy90GpygmohsvXXq6hR6RVb6BpHN9TgWYcQwny8Qw4Ozoi/lt4Q6pD
5bF2MO0xWz3J8aO5pcurVReudmu/xetPRZjeYx3r0iw71Aw7OXkXLOG+F8UeN14k
tQzgP0H0rs22Va//Ycltb5woKavEfngZrTqUry9Xilxgz/TPqxtWf+UUf0w6RIeY
TNuAYq8rtNvo1GYFQUQKhtMp7BgjaW00oCSPTLwgycCbkqfmZYPz5qPuVfgng/kJ
X3X0b3BkbQPkTOhbqyaLEjfSOFKF+rYdS50in1InkZ3GMjmipmaPUAcWFGWAGgJ/
yBF/KtzYAw4GUxJIVJRNcQX5B0i2cBEWhfm+PI36++r56t+fcTgvRRjdVSjkcEMR
NV0oNuscMB1BBzzr9f6AJ2Vl42QgTvFs/B1MN6amKS6kmee7LKJEdfNuTN3x1ral
fkkGFgPXXDZVgIHVNNlzjaGlK5a5P8ktv2XrDmYqtz802DiE3OYqP/pw0OpjkBZi
zl46JNbTddMpOctLgOk1mxI9v/XgfQU464vedIVpUGT/9xskHDIBfNcxDY14KPKo
Z1P/LGzhOnC6JMskzRIxvyNNpIJw8rZJNe3dVoSBwdA0BJ0RIGc88+V8yJBlEaO5
RfIjx+t99MxGp6ppRi79J7i+24Ey9AJYGHrBVdS/XyM7m7+mQCu6NvBkfWSaEz4D
mo0UWMbItdV6plW+O5d9dFMqPX7H4h+BNusDEdboS3tC2YC49PQDMuvCbaw5ZJu3
7kUrpQwyFNNlBdUZzdf1HG8GroOseDCjrTWP9d+YXJVhghwQDnP0iXsznVmECYi9
84LeMZilLCFmDNwQX3i3CfsP5fCpj3GF1jTJ3gt2ZAbM1InnvF0YXWWz2cJuqK+m
AvrBi+RWYA/evp44XDilSMZzIMsSLyjE9sO1QWQRolxpAuvjlQvHQlqYjBFixpjJ
Vv1Tv5nXqW3QrCVJ3NssbJ95XC+L4R04H01uJGaQIA6T+GIkhvlE5lykcc+sNy1D
yTS2Zl5Q3pDV/HVivhfF/p5/ga8eoIWo4K9AYt6qOKMfw0QJwC/ZvE0MGzmDXk8H
uYVTC1mC/T6HL5ziz3XMjxEARXXRUjo4Xn2sw8p9QF6a3qa4cIeSWk0FNqSuYo5Z
3sOm75BVHyo/h2MjuzIKYWc2islbQl6M8Mz6SUGmpVd77wQfrNwsJW+dP+Z8AU7e
SWJ0aTNhZiZu6ubp0LaG8AORbq0SRnQlLSED2pRVU9GYiZO24QCINSVwFxxKzdYz
udlFRaC595o4UP4ZltkGxPZliiFp4qLP2jp5+hDYc2m4SyAuv/+LeUuN5M2+aPc5
tIfW5F6/rzGrQYZ5Ki3+jU3JK3xxMiJpCQ06Iqm4zpuMiG4c2SLH+InKGcKtSqeL
B92iRuHhAguHzn8DukxOuZ1raZXeaRzG7euPM0oxyP5/T1vpujoBnLDf/vXm2WHK
xhvsd0i2hMm+taGeLiWI8fnAkojBhfFk+oDfQTEeXNXD8PvXCCroZUcMUKC/AXbx
MOK1Kwnh3ym1iecJQJEvUQSYVuBl8iYK3ZXSB1PoHPT0dmsvDsaa3jqrKVcaZqNS
bZNF/MQpCbOsX6SdKoToWOAYH9dgrQXG/HeT2x08nTelraFWjX5NxpyzI+BlIJOL
CRRd/hitot5GnWWeeaeVCqYfCfZCsDeZxUsUv7koD7xkZjVeCXzdAcg0Il8HJsiy
wodL6TFAnkJ+OzrjEHt/OtFRtgy604J7X1mUMuUAeOpvjhcm2eQ+5qVCnhJDXGGM
5BvWK1V/Z5beVo3mCGN0Pl8srfyarHDy/Rue/V3D0LClum176MrEm4KthrxfQN8o
cgpoXN7jQf3VwCJJmPzEQ3NUJraN+dWXoJNTJyw2O07nn/IZpn0pi15A/bssivYl
hQSJ59NeIKrEjvoHb0wJb12H1qqOryl7xjHX4z2cVzGenYHiwAPLFW+65kgvbLuH
BaT7pORH/dhuoHJ4zGenvmrwT47CyvF0yJul3oFdbH1iqYz1iERTEg1B1Ey3rgWo
EojLyAuNxgkKLo+DByurBO2wNTfjyFpUkddc/71MyQNuRqsrdJ/kUWpkTMNfD83c
IY0qvPf974Ssb70cejqrcPtEm2wsM37YsckoRY0gQnoRr5+EV5ylWnuEFbL86BP7
w0306Fizuz6JuUZj+IY+4rDRyRYWE75ZGOnBPjHigbJKKhqe9aPzkhpARKOPWLla
LfJMxpxL9AyFJouMdjs1bIj9GqJrCvb7ClYF0a7XYlB7XrjrJ18Tt0dCAyyDzls+
gUU0cbXopSpM07gRP2b1hujGCwUJB9JA/JUsHZpB9aeEECDAJGKKyqkOxKvUxWs2
ZuaJ95ivUXKnedJ63ijop2VGs8Jnt9BO1vtmueej6FwPEP/hMTTndCfH0bRZXdGo
O+tuHb7raZOs/PwVJlNY8Mt4JhdJldrzpBwPSckrheK0yT5m8wu0ar+Rmqylkhbx
9lr/ABAc8PjO5rRGBNt/mP/glEVS73Ta4wLMQES1vo9vyeQKpcq1f0GDU3Gole/m
WApxIqyD0S7DCFBlfc6nqBqztEVs1yJz9AfqubznTZTYZ4Y8nGx0A4J7ld7Srz4P
x3hJS973tSA43iS+L44+ibJRz+On7KrI38x6wS+NlEz2tI5vePaQuhm907eIvlDr
OsQrhcC9r8b1T2nPjkfgSHIp80h2HrttGoxQFyZ3ISQRXOgOhLH2nPIOgjiI17F2
gL0H4SfmnC7nUH8vKfjGLAgxLMRvoMmUZPHvsiqIhHLDwXmOZvEJW0GDvThZE4VL
82/Ano+x7acbMoiiAxoPTkH2WmgXD5rtgr67YomoUuxYUGWNaTjF6Q1CDoty8+ma
gkFX8SpNVZbUOcAuVrgQjJVf+yY6gYCCaXTnal2tHncuwQUUaKW7n4uY4i4eTVNc
XdKhG5yAwHvWOEUUY2Ql0BkLwx/+4TNYZkcJsisw5XCB2KNQPr+ymBstCPa2tgZN
zYN9lORruLOEXFIXMfhHLLBXHUXI0qP8gtPJ9Ql/6vUOl3U90424AybipoKsQAg0
3SPWH587NA5kS8Vm49Z9FSVKzT8Q9lj/4oz/T/OkPBcIMLGjPley+BjyJIZGityU
LrqlT48nxoma+7V0jek+ByDsC+xsN2uWMdQoqglRA2n4poPavxWN2LNWSDfy5nSE
nDQ1BBxWJn23Rc3jhvvLuQoEuLsmfyr5bUdQI0JQtyS76HOA6UHY2nnqfiKx7PtF
4i1+wPtM+PBynWslis/VxDMMjXtkQtMtFNn1Z0O9jV4v1ArJYqGIGGFGQ4APIYDk
lz4bxD9oal0SHamxwznJAyRlsHiDTJDgMUSNWR5B/9wuRxozQVbU6/nbbTWMDeml
Zh15fNurcyMGUV7BIdXH+zAIrl6BsgERHIjEaEaCrTb7/Z4noIIIjrRRzFVbCztL
L0o1zFCKttXKHg5PHV2J3iA5LYs3fAKxJx50+SLifIgHW+QF70yy3xEl3ekX0fqq
haWbcD+NexpuiMgE6uA1zcf0bk0H+pcK1T4nAuZbgxePhkO3S+lB6mYbWOJMApRm
V24P92TpaoR8Ajf33jcJclM3h9JuCJJS/RijaXU9rjs1Mkc+VLDqhW18nMdwXe8v
164ofLCLABo+GRoSKp34emW1rVqAr0IeynC3EYB7f41yzhwHOeEdS/0WbP/ELJ16
M89p1DoLN8iNUfaVeaYPlgVomr847WRT0a8OLkP8F8nnYEwHm73YDvTI6PS5Txqq
pQeAHYQWJtb7XPG+c1BPEOMRBDdrswhGhn8Edqc2NOYgkxuKh3l7gwmlgSP83Q7Y
CzrvsP/JAmzvPiF6k3SNFsNyT/KpAXEr9oIc1zsZuLdE80PaY9oZWjPQCbc0OBHz
hgXfxl1yQXwo0FEwnapsJE+EdA/cK+WKJIDvGy44ZtB2u742OyQg+PsHbcvdItxa
6ge3rQVenFvzvPXI7zjiXsJmapzS07QucELZaF+mEcZj8hh68sb+oj/YPPkQG8Je
FvkPOBG7RRw+KEg7B2KMg+DDZh2FEGF5R7GC489mjoQ4g8IezJUhsp7Lc3zg+uci
xy17j/dr6u25N9eo2Z3wK+pqblWvxJtB5ER4q6ZC8S30l0AqZHiQY2BkuGEZAQOI
FT6XfKTYrZ7MvWHEWlwGzdx9Drx6HKxvrFc4aBkvlKJxqnFLx3ucvr1+d4DOeVfb
66S8wOdynojoZnB7svGCdASPORyHLswU08Qq0UT/xM9CXMuujzTTKs2kgLMPLOGA
izLC7xY6gstAU6SUrwG8z284Zzr6Si5OxaqoxL5DtsnNNmFy58UoC2cQQ1ob4PiF
T6kfG8dRT/4HbG4ri0mJ/BeH0v1wAda/bcDnoyMlUcYzv+cHiOyN8u3ca4JSE+v/
jyxTEQRumAlsKsPQmOdWXzjOprRsl4RExYBzR4aQ9TrKTNi0BI1AuJ/qklYJk9sU
q1/onCDuZQIpdwX6rxsxXxIDMf7UOJev5oosp/0imgolRrA5pwgCaijDHWYaVd1h
r5Z5iEq+ViBcmPl4QKRSDjco04mopt7Vk1Ohcejv/lJd/UW9Zu3s+JjSSB8IJae6
NVnaaEr1ER4Iha6rw2i1S14kciOWlGyWrqGPUc/waFyOV8dsGUed1cgnlSTyp5MQ
b5j5IEWCdZT6lCpCpeoV5XYQCKyWtOvFjH2UvjwaUGxq0n4A36bt7QNry7cFG1aa
xpTGl+8jy6kjoUm94NDptXNTb17uB57xjkY1kek36Hi+iHtq1hAhIvB0fpTUkvii
i0eRnZMOXMx301gg7VKh7Whbw8xTUeVMuhqh0EnkqvPnsgbZYLOWjW5U5zYMsSjf
er7toC3tYk4kUJNJLkwm48rVaeaPGbt3ulj1dN6WB/aEdB61XDMKoaVqTXB+oZuB
lyR0+Lo0LtuPk/MXwtNI2M9YL+434gRnsRzxeHaP7iX+vZ6qtbwRooAj2MmSIWVb
Bq4UqJeRA793JeEt0rFl9efrGkOtHRYrhXAOueOIHDNPC+a4zncxfki5H7szzgCi
MwbwZeijKwE9l67cFP4Yor8t4CyUZ2J28IVWkJUCrthKmfFllmOMARdVDpzoDB2f
lmgpZEHf9XN7TAbDv505V03aPqwX1piHeEBX84+jZ3tiNlIdQhEce5uirWNFGfBZ
aMvBgquNES83km5LD1tFuWYR4WaWq35Ard9gYkEpdwWf3lk8gFwMN6aKTrUezcxz
/qaLpEQQzqoXQ8IuwknbQ3Td7PhcBK9CWyYfZKnaYwkLSTVXuDqbhxEgzn25fUsO
Zmk9lcttABn/JH0tGDx5Lk1Hrpn3dGH6cfHUWTGVIJM+YWuIPGIJlEd7h/MXzwsq
CTas7lojwRmYHIMT3lQNJaKgPHHnT+SgXx+gMOA20h4v5gbpSqbq78+V3r69+2OY
XOiBcoUWnMmdgranWz73bocuNjw5S6Qq1Cv2rBKsXVPV5f5ZW1evZyD8aACGuds7
/nhv+/YBWyz1iUARrQtYJ2tLGNWr21VutbxAh4YN2jjzF5cjYsWna40MzsAgm0Y4
x55E9wSuOMEzxX6py8fvWonMS2QRnSxhqg9fxyqtA+6wGSsQHcVYTEOF9vfAks3y
PB3KKfJhu1WCRzT7P1w3k/KzzdciPgKoFl7Hzma0MAHdoCt+YlTeskAuXHx13I38
bELM1LSLKY2sEuCPHW36zYqSDoHKmLECfUj+DlL3B7RJsWYX1LUliv4gnDeGUasz
y+zcwMsQ+foh68JH0LljAVlMFQtts4P8WmMidxXipr2JjCQ2z0FgL0JTXWuGrWHA
YOYo1z8DugJUnlPdOE+F1QLCdTqqhFaqo+aId/6EmwWcGChlMmTW5fDmOTj3aLcc
0ZQ56MlJohmw/8gXTMHTeFoyyFTFZCTamuLGqj9M1WjASlCR/CG0QCZiCphIg95u
bCxwM64vu26rmUWRQGMEJNNux6e1OVX3FH0XTDsZ/kx/L6Y0fVe5UvEQctSXnT5C
SRR33W9tsrqzYL0Zgvb4m3gCakTQtvfySbWfboIQ2ZFku/ieZHbz/3bbK//5pEY8
JPcBEd5O3BAojcmySqqb5B0VstbYfV/BjbJcJd3rWe/tgN9mh0QXTGXLSY0w7Si8
ri34BG9ABC9Dn0OFLIDwTnA6zypAO78Pef31LH+cXIKG3GvZ0W9HHzMJFYMWKMPS
U/iOcOpqtVfLoTtmqgvs9/fG9nxaRxgbzvtp6uTmrUDuKQ9R8Or2/jRy7NWZFDyq
ZYnSFRuJZiW6eapbb6AnM7nDIz1tb+PzECKQ6HygUcKQeDk8PsUY6YEYYzfkCbXA
y4/dTOwPWCuzl0/iBFJpcADsps0DIefqIUUbjuANj5xrRebrN/gS6qoIgjZFA/aG
GibmBc+wWGXrYTYKilRcYPJ61sXspYMMi2cfMhrBBcz9F6Sf987StUS1jxkBPNrJ
C8gi7Edr3PK9SIA/h6+4VoVEJvpAmY1i8/R976vQEmw91yy9C/Ln0MiGTxvM42GB
UwpLsNdbaFoiMoPAUoj09RYLlJu4PbdI8BkCwGu3xexje9vl9ldSq6H7jsqi/5kZ
AtAMhFxVvVeRQN+CZxKycbm4u6k0gXXU1hBMN3TZ3ZAqQq2f0l6NmAjVCaQyKHHH
gkp1Qcmbv5UGtT1ICv0bGNbUCLe0CBR9YMZdyAKheCB2Cpzpx32FOdos+xZud3Zv
SfoknGCLHVt4KyCjjlpCfdOp9EUjlc6PnpmBTosp0AgZjq0EysA2I35f0qbB/6+k
lYs9a2vZlN4slqwZ5w+YC+UwF5ON1spqZ2tCEmHByEPrxz61cKkWPM9qC31E9O43
EUKpTMCYnNPOW7DU86v9m8U3onxnb+JAshIdA61OcFPsaPDDXKZC5XO/9PIKTqgR
eLGAXhL5j7aTyUsyBrJ0tP/Y3ri/jaXnTQMRPhdvBKw01Ava8FAs/jE1+hmWr1Gu
EPjSBtXaKsamlNEoL2PJQ9CJq06Cv1GQjRBvMGJY+GFKyOYJMxKvyQV650EO0/1p
H4cjYN3zLi9dzZ8uj2IGcy5Or7NYOtvuMVYOhkWvPkrRiH2Ycm5gOUDc1Ehj+tBU
34taqCIXPY6IPbLhnVwZ7m2VtiI/AeJABvN66WHp4iq2zyBMeO0OlfFiTr/Enmc9
vCHm7MHE8RdKC0xPQA0yP5xFOSk8bnlj10BgiQ+weSEEplYxtMuAFaAgdBzNde0H
aoUlOPi3rWjAG0v/dgshGncDJoxFkbNeIb9jw6ttdasqoaaYb4k6/FHRA//hFUAB
vc5Fw2MiWJbn/IhIoYXbPxXHuDIRpoR1g3X28dpeIuFwohOECVc2yerZTjl2jsRo
9U6ZjEsVgqn7fV/kU7fFp/8aG7VH3/rzAvjDDgaCrBfgdfqmatIhNKyRK+RFfSW9
aKiUvpEB/ghib7oTGlSOfQudyenemhHGKCcS3ck4bmLKuqk4euNnyMOWA4eDnBjW
yXaNgbLJhjNX6nvbMX94LqGaX0s/Ul3Ot2M897GlksilWKYY0e2+AGsvPaCo6cj4
VqP+ZGUr9Z2Ju9UD1bAnN882Lya9cQlQjvniabIuSYPgX7+0raW73jTFu0hKYQzE
BRRXqoo2qe/6+G5jDg1z3kdpbvW3aoc+0YYA8qa3+RUbzPeq3bQIasBkBiNfI/Bu
Tl68KgJze+q/HSX5u7oRJT5XyscYEt3xJ9/t3VsPzLzGTIAqAfrOuA29p/18h5Cf
BfX6zJGjAoy8Pk0REnCsr/r1Pg4EmR0h85U1rmk+3HrHJPIyUEEFkuCmBVy37HfC
ityUMYfMgFxbMsAempT4AiClS3z6SFlFsN9+bOx/wT393iYEwDoMZDuJSptMADH6
ulvrZluEY0RI/XZ42EY2SktF9NhVEUKd3gFtaOYIgeqCgdbF0nwFdBuikU0lZTCq
+c1qWmuDUbCBMrloaYkjIkyNP9DK8O0rnu7EH20DzUNP7VUcXNVADFOcTRTsf+Ad
v7bjxFNKA769ByjjfEr7r0WTnp7nc/XOGqxcQHGAPc6kkBGXSymfnNboIFohAMml
KEAZeLoQeLzvV45Le5I/RIc2twJl8CGWoSFYGbXPv6to7v0imnElmwagdQrAwYEL
ESv5kGDtexf5BDlJAUGhphHAL0jRPoMqhn1jIlJA6+hGDKdd3aPNE0zN6KoULidP
1ZkMIhPjRS+ZCg7rmGv6COLk8AglQC4rS2TlOgLvSYktvRS2S80B7Rsi39Rn7qsK
kR6WS/5ew0+eN6ZApV7D0wX3Zn06Rc56kifktw4XBD3I0SPI2+25h9XNnBUHljrJ
1fyWVmeKnbsbEakYmowbVm91D5TpShn9qeayt+XRTD3qC0e7MJrhKF2706iDmu6P
Uue8FL3j9ehSawf2k7d6YlKOTIkwD3gk8yE1Cqes+rjzXa9bKTF7s3/lsnSVciOH
qltW2bgupmezWaBP8phrfFKROtQpG7HfKZBeNbDOhmu7CPVbrqGysAy+JcSVBQ8i
KjBZlq97aVS4+IksaWjxVuJIj7zCiQEquT8mO81Y4NIzyD+uN+LG//algvmpZuAj
GLQq7kBl6cAODhEakFFyrU/U+oKLZ5QXwQEjyyagijJE/0rnJGmK8rxRSbFYmmMM
UsY16h8v+sss2i4WWQ8xJq5JpXgDbNkuYBTiJ6kO4Qqdkv3KRFCNKpUMnI1JOEWP
DFo9JFy267gaDE6I1/B/BR0hRc9q7jC1LYvWXiIveKNAkltsIZUVkTO3SWrdJhNu
5L+PA/JcLSchTkAEU/uqkL5tvJ37WwYK3TVRgXRRWut3UVuBWRCr3RqY1Evmt6rs
tLmNggmzygqcu4eljRt3HQjQRpnrTWYjyh5nFnnWisihCg0BTHc53rdOFQcLZD0i
evBBIotekOs4Rdz9I4vmXg4RZtIyknZWY3V9svRksqTSiNzyZd+PXlaQgQtkSnXJ
FZa2AFZ9CyZFlmcil6ZrK0jKPxvcmeVyiCsQ1Hec/wpVhQO4/9cRs0u0zn6s+Tkx
5g0vQ7NEHFuqMTdM5pZW+voI1aVMb8jJXiKTo1UHQ9SV7biPcSzFvCSWuuYZzNi0
+V44++6mxZZaS6wcBac+od85SKMp/N5OWwRXLWC2M4LjcbZEOZaZTx9mAoxj9wVR
qmpCioh3JcqvnJfX0o++yIlN6ROOBLZmuKicu9+UO5oGz/relceK9m27dlXAkTcv
/Nm7GDwORpb411B0n4yMNykYEuiixn8cSM+FfDiS8yAQApxcYgDHYr610UCQn3Kq
WjuqR9Hm8Snn+JULa2fBpPjiXaE+l2ikT093qlTlVGe637Ga3BPp6BUR++kg1CZh
IYIYqzaz6CMRbKB9MHVCavG/vy3LQQgXwQz3bEr13OKFVchtygikFbgdY44rIN3O
N1/ssnr/71lU3RqHnHrnzPzpYUwBCjvvNfjsspcuYBXM6VnRf2rX8mdUem0ALIS6
BnXjINQKMXFiGR2K2fJoZpiIlOidZMAwcuYntkEBSTrtwZ5evWureYxhjXUHKQ7L
sW3nhHq3NOO9RPeSQJcUAm1PRIB32KP+PdhDUAUT3H9kgG8+z3vfiEGzFeejYiSM
l9g9eJl7WraFYy7+pPAD5QVvsW36v1TNPApfZ/lCvQD35LKfzeYWDvkLosW+90LE
GbBp3Q9YeIOj+Aa5BzKyJJ5bNfRg2M2a7l/LqwqeQRzlRPnSHWN41CteAdf5KNu8
fSvYNrL7Jww9vtP7+yrmQZyxWnmxuWFiy+AxmwSPWc1dDl12yK7y+b50A7NmmtnJ
7yV4vteew7tFfv/Lif8sAH1vVq6c5l77+8qSFDZib0/EK5KReQM3FYKIRlBZRKGL
wNeX+OtWnpMqRvjZPENsCYJ5i+mF6cE4jupMnMLMg+mw5NOXrTvN5AMQfGniC5k1
RKvfwAu+xU4FTYC1mjsFcAqtxMGFRmIZw/rHksTTriPfoRpec4FN9TLUxchOu0k6
d0ZGoNS9DUoT2/v9LLRHltPnIuUHhLDjutPKnj/0ceYE6ETdJKeld9WMshXDhptl
K77prLQL1ZhZeBUVPCb9fUvG7nYT4K9NiBr1mk9Wx9xJ4hVqT3ALQg3wc+TW2TH4
SUVS0fSS+BbRWFHRs/rRiDjnE+SsNgdgvsLz3YcfeLCeL9bOpC4OvJ/ywIQ2UvCl
oYz6ivc4Ilrn+PMWm/qoax/yiiQQv4wje8k5ObT5Rlx9KFGMzddyPYbwik4LpdCJ
CtMFpRuHJsSfEyxBed75Hs63tmkNbxY4DB/rd4bbQJIedLCyQ7Tk9A/tVNvSXTH8
uj9tK4mHGiYgOl9Wn8svjU4/vWl4IfL9pFDdHZG0CPuWPGQbfWEIrp4h+dVNO89u
olgzDSNVXH3fpSQMerqgEV4vPrqcw+pidxecFM0X6T0RdlkPSQEu6yEnes17JvgX
5sC6c1UDF53JeEP/OFIimTycbxhyTWgDMT1WOAgfSsWCUaT97XM7sYRLzG/xSjla
WRSgo89PHRwg67Mqo9dICxf4yzkZZ5oZK8oIIipcrxN7Qe+AghYZOYE9ufCzF4AV
G1l/QAeyjf4u+aHNe7k6JF38xglw9rCMejyv6NIuBsydLmDnB1ShT9smj3BufR0w
8yaey8YG6SYwFbfQLzLF8RfGcG36pewSvf9Nrvb/28RTc62QhvNuyJA2yI5ngFWY
C/JDgAhXd3LkSaT1X26hfFs6s53MqXQ8/9hp+53qzcyOExx6+BagPqsq38Jybua8
G96Y/U1CqfyV7tNNqVd2R+N99oYGp0rObT62OuKG3ffSdvl+rI+k0gFYqhC6PYpE
GZLRIm3EZHtWEyQummFcZ7iIofvj+Sk67yV69bM/1lWAbCtzQkuncBFHWolW4jdI
3TmHR+nABac7jNZN8BNJzylMRPfCFxl7h3QEkhSbxlsSvCTUGkHninu+PYmzB4w6
e1OOH0Ac8ex1pTjHn0oy7jOPqnzW1gZl0fuXI1VBGS4AUVTwuRq6A8acqk9LTQEy
b2t3lvrqwWd2oydL6BsNZadegc5f/dXI114ZJbdbI8xe+WsyqI5Uf9Y7I64VQSEX
P0WDoSrUIYO/FupT6uckBKUnrEutCpiWXYzoJSTKZhMc+YeB3NBZ61bcd3S6Zva8
kfOEBaFoEyIG5ZfMLdm1c0/3ALhZUfAdbNKl2gP5bQAjI2xaLgX2BRDy3uBjrLCF
RkzUfP92hKw8JrQ0hDB74wG5NpeXtJpdQjKzHWNNbN2QTtM5ZjqQJKoGLv3bS1si
uYAfViSK1iBGTQIyIaWrV6FbyonoBVK1SIh3xUHg66OGM/1kXvxXeweyvkWXTsu1
AspSltd8wowZvNUGdFOkZfOS0ZwY/WK03gtWVpapAH5SDEGfeeLZJ/lJ0uWr3FeK
qDt535qcFozu7tTWZ0dWcMLlvq9e5K2BhHuor744EgaP8p6cOwYMvJTQe75EM4c2
cyYfIMlErZ3ozHEc2qmHdlvwtRodTIEW3hUEeWAeVz8AgLI3gN58NyA0iKzLCHLp
WIUsFeDyDdOOpvGMMMMNtaSvsEvH/6x6oOHRGcXm+jfzmSLfLD9c9y31UKA2FTAp
Xycdr9rgajlBJIHRpKwqK+6eN2ha8ysxVQpaTFbp+sJoasWpWqJucIqifb9Nw3lR
+eu9HU30UO1pa6IIx9WoTyc7mDITE4422n8Y0JPHUM8swlzn1pkzDPzNhvJftR5Q
GORGzCzmLYOe8cXPQ3JSnz/gdoE7faSCDwLYMd0msOkzCo7/TNSNZrTmAMGnqApf
PFiz+RdRpdxjZNLkCJ//t6Ft3QExoLLi+kf6TN4Lm7Sd6m5w0UpEs9CXecAt7nMd
lI4XZRLW1+0C3trWUaCPqtd4kxmx+FmN+hE3UF2y97Os0bYWsgvdRvbHm06EOcBj
nQ20+S++h6x6+yJeCCq2yGuYXJwZyNlF4WdkoHh752DJS7GprJ61G4fI9zYUiA5p
Fk24RulwbhHDyQGqosku6PMNgSS9Th2aOrfuQro3zFdX3FIRjYlbfsVa14r9eWfS
5rhbCCGXgdpd/gcPv+4hQrLyGQVwJmzJwP4YPCKbaHcHohTUAVGfHLcO/20oa3qg
oQ1yRWmlx5BPttT6B7mjSxIfak9+vB9gpaCLfA7FHaqP1Uu9OI9KU4gRX92H4tvR
2ZTLywu8We02a+CvXqVIX9Uqjgu7olXWr/cD5bUkG0uL1KUCIIbA1tjFPdPoPpjJ
VSTdL8IApzHyOOPQ01XDo6LkvKk5W3ejFAz4DlciTRLMqHyy+gyGIn21IOrbRZbr
eLiuQ09VQGwcJr0XKTPXOPdhsDetCOgPm8SA2Nb3SMinbNR86bmC8URHUFMtaIlT
OZZ5DTzv0edGmqPIqowWpAulMcm+hRvjNGAkXMudfJ6XBPoc/hT+5RJy68t8YMHl
UIhr7fdfishUBQUC1VQfzE9njKXxB4FeKYVi0ohZXMUVTyOi+V60xGREYjIvF8j8
C1dwcKUeB/+QKKuolZoTelbepry1vY9VhBCHBbT++m+AFqxbSS6GDzinve+eZ0k6
hqzczE6USxVlfVLgIzZOhUoL6UdkiWLDaJCL0UeC00G92/BiNdeTOSkRB7Jik0J6
SutVGbxTIt5HoCd4UfFM6NAMowB4hzyy7amBHAlxO0k4LJipUOG5XDRacQZFFoE4
0g8i+TyRgY+e5KrPO5+gksxOp+LCtnyBJ3y3MKN5kMckC26vcQ+34wmv9xxhABLU
34i9wDvgcGcolsceTYlIaMkwYhwR0NfpN6jLkjG/n6VIfAC9sxRJZMk1KqwwHc/b
l3Bb7lIWJv7FoWO9Hqx5GIeydH2PrnumzM+VuCB4mPtcrDJDPO6/BijKmwVP8qQL
nQHsHj/elwBnVJkg91Fp9DrOO45lGGa12Z1WituOpM99YOjv1fprCj94Webi+GE0
2zbc07nh0V90CcDEKC2PI3imNLT7W7hcxo2J1fSM4ajCQaFOearD1cqqJUqR4nxP
MbkVsrXOje+Vq1xT0wP/rOcMJkLhS2PQX438FH7gz0w3JEWbgszebokLAgAjZN3s
8iQh1aZs7Opa+SNS9oe3NCBMnWmoFQa47nkg4XJgSZJDlcgQ3szbuW0viBSxjSZ/
TRmHtUKZDtHPhiw2b0N1hkLhOWdIHH+RzTq7TJTSljT+xuhySTYjPLtNZ5NjLKtW
DA5NdZmlR+3kP6gtq0RBzRdrPALSAXCoZgEEg+/dXXRKlv4G/cP+nAXZ9HbmY5RG
zs+xCuH3nDwLFnjpBqUVeukd/S54NK7msSS6R9ZulXeIchzDw5ZVihwGkcG397/t
BMXr5k45diHCMPSexo3ddrjDsKvx5JCvjCpqtx/DwG3wa3JW5/kCkWiumtEGlVQX
WlS7tdVTG0ZRaFUGo2/AhdHUlmO6E0PVgHY0j3FQuQDLK1cgOugCHwhb5xdiDWPH
N3ij5N5HbAQDH8zKYp+zUrz7bDj0CIo4U1oFU8+kdJG94MAcYkF92aQBXYKpSWpK
htagw2ez+2ZWT5wiTuieINmsz595BR02SlwNnWY/qINq2/8eQJKWFuM3uzcmGsHX
wKL8jOMf7Ck7vNkdXeVanpU8dCifY16ErYCPREEtjSKvmyZtk3tr1Z9VDQxKGFcB
45HmdauvCU1/jj6I69IlgdXkvFbfNvnp5AxyESUeo33gdEylKHTJnTs0D7SlBz80
nUumeT/wB40sCTrcYIa89OEo3EMaSTzTxA9cNDGNHBHPUn74aLhz9X7qC8mXrNrX
fuHJWGSgZp4IiHQhacbvXuZJ7Z0ho+QORpSUpYiumMSptblqx6uVDF260UUbeo9A
GNotnMmLNUV1Ngxr2ZVkayUN1hM9MQmjKp+Ea8I8s61VoVJwo1Jz6BViB6MPZZl1
CJwjqJGH9oVSC6Bxh277cuYcFN+/L+5rWS0FV13tGD0BHffyIv9otKgCEtpnUht5
Nr+RWOi68F/oTt3Q1tMnCiA9II364LV8V/VFO1eK+YdLx9j2Yypqn1ZPSXtK2V9z
/nNOP0b3Ax5iUpviyZoKlW8TZtbRBZgXzYY3TinFx0dSMx35+pn+srWEQckclaJq
rb0Frd1aMKeVKFL5pwb7Ypj0GYAgZMl9lGtH345dpU5VCr39vInTkLeGZIzusvzR
M4teH0Ni++hxMQxRgqcsSJcIgRhf1082nfmOMbrvY9WhkWQ/tPQNkkS6REJicoQU
usaNOiGXcAMDVRIa3mHksKDbcalhVGkVrn7crazUiDKnddChAPPFNrPmbyzwWHf/
1jmNtJecSfbtHVtMA4TeJJnx3FzrnnChE3JLTA/IDsJjl6hi2TrovTzo09+76Djq
VYH6WHLQccympkUjADH5ZCaLVydV36R7gPZlDUHQWGwcOGegHrBVdsI9uESRpLjN
Ff8UjBn017VcvpSVjrLBpEzZD1kVh1a8x789NbO1swxJpKyJIa11xSVaaRWRA4e+
9yxnCgk/elvi8Q27TyoNGpT1NFz3lbeiHwJjzQX6l0mF09yXhiNXty70gZxYYxnf
xzlfglwXroJaX2zRlNS78LeKS6+3Ru1QdZYatjl1TWhkYVthSmeHPSPL9IqwHeUn
9CwIMdM8zJ2886xHvp8Nuk6jfb+DEgqolFgQ01hadIxChu0deGJxM2npJsSyfkFn
Iss9IdHnoqnPOC8W3NOjoG5Udwzj5A5UT0nSBrxtdPmYAQoGqTmdOfwXRfiqxH4U
5HiZbX5C2yMIyKJNtTwUH8yt5jvZoqGA4WfkGU1iJMVZCXub2DvPHRpbmtbtg3zC
8S2w6rQzP+uDiE0Q+ibWlzW/MEy+RZq36H4b8SsKg8VGlmb4MZrAVkaZk+yzIxR0
09I2NGJHivbFN+womKRxMJ7AxnjKX81M8m1jQ1AZ+K1TqGiOeNVZooL15lQBC2ex
k+o9sfmozEi0xrSvv7H9tP6IacpUlBiyuEP3S+YSK+tryQjN7ZWitZO/51TL+MBI
s1i/DBt0bVlNxN6WchFR4+kToG312Yz8x7JUWz9Y8pDyiZWEysr1TVrIcwTx//DD
kuzZrlxgsWDUPVgYzYIrCdz3PxQn5R5tH13IuXTkDaelzJ7cp/UFhCeRosmalnK3
K1laUh0KpxQbHOzkkCzZXTHnLFeAGbwjB1BpXwSaLNAA69KxDlmlfVZBoHWd5l2f
ZigHlC55425m2DOUC2UaOyEc1U0yd03LGuFi/dehiM+M6/oZYHzko9/WveW9ORyR
uGTAyECuVN75+HzlFPyoy3Uy6620Ghc2XzbZ6cyUwSdsGmEEarmTRyIqFuqJP9ek
NzhvJyQR4vKQE4g6fQdc19GhS+RjWK/mBQaV9MseuBjYQbdIxZWLn/DuLCcFE7A3
T2lO0GtPUQBlURDvR6zffebvvkYlGXkoztFJXL79Yt3oVqzanjQvMCZYBlpcGOGX
KKbE4rwXBv4OglUIs43SexqF1Fd7TREn3UTQ3gcpxMODnO97kgMa6lDq7dfMCu6U
EgP2hgCguJuiNiJtGy2GL+s91OLJWi53Pz+kXNsyQnZBVxBUQWbCW0OdMaFrkMP8
sF/9ZWzErvbU6DGxUrkQhz4FPM1mnvoDhvrCOd0ES8lOlZ0HqA5eHZecf0c4AQuH
AkDZhXcUi4a2ix7x2pM7deLMIZWnTeRdBA3zEkquaVGHP2mNKo+rFYGGfghdhpDl
8d+8978rkl3rnb/+EIQNDewedpUk4lNEPX+uHbAPqcPKrlXo9PWvoZ/NQI7SdmPS
iQu68pCs7MygOiNcY6yMkwMIQ/twGDcDYoE8rOz43Qmy+M/zEQh0KW45DYnjkokZ
Q//97dRaRAGmtc8uIviLqu4MSswowaDfIBpu8OpKMbaJMWZVH89Ppu307O551vFO
7tScof9f0nFSyRWihhVNjWtLKSYqDjnLsK1+vInolOkrnSjcHGrLpqhX9eho6uYC
4myNp1xolMyOMcUDcSinkJ3B5Hz1QuOTtNjonk1nTwXAPQs1kTYqvqrW+13Rmxmd
hhuoyoMwX/PWdxt2feF0vftHvoBBV2k4dKBzlQNPL4b7Jn1xgulP3EWPJAskP9sE
XhO5RsYWDrmXQUw3TLzwydb+h+HNILKRzUzj+3yqUF03JHHIWpLqZxrS0CKXAcWm
XDtLxKx+lAFlQJUkFSbpiLbXfwEgmfB1jLCE9YVmAINgdEC/tKxlnBgQTxE6i2Yn
TvQ+dMNhOCxmxewKCT7xtP1i1BQSOCwnegpOPL7oacd4tl7CTGLi0wCzRKLOOf0w
rGA/dLMGR70ft5gpkbpiL4pBm7OjpIPhFtHzV6jUIT5m90CiY52oMNtyjEV1SvJq
KAa4BzP4KQ2TmGs7t1d3R4xulTD4xIbqJevZizsmN9EyXkJaQFevsX9g88tDV3Lo
S2MboM4BhsQyRT70LQyTXfteE6cA6d/+QBKjnEZh7rySzfCIvcrwAy6KFoBcfY3O
DOZoPbuMIu/Dg2F1fwNA1o7RFQP9fjEhNtSbjsOxen2sk+FksWOjgvDxucjGwZ3y
WacwWM/ih/AjFdWkkNincTTl7H9lB13qtYrp0tRrkQFr5mCkdmAJNZrJdPZTJY2r
1Sh9MeOImsIEOyYm7OI/cMarDNO/lEWucEb5PPzHgnEcjHj4yXFLTz6Moxr1GWfY
f4MQMpLBVu+vR5znNolNAkkm2pD4l3WsusyjvUc3IcZaW06uZrjgYWNPIufwFOLU
r/Bf8hoAm5U1s2IdoUw/4BgXnxdtqp5alsl0lfrt5PvGU+cBo3mF2KCriBTRzqsM
GvvehPfQk/nF/gf+zIRkvAFhLxtOL42eqII/08cQ5+hsNKSyd0ej0q6/2o2vlH6F
dcnL1CXu/JmhGld1cKZRVyOzXlKI2xqo5xxuP5VFX6FaOA9MAn9FEXZt5kiZX11R
UVdEXdlLGbBnKt40mlPhiofNm5zt8Hij3KWrzyKfGhIBHVdvN3qthr9whYGoPeaV
zvXl5sDwLqsf1EG4EWBISzLn5a05nOPNFFBwLJMn6l2dFgu2rRfHtTptsI52ym8r
jU0G0ZtgPnNxNTmk8WzNSj6qRMWPHuWqEj+2+dgZn/ZkVA+R4FOzZGSXs3ii9ngh
vzPQrT0nWE4TFFEZFV+w5dDDjQ07FCKLMu1+lwSvvtVuDjgOBKYXsjcie93LDPWu
L8I/pedPg8LFGxQP+yC5Lb6XZ99WQ7q/c1jPmz6Uvr3WohJp9uS+YP2VOCM3Vyk0
CaY4tYSwsHUJyE8o4oSzz7RfC7Aa5Si3DpRLIw8739tFRBUlrXsB7Ag0HKF2hkIy
5ySuSLAX/Nvula2nYWMexHcAe6UQIrT4Wv9GOULiY4QZOUlnrjCh4RkmO1KQmfL+
iecphlODb0bFqmI4E6XS929MlPepwA1/D16uonXtVWBy1MJAEX61mAGWNU9gakoz
zbIR3tMIrVEAheN/CIP3UIbNwqSFfeNyNhBNs1xA7d1opdpNMMo5O5uHBfSF5Nrk
s3eCeQzRRND2TruEtP/lddxAr0KjZieBDkNcp0vuMc58v9RJMAf47BGC+8HBLfiV
u74VjVpukHNExWAP8eLugSYabB1KiVou0P2XgE35z8YlY+R6avqvgco9OZmJsO0J
mEy0pdsytc1dQYlpr3huYCMDn4iWlX/e1ZxA3zkrJmkQvoc0QYdHLGVFMlapq53p
IimyIZIEb1StFGT9wKi3adY4wrm4jAY5F5kUaCCh19kDhK/qY+V9XzIg6KuJ9oof
sEv78KdxahKkx31elyp7qnd9DEi1ykDV7hgcFGvUyq46AN0m5O8pjFjnZvFUAv2l
QKbZoMF+QeWjsBGDIURuQhEb+Uic4+oWZ7VyWcvmLX0m5twPdZcQORBNam/b4GBh
yiloMwtfNhIVzbc/8Xu+loQ7FcSclFX9BMndbQfnRWcKjLb1iNcxPmdMkazhOEAL
dzbhPz5bz4iJpiRhZfqFJWQWZLdLoo0+nd8eOoq1Pvk63ibMU2j8m02Ai1dc8Umt
69hKDTiRU+xUhOtOCw1kEaGeyv+X2mfkWwhIcwNoCyEhY7bdz2DWrmBgoYlwaj0t
qCC7g9+WHVrfXsoFtPmTCzacdwO00VLoiqwq+b+8Q3eK85oulv6DKuSILmHE2whH
hbSUqugsC1kKO9/PHW6aHj3ncFriGdVy0J+Jk6+htwqvNsG5qTYNI6rk8mnqNJGJ
yrCZIOTjhKtYLaQM/vDMsFbc4CtiAKmHlKZpBqv6FSV/uywc3RHyK4mxxq5cl4cO
U1EPUGDIwJavV45aXJNdEo7kYAvpzJh8CHsRnq0FJyLsu4cmLSljMs8HpuKbP1yT
T6Te2+7KkztKe7dIXnI3OdBH1+kdGuJQzoWmACxt4W8GdnCUGrqORXzC97udeHpb
uZgZJj2dRASbqGWEQ15O1JI8ntq4/p6+49K+sPhR6UZR9Tm2hAjgrTJ6VDfzsVlT
eK7HAoOCr6MnRU+HRtPLsfKhDeL/vkss3SFu883AICjwy4fpRy+5++aFlPT+eGMb
Cd9nxk8mSN328eLu2Ti3hG89YYCkO6HOHxfGQRqUms0LxKFkfFwuFTIgAOTrY3J4
TkfRdFJa/U/Xm5j+7i9Kb6Wo4CboD2vMVE2JEEVXki6yomhz4E1d//woOJ2iOSyP
fVN6svz7mEW+PXCyn2C6zFs0c8lFP5vZx9cEpm//HxOHJRDEBreDyPBR0ID2dV2/
PEik7uYTmynbQdVVTYRTTpBES3XttNoJAqM8QMt+4GYFIs5tsZQysDAoQm4D8BWf
7eq87NXJDdZhLSlWvrtww6ziNL7oJoPPze2jhfGntk4jD1rVenVmdK38W91EHkg7
2ldgGfBi3Z47AY+m4M9DdeJMqM6lQDtS5YXl4Ez48mm/Hwqqj7cvoGJ3hZ6yumHT
92IxmnLMMvGF6RDsV/MDayUkUW1h11CG3Tn27ZmqtzJkHjBLHp/R/wsUmeRDxj4G
igRJ08l17a8fu9ZOPaInydCDJFn8adAz5pp7/6scR3VZ9HawIy1s0HKoXe9NS1Q6
zn2Bt2pg+BafAvGbhuX9Nfrkv2h6EqRHqWtJN6e4o4X4hOyoUY+so+NM4/oGUVtl
C7azpGSKv3Lex4yT6aUXhA3AejFfuABDuVxOc/pLA3EXrrDkhPzRd2d2v7MQR6jb
4Vp6/cUKTKsb1fWH7zTIcUoNcUmSZk49BUmWQd2dAxzamlqNNsGUajTc5GMIaB67
VBUfNNDIEkxcltUztfbOgB2oWfg6sq+DaaMoOG/kSw198A+ZQJcWK8YmNz5F3ZnR
kPD+3Bd58EdHtAguz9PLoLNg6DJ95cjRn7fjKSDBXFc/1of8lyZUNfOyn/x504K3
1/lHaT2T/kANZMXH6B67IRd7y15dvQN0Gm51PwZzSwMdZxlNkF67ybT6/7LHrrrl
Uv6unmZ4TTpfj8aHshAj93Al6c/tFZS0XB4E2BELjws34UGCe5av3o3GlfZnsB4d
u+dQOvuGuCTppZ6cxGeIZn/VfDO8VKn/jXSz0irQPuMh0uv5TPCNFCd1lRsrLjpb
5WMBtcSvyP+I7kUNqRy5DZT/bpuL8l29yjHQO0vOdF+C8Gb9gwFiF/c1JhROaoOV
MKjvjPfYXABNPAZtxa80V/HLmbKtsmQunx2QBVj2HZX9kNE/erUPZXOp5K+/o8iZ
kqniP8WF/ASk9LQlijR/Zw9YHrR4Fk/YhA2UU9ZeFeI8L9NXaSh6iE2hxxQMRs9d
lBQEis9g0jg3vqufsvXUbjdImSdH+4phrtbUvV5gt6MP37HDV8aO1icEMo5P5YCc
h++MHYq4dCJvoDun0p6RgvsHEipKZO7j2D1uIt6KBl1/MhK7N8SAzoAABQg1osic
45mcep1b40rAIwDeGfH6aASiPK2ZJAdzqAj/Ous1byz8svBTqznqWukpeCAI37ok
qYSYIHflptsyvHhma6wCAOcVCsu+yARstZ/MB4e0NSS3fJQNaH8FzXlfNu5ZRzBT
6HDw3XcGTqw2U8ZUsqCE0JDO2FVq62vCo7bpLgJAr1pymdKAlRZcFma2tik5ofkt
YtpTk9JDx9qgFjzBBwk71oplHIMIu0yKOw6CIux8zlnOn8UTjqW0iGQk8RcvuUZS
wyLfk3M7koEXwpDd+oYDTJ8xwJXQLj4pqsaKodg8zfwGjvM3NrJ/kkiNSFCV718m
LRWw7NoMP/K/68aqWbdVLKq9yIGW1hKwxpYVXgAZh/vAefLQTh8kNfM/pWd7k5ME
ZTJ3+0KljkX7QbXwOvUvTgW1MP4yac+CppxCZWoQEfnERlZwgeszko9S0WmaZ9eo
qDkaQyQDZVwe0fyJvqsqLQ5jOoc1Mx45WAAr8psqaRo4c9nKG14IVZVnKciVlC/v
EkRXuN6+kfvdPd9aK9JbtlX3fqIwurUFsnsbTBeb/GX2e0jnrNEbUiBnYFB2Qgh7
aLJbmwKNj/ZNdoCCBA1eZ7egkJ8pjsdjp9lfIK7TsvEGdVUnvJ95auaZsydb32bO
h8GPiEnLInm2X9T74SgRFzKHAiTYfedxSX+qqLv5vOoECZ/Fm+e7gtFHQ2jQ32zp
BZrGxqce/CDMTl0JjRnonA8i+CvvDv5/SYmDP2zzazGigvMjo8t8YYRc2HKKhjfB
eoAUD+2NWdfJwenI8g6t4o8bHgc4fz8dS7CY3bi28KT1mcrW1U7ZA+bphXD3S/A2
pJH6Q4WM8dWJLdl62btB7GsUk675Dkzjg8kzS6yixnu1UuyMTybEbbVwd06vNRd/
6FGy5d5BiypZEGj/qdiIaxG4+E9r40R+7o1BbX1h+JFyOXMuHVX/sM1Jg2+HB1dj
UBuV325hIP0Jz09b0G3JfiLV49ukYpjkkL1ueKvke4R22rhrPRTMJQnMIOlHy6bt
MovcEdOHhfqcna8DNELJH2NsClOnfcIpx8/FLjJEjqwpUDKcN18m7j1VCK9+0TIn
Fe+YUmy54e/o8Kjn3jBqeCHMmCTCDXI2TAu5dsXdnIfHKs+bpU9lN/OguVUk6BuC
3KxXeCrciwHJw5Wydq64gTC/B3KEcCkcnbm9j6VD9seOMv1KKsK5u7X3mzKoEGHB
NCoD15tvPx/0tut2z4w+0lfd0aW1jH86sMRZSt2vay+t/K9PgCk7PLz74aRHmTz0
e29sxOS5xLpjHqZMZFRTvWcrTb6B6osu2Up+C4jh1SKD5lhKAuAahJjMr6NSw1jk
YxurV8GgPjPln+osqxb+DIgna7MAeRayz+cCkEgpEsrpP3fYcqn7VNVFG51ASsDG
xrhAZTpR3A5tb5VxrOTO1RrMYGDORvS4Z+Nt/EEv8fnH6KuYlpOH+f0xa5695BZC
psxKD9upcilp8+U33bzABcP/FX2E8FjsVRhOXi0ObaSVjt+xIdREck2aGoESpcww
ygl0ZJAY8RUOTWRkbzGORZeRJvEb76UqEJ2e2zwWTkbJJ7eeg4V2jJqIIUiBmhxW
4jROD74/uMaRJITIyNhVU/4ZbB7KWoIuVtPrMs9VIixSb12maj+yoH1RnmHdWzRB
5acNFspzmETvMyxaqZqXfWWgZk9Qa6PqmkcMcAoukYt9okFxg4zbFSgkUXlelz5q
yGOdID0hrcE1diRUIM2SzDzxoeHns2Gbz7YNyg2KpUGCB0WjjhWWH9GMx5/jerFI
ZBJpG7oC0E01d9oWkPy4AnV4kyLdp/CIx2ZMVNwIh1aSkopEa+B1fEbo6G7izPhK
Oln7z+vhpVUTWzZ/FDye3oDMlaNJ2Z/RpRMH6zxwP62+IfA1HMRvJChZYJqNGAkZ
ogw1vj4ebqx05wh0kv67EUS17LpQE9bIn6ilwJnwi6aH0FEUAVUSC7bhpfeTbxFh
wnFf79TWjqwgRfDFUuRjTm9KwTBXaJVZ1X3Dfzn3HVr/xQZ9hsVe1pDmE1/KM16T
ql8XuJZOJuRQqbBy77kvvAqwPcQ5veqMLHM9KBXejOuPyo/PXMqADTWmMuFab53m
iIsn+2YzONSGDGpOCOoozSiH/gWCPAMFEdzOCt1SvUb5PmPoQ98VJe6SG+4T+LyW
6Xj5bMOjDZIYo71qE2A+UfssvA60ftdM9zpmewnH75Zyiacl+tRzQqd4ApPfbPZ4
uF1qP1zXtT8iT+wa5rQf61+hVDDN679D+UcJmgAKghs9iDZ2Lxx1xcIDqbrApxHw
gyOa/Ij8qSzxWo1aEN7GNQptfiOM3ihnG+sVPiF9lZtw3AP3ONRXZKW9TrEwrYDH
AMhCwkSOyFV3mW6E1IBSb35A+uF6Z+6WG/89JMTj3aiNGOk/FthGSkv11HSrNyQL
pn8vTgxWO0K9v+0wgDtY4ALQvipB4xuLmRei84y6p6P6tfyJqYiS1Aj0lxu7OahA
IJtedJCZzj+vgt0UQ3IsFnQHukdOWKQgRZbA6/DM3j1efV04KvDfyuOPZZ5PrsIr
5JKToWjEUJfuFPIqdsq6bBCT0EBPDeEbX0oA80XJD9iZy+IvH7ogfUmRrHGqmOSH
ee8fyr2fFteOOPDfrlmIsP9lUanRLoATp30QXgFjQis/WmdUcXbX5txmq7kIV/bW
fvoPe+vWJV9oNQNtotKCNIXFPMEtOtfkmYlxp5PwN8aHi1YgCXzxJbiBxziX7Ye0
OJvDk2MvjFSMbYu91a2wT0agVQEGpKoU0Zr3+GUjdQ4w+nC5RVjsyHqPrUgFk8M+
+WcP08hzWfp1IF9j0mukn0zRstRLNg8F3670P8fmosPVnR2T9H2ZkE0L/84nA9SJ
/C6Lo8/OGHS6V5G8pJzokXYR3+sgXBneniLeHgPqXBAixt9pF1UJia+/s5zhINsV
QqoGl4BaqWoThCs7HEhH9lqtLHMz21cTHzBYF1aYkfHV3axUYIesDps3ZBfoXqoD
gHmgHozZtq1u+3Lg8q+yO5vTuvlWFU50x9A44nY2qmUb0CRoyBXkrao67jrxx0CV
EHJNvmNI2U3PQUR8ZIIWxcr7QrD21g9So17Mk/fenchgHDBkyDJaVtQxMKA9WdQo
f6e9JFMTKFj8PK5o6FROvPmlhs4QBmdpJx7ca1Dh0wX6TQNcgi9Ambity6fAM2Pf
fR3BJCSxiIoePmbdhmasUYaN/vdAVShHg+LC27WWwElfoVas+Uk5/SuPa47HPCpC
EtS2ciky9jFGVkXxkS5f6/l80w47d/SKeW5IJA3B+52rIWbWm8HDNbmSN2Z68VDF
8uMI4GHFFrwTPMQUpQXz+xW6Vcavn0xjQMidAYMllIgSD7LvTf5Qq8AFpFugGoBx
8u9qh51QWiBotgL4Lgk66MI3R8ZmRv9zYyKuoZz9fOmsHZA0c9Ebg1AXoosKs0uW
s9ple95Zw3m3JCoCGRR7OfBzkzHeVTMKsgRYx0ZFtIa8A+z3tzT1pnYa+RspJO/J
LHQvwbnyp6+OaMLlsxg1H6m2i7IDuwXWVzFoYiz7tqUOWr/riZQ/Igt3kpLWI8dy
LnchebMfygWafZUOmdicy0+yVhfFze9GK+QEhMnu6fDrnK5Vatrv4tKQbPLL+Dvb
iHjuT+A8SlC4aTgZrHTH4dEyzmvNB/JqE1ffRI7ns61YNaLlREE0Yfq+XPeaCfyv
ChqmaCN5x9oZBOf7MTl+1ipa/QoGGrEBpYacXm5j+QaD7k1do0Z5XoNR5J0BZ/7u
0KbZbkkx6QNeaE4S6tiUYPgNW5p5hAI0L0JbNkGWlV7+FlF3Dvi3oi5ighrhkIHD
lD9gARjEABEs3TK3zoAf6YoA/C6pw4gToUHgcUo9NEwL+m17BCgiXjiVdnbpx4tX
TkugrmAGXvWOvFDwGrLzx0A2VHL53xqLOR2GD5ZqW9S+mCPkG/KReVWpMFNJ/UOr
njbmsyURpTag1CGAZi2KgctjKzXolEp4GUseOdVH6bl1trv3lwKxWCNndS0vtyIO
IrBx7Aje3yOGQYZPV50h6Og6S/4pwug0T0faBzX+W/7FciyaO4bCRRQ2ovATQJXS
MUwT1neBR/99WjhbM77QiGYtUj8h67RZL2aFI3QHDjcB//mw7so7Rc2r/6JPfDPG
9xZB2SbuU/qNMRff6RrJFgMJwYY0PN2nDcLo67JtWCB0sLTh/Hl1gbCcSLHEqB1Z
KnZFD8b0s0hvM+XzKxS/1oydYC3avEiNgMwQJTbZvOUuPAXg7FGCfNOcWF00toFq
pNKPCSEJV3mmljs6DXC5Z4tDrOv/PIVUnhSDX9UNxdddsb5o2qX6BdDr6VeUZrV2
TZ17ozdMnz7csVi9TPJ/bOD3vT5/61NxRrG2AcFcGJfFTJk6d7+x6i6dysCqQLUE
8axLULgXL66JWcqeZvuHNnkWvIyQHsUO4kaFqJ2DajDLKxORiETujMS/RCU4zdxK
x3g8DjbSsWcyIKYTaypm9gG25o48hFphi7Nu5dyeeTsg8qwSHO/lSbyGir5HIRHO
HcfP57yWA6c/vefscSVY6YoyRHUcw22QtNZsFqQvwlWJ5/IqCTxDrBFUA9Q4+8Ri
Hfh7L+XpAbvTwdsAFEpcg3hpoqSA7xt02jlrJwYH/9DEYaVvCG6Lnwdxi/G6efPy
wSpOXTtNe6rIDqflTz0/s6jUQj+LfyUobVjNp0bzAH9k81okDalHwtknYmqjGoUc
XPhEbduG737x2DeIj0f5+SO/A1U4S7wLEsaFS4C6Uvk9Q8nnQWoHK6JKxXiB1qFd
NPHYVau3qpQ1rCrUEcPHsWvcojv83uPS96BjS4Xn33zZMUQvi0TJw4PiqKWoEtTc
sswDa2AGQqg9PqprC/4jgQ0lNg3h3tITpFIYxNQ0nEMzoYEGKdfjznA3GMmt623m
wqBEKKFPFJmB89iMK/H9YbzvBhCeptK8ARMTtnNonABGTtolqZ5oPbYjS5lz1b8x
ivtvpQh1zmJN/U+sY53MDB5kOFyDbcHiOJLjg+2YfCXQpiRf6C9WNlnqADl6Zpbo
T9aYXHnflJnIdvaW58/DkAvNdGREAjYmc6bHgR2rACDumYeisHAnTisGbRO67DZZ
ZGJWs04Iy9jqOG3t36IzDWvrpHfNGo041eelolyR39XnPxdMDY7aQzjTHUkSk8Jn
aBHVL8f7ObGRDNiwYSTNR8KyIHm78S99v2EMFy2a4gwuViMoEbViEQO0Pdkjj/86
x9HSe+amMyTiZbwTmf02ABV3wXbPx0VdxJLZGuYy+S9ktDxR7fa86ob+7/Q7nLa5
+E7SeFmJaQzn2ORdMoKtMnnp467VMXnDPUyKfSqHQEv3PgEHlR1jjSAftIbLVgsh
UvVZiPizrVyBrq2BSKjBxvMKCCtRh7hl4RMF16NenQyTGMB1ZIh3h4YmvBcREKAv
NkYJqznAVzZRDaaFKwrJTcGcmFQdsHM5wWqlN6MIG7+gdQnALbV21cyNAeVG0G7Z
s9DlciZa094bsIiflU31G87xzc40xJDBLdT4BsrOIg85cVWF05uT0VOW0R7kiAQ6
+nUv8Hs2d408H9a+WHPpKGqgi12CPizQFa78ErfOrk0Iv3o24sFY4j+4vUXj1hxK
R3btBhsVjta/PYmBA8d/eDh0D4kn4Z7YXthbGJ2qM3427I9Ok7nJ83pnWBYNI6kb
GXVbIAXZn9MKcJDCQxO6VrQGnXM3qMuqomqZ1jI1gBOBkkrx/XMWIqMcJ9KxBtRE
9YKk1Sj23EEokNeaggLsWO5vs0GRDTuh7UOt69XBPK+V7RL3Vh9k1I3q0pFNDyll
3Vm55EoMX0VrY9ezBPhjT+6+hB1Ef+BIOilTfqXF3+EBEpFnRjU3HX7hqeiqtgcH
IFlxEP029C6GO9VZiuAxgSMrYpP0LRVgaYdNkGGu4gR/TkdtS2umI7p07aZ5tiDP
dwlKDL66BQk9lGHY/Qi0vcIR87tJQuc+dnCcyN/x1wen8YI4v5dZETRyFSALXpY8
nKqqSjYjm91QMCKfG3tkTGwwZGrJkXGYkj7eBTqo7gREnf/O4MRbxNMq0/+Xl+KT
qfFY+TvtCcRQevBiuZcL3pSVMLquueD1aac6aJT9waQj5jVV23GsfE2GB3Dm7SUO
IE+YTpQTzWf0wgN8NSAk3ZJUWlqBDFnz0ce8W/0oOUeF8YwqJsMhtHoMIl5BNxIQ
tfQCpPoNzjxOjDh7QPJGh3dCeKNKhrlRJtpgCb0zfhpqEUFWW0k0BONDgY8Y+3ag
1IabRkS3jfIjI8pADXa/xwADlDrnHI6rqDMgaR9fMMF6c4T9FX8pLm3EhlwVpQoa
LstvEfi3OzTVJH5lThEmhk69Wtg7uzdetX/RNrD/DueCKgjd92p974jDaLnb3VR2
QjkEZHLJIgyEzd9M5X0m8ZEY6VmesU9I9w36SuZISOkWNIZflTNfX/u9pUAwIOvo
dCzNKzBGLQb1L7BpOWisJjySZ+VgTwzCV76b+ATfUGW5p+VaFBr/Gm9/5jrnNFjv
MseZW6ODDfIGDmPrEj0h5YTgxai4Mc/CFXGLxwZzDkiVvUpK26V5/TM1IgiAhdlq
pa1xdv7M+tX2PGqZrqLn8j7gUoHqjcCMgZN5zQQVklC9wtxP/DArTviGWkdJBr6G
bfB/RDcv7hrv2ITJiR12X6Msn3RBVBWy1TU88Av1u4LJqTYod/3BKr8YqCBmhl2W
cFzZVOnFu61Kpi0Jye9gCY2vKqRhlh0dhXSA+sXZzp1X+XngfVQLNKjxszLOZeTB
0n5OUMSe5CzxdhnGmyVqjht6fvo9pLxUOibD/DOiq7tqnithvPi3+nrMxo8JVPG+
H+YN/Myxaipd3t1OxP4znnws+lkZW04jsRhQTj774dIlVLPjxQlY7vxp4YA8RB2a
X1RQinmP0G8ta92A/eFUZi9+SEzlG23JNkTrjA5CT4aKKQv1oX6IDDIT/9Pj7R7b
a+uSRLALFZygObs6Dl235ws2XPJ+9wKFocpU105zBM6Ud75W5uWc0oIyilQ4SeUI
u/I9p+6isgcRgwkLwGit7qsB5SkmXJfKMT/2DCzML9KqNacEZ9FexQcr8jn8CAV7
4W8JGtMEM1oP7TD3DXFsgtX/iSwuhQnrJzVEi/URi9w7mAwfX6cHeF8hfjnqeXRx
229VZMjdd7BQjNyOuHbv4SQdkeStv1wXcQ2qirsw/IbNcGAfjLsVMw1y3Ju9eZN4
CCm7TYQGFyT8puURKJMjX2pxJ9r2cbseGCuIBrl37uwbxxipKg1AzURu0Yfx26h1
qsKHrjVow1Xb70IB8i74hWWLPRVOPWIfx4qyWJ1dlbTPE22I0BZVm134+/Qv8sh3
c2SvCzjriCoJl0mikH1nSOumvtM5jQZc2UHoKx/F0AURnlg/kXLS/PzcaAvDaePl
omtAZrtdJ7dHAV1OP365q+gUykp2NJPw0LbzjOnnZ2yGwvIrvHFNIwgFcAQEnPRN
bSFG3+0jUC7F9tRc+ZDrP1wvZUvFXonuNO5TmGF4QFaCGzIMqxxqMBKMNcRNGha+
FlkViqG1+jNN5eLvayCR+oO79obx8f3wSSevdo/0leF0bw40P/fKIxL6rSS7KwB4
C2Y2zkMIplpNOD3TukuKFvKkI/QmRAJj2p44auPjNwQWcN7KysKERuRAEedUWgvu
VC0EsISIQGTHs9sbmY6gGm/y5dtYkpzB2NGvTVn2Czla+EYhgLzwXbPyUzFkX2aM
Tl3wHlakQHZLUZ1hv86uI0oBjFiwKZKoBzCU0NP5j5vhLk3FscxKYVI2+u/sifnI
mTLAAajEM/PO6WmVysl7Owv1QNK1+UCGYLishJ/iEBtl/iEEiQV4RkrDwHMsWJly
LFAxd2khwo8lWw1GiAli2MH+dKS66WBPgcZ2ydj5XgLOQug28yZ7GvakTdnPUmVZ
sLOFUH/YMhYGkZB2yp4Zliqd2C9bwJcomxT3EQGqk3uHgqIEZ27nvzUXXQkr5GVy
1ka43QzQqyrpu/qU3s/C0E8JBl9TjBX/JBJ0yAOum926suKGsiKnrxq/pT0yCCMh
TxOGxrpbAhSOK1CIrBNVICV3VkJn7nP7SG2TVGOqtHpQbS2b0Y2p+oOc3qrk4ZKb
PbbMih5Aa2PXqkqmneMchheQ/mVXDMrCPVH3BojBfiTfvfeG4gW+Um+Hj1by0Fmm
BHtMaiAW5UIU0SMK7oRQuKLOX1ghtChqOOnqpeJO7lLKvVdWL0ukkd6/77nlVWOq
i7X6lVPaYuoWWv45t6FH1pfBMVIy5ABI3Rk2SNidamWiH4yu8jQbvoMvZM3owuXi
dZ5sR6q7huyGOgFh/OXaCGc3HVTAOwGgKFI4JfInAi5v9rzyqFBgWZ7uAJ+FRjNf
zDBG6z8j6G+hVx95gblAEE6L2DFyUAtba5vNMU2zGiPLSI8P+yyum+FNoXNZCUzE
naZSHDduyVGwlzDqAyYVjjt6o/LYerBA1zJrjZWNzdchBm8XXl6NWK15HRT86ODD
I28m/MrZz4Krijg5UbIczMoYeIloBoCUSFxDX8p7SFXiWjsMIikVM9cVfXNd++oH
wctYAiQag8sH/ZmnMCPRtmOWGg0p2JuAo8UVIXHIrqploqjGwmqvIVyltDNip2hi
zNWB6DDbxL8Qnyud6cyWE3bWfhsFHUZbTYCxCDTZ9Ndn4ZkZvUOV0acL/CvUV/7Z
b9Q9LuEloR3qEVc+eV8w8HKo/l3Y4tOmhelzgemYywv+NrO8Xd3e4OFZ3UYwfaKi
uWbmJHcarGjSKUm1aMVpjZ5LZIPF4rQ+SVVjWxS8zyrwLAepcHVeQJ9x3xKKte91
Cr0FiRX76+aszbKKyWNiU4PkMCiP2bE9KvHRFDNBSlDlgvAEuyOxGFHeNYkuNmuy
/0HQ5zLYx07thSJS+LWSjcJuxXRXF/wXkvmwVdCBs+X0NZHX7JAJFFlwLc4aQ8p/
27fXUDFlcmw7mX5PTrKArGOwK5E+mbOGT5nfyVp/2KWf4VxsYDJ6HcCd8YCRE3zs
O+NCa6u3kjnrUzgI41yRBCXHCs22ko6/Xk3QuyceNoPJhg59keFs5STpzAlXdxSQ
HU8eKVjlYzAFAPvF9bdjAavb9ndWSVFP5kI5YM8LCRYkpZ14kEHq5c8Yp44Y077V
RYkmHtLIJzVQA8zC+r+r0YN0nRpc3UNsSVDmmLYG1tP53SYgbHF6yOAG35FyrSuq
fjB7HG8Gsib6ac8YFH5qstomPrMarwQYF8H4ocvx/8QgI/q1MlNcoxIrwnrAgxRn
7vnpt+a/v90ugRINAkGHnK6Pw1OXIVSM5KCINmiBEVNkPIyWLuxKI/PSMEP/DckR
sgv8QwgHvHKBJWoweg1vgVkMLf4x9AJ9/5Z/DauZBG2/MGKCDv0jlwioW1FkLU5L
mD7cfflDaP/oPiXv+6sbD7cZ4dQMvPc4C0WL+Kpxvh2D8RE2Quv/6CKYpBJW00xI
e2S/nlTZiBaukdW9lfxJO8K+cnYf7Wni4mvYmeMXmTSHWpaqMEJOQbEqXKm6ZH6Y
l3G1EF8G66egZQCTt1q5p2I4PV6EnD7ajVWzHkDuT7GxB+YWTmSZOEHoWHljhFhP
uSF17WuDzUUFh1NWhvBORHKSaTubLe3QaIga9ZsVZQI9vGfHizZwy9QVBNkX0Lwm
UiujXn3bTHRze37llHWHpowXyNaq7RvA5TNTVuRydH9ofkubWmheWDBime4as362
s207Ev/rbiL8tuEcLj+rCpYstZ/dg21BD6cIxNupceUbxinBfOPGr+3QT44PpfQ9
N1ztyFoNXOELZGw4t7cQRAW2YxnQ3IaosQv6rq8fZMymP8LdV/JrW6woLZLGWlBn
76fNJA1O8LsKlXcoz1fpqUtLYCTvXbGvqeDf3YlLLUY7TSbJv3MPR1JDogIjXN0y
fvHDE0i90Z5kVAJKy9aUllr8YjR1tik4/vp/jVMKAWSfbMXWHVC0zmQYqWc0Sa3R
JYu6IUYtn03ryutWJ/6dggSjxEDTj/vKOtoxZIxks9H1McHQ+BpWXLm4ZI86/rjQ
Eev5meyPqLxPfgzfB63jnDNkjtVnEDR4WFXoKRVPhRsoBEWm1Fk/u6dGXwbwlhzr
niFi6vvc8KUGVC+OF8IiLg3aI10N5tgO8Q6+aunCmeqPbS2WFL5Aak0WIJ3OtEdf
6abDsha7S/VSyBjB1ynMZKqm1Qq6jyQVHwR52SwuNnu6feop4DC8kkP5DyLA94k9
FqC2pymcZHk2yPeGjM4Nqsph0iAUhXdWIyB6Cacq1fx9/LNELia8hUyMMBU05inU
bbkkVTEMpM+ztKxDmaficmtTiT7q7ml8+UTRKiyt0BdFB/TVWZmcgSxeCyOxMmhj
k+l0Kymw9mqokbVzz3m7KSMiBuG8zkDn8wzQ8zGj7fxJ988lmdyjfENlywl6Uaz6
3EVB/g9asmbIOoeLKtzeAhbzxegC1kbapTF4A3gBD/dGkJqNu0HWxNRebLi13XON
STNK3b4BMH92nTQj/QJQpHmXjkq2G/jiSDSrEINBW+v9JpMJqqtVKX00SXiIXEcX
PtZtvuPOcpPIrHBrTXtSLs5trYtN9nHKhEhWneg5r0Jrj+hNw6kPW/OLUrVf/YGy
gDuSm8OMdXmbMVFkatjjh06cge9nbgvHQh3T4UE4ZuaVg8x+9+X+rmqXq6xqX2dS
RSQqJ3ZmffhQbMd2dP3xACtX0mK/AWv6EC1IwK8sXYEl4siAA1o3J4mwNb5jTuLv
vKqB1Kemwcjg0EAc/sqnKU9xLQqz+9elVRHNDdcYJCsWL9yVjEIUgf5Y/wRXc5no
VIcMnT8ftSv5/d5QtHyLdnalzm1OELc2Tl0yhHmrHZ9i/8cZ9OdaAumNV5V9k4qU
oWUMLbtR7jotFgYtfVf87aGgO4dOTlms4ikuWacATaXRt0mf2lH2ZpDlR1HPONzq
N+EZ6EK/x0C/fxE2Skewf0GfcmiP7vM3XMvIfU2ew7hjYvG2n7Uicqzkmqg1mrb2
FPFWeSjsLT7nktOsNH2A69CVBX1/VpqU5+Ea4ASxNvWGCvF76q04/DX7pi5vwmZw
PApHaKa4T2sFwc510oczip1T/qJOs0YT96FI0FrUN/ARCy1eAV+TOPXnEVFbAYba
H0eG4fcFS0TqLry/qYnYyvVEk4wxNCPQ7im83dTUoo63tx3tSSHQyBeRe4NQm81Z
J+h6wZSNDAvy/bE1tBPdoEZ2FGuxlZgSEweATyFvq5ueABPKdZnRxr8W99whQgzb
Clss72YD/GK78AnEKgrpDRAyJoMomtZgwH7b+V9kujOuFet//3JBShCCyRjXZswB
rIVm7yDkze7F/KCttj02kztdPjcUbfhcMlIEQt/M2LQCl6D6ky3V5bHDA1cbMfDn
ej2tZgqkkB9TlFzLM+SItRbg769GptkJXBX/XZ7PI4XHHK9nyX2Ix1CMRIVZeJJx
V6TXcwMDHjB6kn3m//+xOMfhItUgJv0AxD8f3qt1MN3xGYFlDmrJI6DRkdpCTcgT
8vvmC08exlfaWTPAFuNA8ICIntUfwCrBHwwMEaRUTsHlQf233Ij2xaDF2jE/3GcN
l5cfegho4gcAbljF3VRcA9LKBn+nbG3bjEQ1nODeGvLm7QE12IZ/RLUzTpHuwItQ
qYithThnd9XdUonV61jHswmA2rGXf45T8Ejdu+ADAl0d9mBOLKVJL8jiUyyF/78s
ZiGuh3OBlAFZJrqTwayunXE9ur+RtqTVSG98qdhQXvwsfuVrNMRYMbqQCXFl3rza
oazRSQReEa2+aLmDwVkCN3aV3A8rP7w0mN/sthN6eX1c2y2Z9T+z4k5rNdOsSA30
Xl1PCGZ5pcubRtPvD72Mt/Gd8mv8cn0vf3VOCFmDDAu/NP1shRnOzGB4JiRZF9T/
mqgDr26Jc7BUcOw7aw5fR9DaB8NpBPvkFf40voyhO/jobwXdoKpbeWVodWmL8mH1
KUeyGT2yD0f2oe+xTsIV0sXwl/tEsxx1cEsIklH6579LtLTaDMC/DqEweXNF76vu
jue2f5YbJXf937htBYY8h3BnCuWZ1a/coj6jhhUpjEEPXG+3pvRM38aVqOCYc493
EtezoiRYAa2JgvqB5OD75mvdXOHWkBrsgd0trY0itXENKZIVfLUVHothChOWE1fi
1nM/oYUm/+vUBicDvbbwPL7Y3FsQWy3BDg3Hkv4vtQGU4sGbnUHbzdT38BJjVjX8
oiOKrol2u0pR4x+O+nWUDbofpnn3TCPOHWvkvOICDqjxDvsRgTfH0lj91YMwaALj
y+cw8HyrU1JRnp0oZnhQQLSzBT16eEsYDDCSO+/pHbL+3iEE4otlcFMUHDaC0tim
550iVTtB90oc5DYFuyXE3Nn2WDRxDpWOAKR4BzO4WcM3kmeBfGu8YC3GzvQT7uKx
OdsACzJtMDUhApQgveNMFg62dLR1Nf44lCM1FQgeiKaSamlkCvmuLdDMsdWCFSRF
n8ycBPxXdd4sRkMONfSo1cP2rk6EEyp891vOq43yd0itoWzhB/89hrxUfwpT094F
6Vzi1SyQCg5KPHwbanyhW2bNYsd5QrnHkUQcFPUyOOeOBJpXi1NDandOylDVRMY6
mj1VQOOzFOZuhL4qLKX3i66hk9Qye3YavPjfxY8NDITMlNTszyydiRyUn6ocPnZZ
zfvZsZIP0evYScoF1ugI6LJDrMkPkQTnHn7SIgIcs/9WAlu9oBci1IwDJtn57kVp
Pf399nqD/2HP4H0+gUBjSNWyUF77eKBqX+C3IVbJp5zZIY2ClpTHmA1X8C9txKSX
YzXGz0ZtJKcCBYuTiU1o0wgVkUbMWgDiShMyTXzJwg2/8cZ/v4xcCL2IxC0x2xMe
E6sCFUzx7wCz46SCnimMj+ffOtuKpgyR0cso8/F7kBD8uTiGJKosH9kjPd4qi+I+
0ID6EtaNnqN3tlgOxvMCtTYjIuJ6eAE7hijnL7cvKq1cw60JO+iVX55ktfDy/xm0
ada4yu/HQap+y0jFnFw+c/4Hbyh9JEfX2DvuMsWI3NIevGddsCC0c5Dc0u+YFyYC
00lMV2dQmw7rbueDukovHltrwQ9hBbj2QplIc8NHphxr2mh7NOa27LNrX8TuQros
SVL3LaZLZzs6ImsUvYnzXqxBFDznEtghDriXaBMcSNwgNGmNZorrsBYpQb9/Wcgl
6SFusp21JyNnYSh+cOX08ADIigSfwmvfmeNS6e6KZ8Gk+XpsIL6HWJIHGvD4krMQ
TOP3mhUq1XLVLhIRlyxfzNQE63G9NFfC09QtDqpD4oh7PONl6qvaXboTEjHBl//w
27fkLYCOQ6x+lwcrhR/wMXAKU90iaUYSNjaQDfWcCtR06zxOitu96G/VwsCS7XCs
iiFz2Ws89LyrOFGKCyn/yKQg0qnGAKLipcIQQqedD/IbG4Na39u8/5YXCa1eDwwV
lCmZAcvuiZWKTCmj5Fjxh17sm69n5ZwDNW181Nw+cf8qnwnU6SawVeRzxTObWvVp
HdGUI7Lu4oZVmRv8cHo51vBv3Dq1O5KCNTGtsDF50Poe3cGKc+CuSJpYz7Clv/PS
ppHLnbpJwDoY5smWGM5+yvGwhkSejyk+qBhf7oLfdDl/p6MlLbD5mCLCesiwUSHf
EZxtyXnA1IOycUfc7/zZNhJSwPtWs0S8bXq0MGuZzMFsc97bfOIPzEDKHN9rjt/8
o7olMuyzYsmRHbfLbXccxSkdUalZvVYtuIsuaeTTzcakOvrUONhdkpEsmqQ0CFA9
/RV49zul8cqvGAy2qQ+eY/w4xvlCbltoRULVyMogk2k5nYnwD8PpoUYP5m2+cng1
/aVaVxxGVscIcBEyB10+8ZBSS/+n1Wbn8uA5Zb9x3rmvBiCWdpDgSulCeLeZgcFR
XPmkJiLRHD7R6gDB5Qi3wC+mzxPB02p7wA9N2DV5L/c0Rb1BGpbrJZKjPhGIYPJe
yLn3G9YPvV47/r1DFfKSRBm6dRTh5sDZn0vbiihU9/zZJts8Yxd/LmWI8Ew72GTj
e7wy6WUB9haGLFOx+u/QLHTF/YAynoXvI8U8+tNeR7kGtTR4tKEDDCTqGwtPmasr
Puxi5d+LMjjvT9axTgGIF8KeuHwPjqcX71SK1WFgTvQF0gHDo4BqbAce5Ru4azaB
X7UhIV3V1yJ5+gY3wOZM8BROq78XAbahNlv3GmTfvlEQOYiidAlKm1wjwNulbL77
HKIYNtYSxlu7IVhUsDSJdcAl4Wh1BHZ0HKsMCMld/uqxJdCK7z7hkVRTE5aKFG+Z
EHkfJyH+ANwbdrmv1E6j7suWcxMXn9Sm+hgVt/iEKjVrKH0CY4KvJGWfRyy5Uy9O
LfD4D+e5ZSIJCfjRGZymLVMXnngBqQFQWh3/J2neRLlZfqHI/Pa1sscpYWoZWcMA
InOs4NvF0vkZuHPYzU4X3U5vQHutW/m9KsGo4nmiz0aGGBzPQtkSe7jo04ZkvPH3
Z21fDx8vKdZNzhelq4X3WWP1OqXjrDUFZTQZrPRBF+F84tjH7doqWdaQwuIWS9E6
O6AEBRENwSsxbTe3oitEeJbvzPhQxr1qdqiO9fX9OlawFEvm6B17iihFWkYvgYib
DI9ACV3tzl7aooYZnyiOSgsuReUd25Gx+emWn8DptpXlmYDlNof+PvSzEBmN6JuE
LgO5m4DtCblZntIJAwo4tEm5McX72sTgQixH27KZNZWS2bDG0eqLMH94atsXJ0qr
4Eby7nVsx49AV0XcveRhMuYlkmeGUK/1pnGG5Hpq3nEvKE/tDrNaZFPpic277viQ
gVWwSDzm4QPw24ixmHBYWAvuWMSmt3b/jV7luexxJmy6BKsE9S56o2AveJDT7V5x
5Dt1KybwRF1RgL7v66vjH7YRSxDdNSdq3Qd4Sg6zeC7AcZEFVFON34v1LS0rMqvv
cK4YiPTxDVdbR8Z2kchhp4fZT3rSdSE8jSotTQ4TnaUSF6YV9O7GdsX8mtdU6x7q
FgEVEZRFLKRD4vbtes0FloYufc4d5GZNqhRy0OQwECfVJux6aTvoxSoRQtSLgZOD
Tgp5XrPDOOIYv7A7/Lru2lCEWNxJQOPSENjtCAGqcmarHoT/G5JVOZAUH8wAtLhX
xaoPlOsernyhaL3EG/LAxLCBgSJuul4zb5x2pjk2aEkp8HbRVsGFbr+2Pv/vgwIM
x6iPtKgSCpvh5uKjiu2p+sXaKNn1iv25e2N4qY96qfnTacHq2wC7/rFWOyDgE/uS
GcUWWV2YUUrAnpwFWw8C+JhVP6lhB3KhCIPaNbiUZstTRJdir7j7nDE7fssgbej7
4hRw62ZBXbzDg8Tm5xRJLkTAJkwe45eY1UXx7bQfR5wJVpUU4+4MXKf/4Xo/XTDz
c6zNRo7B9bThAdPvSCxTHOnN6tvC3iYHMZ7VlOkERa63TTgpNPiGck6D8DUwrC6g
ZO3lp7vRqBwC8b4KJPTkce1pqgNDmYpp9sUx1qIuh+8YAqi6dkXYYWPqZMy1a4tA
/8YbAMHAzVmrhc3sc3xdWt3ig5Trppk7dNb7gamwkg/jCBKLLikIfQ74E27WLyfM
QaBpwA/jIBXT8hLXZl83Obb0D4WluxB2AdfAEOaNFkMxRWjZEuMiLSMMIgDXlb8P
d3QZ/HRXTBkQpYftmNr6ltGKGafDq5gs/jWMRMaOW/y6JyJ+CL5N4exF0bpTcA9d
a1GmkaoISKm3p32a5+TPoaTg6MEwda1NuPn09YEFWkWnqU9iCD5eJFE9pAkcBxmQ
7nc02rmLDy3QZsgC7vXiwknysUCPFwgi/lvcFMnhjTLgN/nHijNhtcLUEyWWXUoa
psMcmfTUhP4A8Hh/1b4k03vqS6MJymcXCgJol8udZIj6Z89E0sBjopDBsMG7xl8l
cWdhYn98JK5SLSTEoIRQGYYEFm/VNLflY7QEZNj/MrBr0FbrcHs+dtqv4yNkNkST
AtQ56pJkUbDrB8lqKWGWWTPEPTJB04HXHrMP5vU6OapPstdvai7dkNkt0fdyRbuA
MMKCq31fy1eZK6ol4itLbvHbZ1xRv/cJUItF5M4ewu856BlSNZJv773O/PNWQa8k
UullPQCybTElHvJU6f9uFxIuNTBlFuGE22Z23ginKeLkwQ602Q+RAblvvSO1OhcM
EG6Cf9qtXZlklwOyaQmLYZ/5Zob3Fu2vLaMhZzhIls+qcCmvna8G21nraAfXOy5L
R3f5w1Fwae3x0qLJ86PVbec1s2oSQmnfJkwnbfRbL8g0OGfjyR9XipIqdGJWrAGk
YBA3F5WRQ9Io49cGPkkcEDhuQr3p1VjEkIaQydXJgXUq/bbGdB6paKxKcNNFMcR6
6AMPLXq853YDlm9ZnoWvyMDKiHJCWMRgqGm8La/TMp+Htw0SURCjBMa87pPfHjx2
QNhQznTk/1tDHuzmuNPCqqVAZIOrCEe3Gs+Oji6fzL0Mu1jbgt+NvaHvDO8yzJt7
KAY7hOAnkx/2U8EaEDxupkpSyqF6OTxeHYyLcOgCBzm3bMK+k123DCVsJh0foW0E
wDk91DmHl76J+9dnizEYtBbV5BT92MGGSvIHa4it+7TV4a9yleSufPYkR8nxaYkZ
K+y/u4D6wL6oZ9ICVDUE28TCfeKx3OBQFSjDy99Bv32bXzHEkvzpow85sSFE74UY
j1/J7Y3KlKRd0691oeZ7E7ZJETCBl63r/OPjkAjqph0nawpyA0pDdgND9gW6r1T1
iBOkLWYi0M19lI/0QVwqOTUKKpGaPETg2l/J8vRdprUJAe8ry1THYHt9k7QM7e7+
/aj/0C6RtIYnLzWa6z3Z5eykQk63fL/hixW/wg90RWZgHkDp6YVfbl1Kwc/w64py
egicSkMXB37K2sLuYtRvX+mgHK5z5gYu/q1wKTPSFZwloDwLUIIVLKSq0zOTeJNT
5CCkn5U2LheYpeSO/R86p9dInRCMPQ3+Jh7+rcVO+wgffCq+2D2vzNGpbxKv/bC4
A4qNCeByvyNZyOUeD1YFlVvnErCuJN/cgAcWFmsSbcyn7bYSl6Fzyk85pH+3VCfI
QMxj61vqievccS+F7ioe1T6JFO8IP1ErHE+RCCUOufYtm/JKO85qRUUoj1brCfrG
tc6RU7mSU0sc1+sc60x8vUD8QPIOhEneia1BM/+HiLoy7O8hk1mqJU/JK78mtvSM
Jq3Td17bTY1gd1lSh6U6xB8L0RX3mTDfaEUv4/xTJGHTYUZ8jTqX9cHHlQrkmBAJ
O2E1uFsneIIygLXT+y/c7QrJcY4kAnnvufRE1lLdciQFyUYw2NkM4p1fWcMk6Tfp
3pdAX4qfyfVwzn6TMDhwHKUECMeof/1yrOKtl7MTRTRowx//SAfSv6ygLz+anX37
/ChfvHRBrOC+PLQ2FB7rSh2Xk1ujFBMIdJIXdz0YPSJNcZ0LhfmECCvvuhZLKTgU
AFgw+6eNdYUrwjhlwz7JT1Yu9uHl3rhHec0i4mwej5Ienn+7h3PwaxC2pmIjS9n7
z9wlGI5h7Kdr6mD3f/FWld7Qb3UKPZap6EOCwpPEwVoW7itZB2r884VNSep26Ri+
HWLtbbyUqgFtJ24Zv/GlK4uZJOPYWLxb/Y4mnSzrpe/VdQ353HE80iboxoO3hXSq
yKHvebc8rcPhZ+z6aWjg/PKoZuQkGHCZKf3X9t+nIUTutmk3wkNP/PxpwqYcsBDi
DqhLZ7+Oos0wFQdtYIbYySnJr8HZUu9+AXfyRnRC+Hk6trTZ/BR5E9hvkLRsSWGy
NezUsOQZIJaOfYhe3Tcm7Y/j+bSCl0332f00hli6CERkCEuPUoyYwRn35jnbXsEN
9o943OUgpdbmJ22jLkZhCBt3piCfz094nH+lsnWQGZYOdKgCht22V8uPqWNeUhq8
Aw4KDAN4mQ2P2+WMa4MQSevpUdxrTfeNlCfD/4AyAOF6O7qif5a03Qz7F1M1eq2c
L8VXphGGId6UkJlgn3e1p9BevsRf6740SXguydx6v/VTDdw1kC5tNRxH4v0kcbpU
0yFFYtQaD2gAPJcohpwV6alRS1mN08nvhGNRakgHowGXo627pN1tLZRH6qkPHHie
mMAcEMSqEPiPmmE9a3MZbq5R5O45w8CkyKN1PbKKQeyPWJuEYyv74HgSVMBVu/XY
BYnFPAg7bkyQTrm5DWKAYwiA6df2FKn+RKDoVQ5UlSUnY0xfZC8EAoB7I3+RfFB0
Hq//CSKjfp/Swhb2wz20ebC2HNeApnuEwKkbDNUe7DQCAKshINt1fQ38n8TB9e8x
DKMjEBlc5OrQQ/DL35+20xgP6XpLLSqaXdsKWYJ16abps8NkaWozzKHQtA75Ws9v
+xPWjxLz7TOYysAOZlg9aK3D6fKfYv8x1zopneSafZMaabfGroq7ayWXegftByAt
2dIggVnNJV1hUau9UECo/s0WbEY8b6g9jniViip4wv9L4MXZKuEETo9GX2VvzI9q
hJ7y7Ok5svi5j9zy4hBmdiYGdR+ZebMLw2oyDI41hUFBMBGKkw5BHfziIiBLDYi8
lINEVSN1UvWi4xwt7ZSMZSq57rK+71ffb9L2KgcEsYwFerfWBJseBPSoEea3T/HF
YWvatMe85gCNZszHfdKSkDA5to3ZvLTaSRUwgXVGa9kdickdDP8mhEh1OZNFNx89
/B1IaCeNBYEhf4Zq2aonNu2CPvUaFKn4b1aIkpz3llp5ZK9ngjOryNSmn9ve8EMp
iqVlQR917MIQ3s6yII8UTPeGz9NafUiTlTHzE8J1JzjBMxWSvDrZnNNbX2w599Pt
JQzjhM95TqtoVYUzjtoxAJDVFayd41iRXvmPuMNR3sQgPt2zx+lFAAOTv2FPPtcI
Hz6nLINGeVlt8U55nJTA51mJKUd+LuUfihjeuE8Pm0gEI2Iqk9ZcEHK1Cq+AfEsF
zvsl/CxsPlyyV16esEGubPnncwQvO0rMiU6gZNAmTx3EPwIULLhhGVCct7a+dmae
JLfQfxyGoEhreVVhPFotpi7WeEpwLpHJr9jzUTnIPc7KzI8WGU+n9vrrnQKnq887
kppmSE4fMG+UsnZsPYROajKuv6cxkcGlSq2YpoO2rCw8FvEqyC/+60kdlvR1Htb8
Eq1IpD93xrUA2S4a4EN1JyFCLj/ILDg1ifrcfnmeDf0a9Xf+uLT9c11iZa6uRYhN
KsYmEK3YbTNu+Fu2rD74pZvS2g7M0Kh79421w18vUQ9CVIU3Wxv+Qyc91fjnxlFK
sNxZoGNNhcl/JIeYVx0F6TOlGq79/OHY+aUoMtxZJALvj20VXdJgINBJ2bPNzTN5
dcbPemlkHtyS7rY2hx7RYMfg/F9SBb3V9foCymxG/+8ga+J+R64J+VrxOdeWfYUs
6LjZ9sc0scRJYZjYShOTT1v18R/EdxndQikvKQLfsuSZ9zoW5Ve3zz0OBIWStDC9
q+92GaAfUcnRKZjccolgd/t436l4BIOAqgZqqzfKeUfQooR3YEOC6PMgSUzM5k3v
9G7H5d2fGzijYrn2tmhKV7xEux4c8kwPzcCtWlqDESCH+9hCTIJUrgnqxESrYdWO
kTogqBwF1GVOTdQ2daXHfkoi55ifINEdXuyKyvtEEJ8oVFWH2sgD9U8zlOm4+fug
AF9/NnxRkwRVgRxda/j2dwh6q3MOVFnhoVOHfaS8ZA409PXHnxI9dwaI8vIWL0h2
E/1ONAteqwNrGGzqfbSBBxnh9I2hp0UYR5kWCmZH6Byblt0LdRAV0OvTqGkfy5mB
bFM24C421OKFaqk6MFueNKly+0uxvpfyQxmFGAaO+qfAWg9MRF2U3Plvh5aQKuLu
bC5xd+Q4wc1AcqaptYbIAUpVjjNXPJFgCU2HWBlkJFu9RkzwResOVWNXzbqhrsdD
fmymqis85E2BeZf+35B+z7Cl1mS7w/C+BWqcMtRby1yeP/E1lnXjQwuwAGl/bhfG
NhijVEJv/45QHfJAgXGIiUrTq+k9VpSqyxLA1GbtX+e9Qu1zE2O6lydt3q1X2aF7
vUvgHdysEB6Oia4fHnBY9GIJOvKFuREAYh+lp1vOkV2tRz27KLkylYJce93x7BRb
yaxGBVIW1zTg+NNODY+ECoXPyVe2X/0kkGagdHW5MZO8M7hXm4Zq9CahYQR1jiDK
Pkgbi0PrwFzrzIJ7rJHO7sgEkpVwqaPaHWp4FDok09AjXX6RMzVjZ+Yr51BlOznl
ioK7sYd1AvU4rhO4+rXZA7ZEYhtrtavY0JtcpTUM9jWzuKR/+jWZQHWAPZeqHxEm
jfRP7Cgbyu6UKlUM0gIj/PE/H0p3b51cW578tyQpIyu4cRplWd4KFmdbkOxDi6vU
ROlLLtTe40xABS0H466z0PCXvRGGIHBFjP7zrqwnkPLYhMqFj3DJEAX73FSHyhXM
Mf783qy6d2SpBXkdXGXu9nxQaEo1JMj9Prd1M8ZF/6j3DVls93FnW+jRJia04DTz
eT31BgE0JRNJcRK2e8/a2aJdlfXXHwJU6C47ah2uAZ/+Cx32xm5YVTYbQbtjgvpC
a3ZxRmvefKcdFd9beGyZ9xwe0fMKXKyfVMJGVVEsL/umjFcYN3WJVbcEbv768Gf+
0JBRV1jEdxN2xDDuNM3z+Fs7gBXTIcM53p4TCQJfIrCxo3IeqS2YlZvwM4ubmTXy
wStTG9eWEif60/xdXvbhKFLjjmSpiMo7ZyKBrc3ujJsqxUjmABHQMGvoLR0auzH1
ETCzhAzSMCElnYXL4gQNcEzH1RTeIlqPR6XqgbzotHOGRK4j3NqWUY2mNtmon7Ie
dIcKG4wMZUwBkNwYRFN8E4fIhLuVe4D5MOCDFw2Z0C2wdkdwHT1s0Is1uhuRLDwH
KUPB4FSm8A7xlgPutixY1ANpw7damO1XYN0xuMZBTZQ39I8MN1I3i6zmGbWo7fU0
oikYk+oxtBLZVjtIHc/i4W0uxzQ+QafGApPNywZzAOUVkhomTTlreT4j8JnMWiV1
VXQ94Yi7NPIv5hmySJZre4TuXb48VK1uyYfS3W+/ZY14a0qgYNqNWuqcZdqK0fuQ
wbVgfClIc2vM9C0luPhFXrkIKFKeQjeg06b9oiXyX03t7PPoHxy3qFhmviNkpmvZ
pJMdKj6L8f64XVgsI3KhaTOqKZx5rklEd7ZbLsuH/apeEfOanoKMfyPPD6zAH80b
GURbe/xmcw7kLDbupFPLd6L5ff0Lw9IDrjpoGYDXdHiwx3sEndyzVI4wyyaLmzTE
kRAtNq7pQAqighjjPVfc/DQC3cyLdKP8L82AO2UfKWxRxGNFP+WEaqTR0DG1Wndx
CZG0UvTLff8wdYOJQEiLaNJEb5pmXb55r8piJ1t5zh2W6Y+fUzYud9YmHoLCrW7Y
iTxPDJhZu80ycYER+gnYSWeWes3wF0vTrehEO8jyG4kB9Gt2MtWQ+JfwmiGTShHs
AXi02PmMFAcc54/SkCdfoogyG23xyAXXUOQvVF0aZ5mjPKmWWy23AmwDF9vaapD3
Fk5gBa/VfWMdJS2GFqx5MDQbNdFkvFN9q+Wupb3+owseiSHCizh3lZZtWzGl2H+4
kMWQ/mfSG+kqOWJybfVbd+U+zq7c2WJn8mW2xgloj59d2cEWf/vfJweHrl1Elsku
fkM/HEHP8ACvA3VhMO9MiaC5labgqUXaZoQmkET9ohFmvtZp+duIAJ7ei9dJtokE
JJ7W4/qlZ/l3sMM2Pqg67JHea2JMzwzhUUP5vW97QpBhVGysSrp8Dzr6GvP/L7s/
iHcCpE/9cQvjJFW9sG6BSFJVZUULrIpyLpoya25quuL8jn/24T1Rl8ee3lzdqJsT
+CGXQHcvxxxGOwL3zPXnnsE8tfaqvIzYLjIHvlmJRZ4kke86ruNyX3S8ps2oxKzT
haELDGlk1WL9HzGrZK4JoVnJ0kdpnhyeOwgPWIbnObohn1SrMTFp/CkWVN5n0ZHO
QUmQQPUD2XYGHuo0r90l+j+3tYzVOwAicpGLogI5wn7s/L2VFZRQFSz0bcbVAIKj
+bdp+HVCVYnw4oepRpvR+HBZyQ7zMcXbqBjC/aHMekJMQ54mesYbY8VgDsxAKUqq
5hi1g0HqR/i7PmJHxw7TiSV+sgxA9Ju5EI6BU92SDvlzkUtT3ZJohxluRl+7ra3a
Msh9AZH6EkJWZ0BoKZ5/OG4CGV3mAUy7KOG9WXyYjiSCOTd8wKciG4Uv1IReSqhL
+Kz0iephED7fuodlSn2ObWKBA25RZbBNmv+d2C67DaYEIe7x6ZFc6N681BRy6NY3
/yHvJeyTEoGtYytVLgDdN2InBfJUH4P53SDbCl9AnnxlrE3G4YRnnmM0+w/Rwpt0
VZKQiZ4b6XwI+4cLD21Gcf0YcyYln7S4MWdwkHUWHEsVxgGkNe53JjczQjeAMRYE
6Nm/wSf3wzInWo/qX/Vi6eWLJ0Ndc/8qoX/QShYK1ON0NsInpR1W3dSknKc5PB3g
SPPZc1JgzeXgXmyyhg2wKc87Gz3cPaoV2gnjT0XMZfmk7+XEFkw4ZFLvG4A3RvmR
kEpFGoOqPtk9TM4eoQpREPJCvF9nSmmW+mrKRo7aYsEUFn+1hN3TjDbEFAkC4AWP
YZQPqzgzgn4a768m82BKVglm61f5G1LM/6Y9p9DS/nxmFXKKWRvojMheSbeidAQE
CTuDWWG/xmSYNXMdFTzgCLj/9yupNxcwBFd6yqwKLVyeDWVhGOMx0KIbrs+c2Ki8
sYgtmDQBB4XpBxM/rW80Pzc9nu4yIiT3E448TVSbPy7paMLjeAbqs+tuavGamD7r
mlwZlWtMzGKAuTX/BsVCrMT145+/HgasFqWzOFj7cLqaDIr17uzidc4e0ifu94KG
sXJTfmn0d/InvAfXliSbe/ji8lyjy8plVffyrHTzCrKFesOYGfGUAFZ83GrgG0UH
N2Q+khezKX3tW2db/zVoX1VMFopBpa6fytpn+7Qcc+zkuY6/2wrpxjPfUlWRIshH
mLPV2/vB2/JCuZTBAY8py+pKNR8ltyaMIqs1bSkx12MlHZe7fAbwBvkXRp83gCj3
DozXPLKCKbgbtaMgmMZ2IviIDxzYf8JSUpi94sLvvHPTI4Kxte5ctP41t8LRl/fh
lq+VoJCfiamYUtg5wSPqnep3mqSMj408Gug4eUJ0lg0RCh9g0RkccRPUk9SgnWCw
00hxRYjKrZiLJV9RNgBJl3nCxB1BFQuvXnC7mWKSMigEtUcXc3yMc3B+MpMm3ld/
scTkBx13JZTtJEEzRVCM6r06g7KBgAmvrXUGC95xR9VLbXDyb9etVF9WcqaP6mO/
8zLgovEwBwOS4cwFVyjmOyUxJh1XhD2DnFVrEhRkxRrebYwqQyRe2a26DdJW6JFs
aQwBWeuJWI7WVUWX78zEVvZ2P65Kb/gP5UB1elXczfY6VNCpKH/GLOV4A7Fygm+P
FOToSGZTHAcseXPFFH8kDxalOKhEWqLyHYTB21kyR6HpufucIGlf7mPGwq6/BP/k
ilRlQeQmlSmtYCW+A+Lwtu3zZXCOTxwiwrVijPgzai6OipKq3f+fX+1E7SqISCgR
iOjylHfWKd8KM7HMfqBcAHG7fiEvylb8Q9xgssqFkkUkPVa4fucrykzuKr8LJ/wO
8BiLJNVBgpjY+m11YY5VD6CLI7oNiQ+P6WIy2RXwp/DmkUEbxPStUlnBLGrjJK/3
qLk6XuHPkcFxyiGKNDWbxdectN81Btx/CJdnYiXeKbRDnLT0J4+axY1zzQV7s5h7
Q+ssudLS6CzXy5rrwD9bA3vhZEvt9Mu/navxjWJOnYRGZnQUzB6NSJeChDZMQ2Ne
nEmP7oSxrczz1tKu1U0bpTbYtm7pxhZPPhXx6cdjiN53xMqxft1dl6qvRAIME458
y3EQS0Aze7oxAl7orDQiUNhgPHN67WgkmPphcIg47CjKPH09VyNFb/uxpX0NS3jE
RjgHkG6eBEniwE8NnrGLX+0CcrDciNBvm1LE0s8B07Zz6D6D/yKBWoD3pMJGAy67
9gsocvQinnC9Dv/2juhbRpMJeaFcNprp2PjEaSaInFjd+DOT5bIiqviAcYk2ltlc
YEhpEg07f+X+ZDZB/Xd0AP/n8hvVjLBb/STwwqb7lMVDnwWImId0dsYPPVlUbXj7
v+p++BLw1Y1PEPuKmyzVTzzxU2ZN8wLiZmlsqzbAK0aJW8MV9sAa1CXcE86Onsih
3D+URb9d7fDVY/Z7u0wi2N1nPJHrCXFADS+fncT+UkFnXCoa4kKX//Xhsyh54ABc
T79MEA0EP2tvhciXLB/KpXkuGMtSIB0CZucQW3nSy4nVgkQ1cBkAhE2aeErPVHJL
QZ+qM+dmbOlXKUv1Hun7osIOKHojOq2qiSv/dM24FvdSuA0mQWuZ8x0Voa7uuAzx
5xkE7strxyL+EqpoAAb/bU824hdpJYS9/XuXxRrXGww9E5QUYo0i/EAqQ9tBUEzP
l7P9jhehPIn36i3rbv5BSp5VfyD+ens+5MduTooKtQKBdjqmReO0yaGATTB8WD2Y
0+l9omtxbjBq+dXBx762hAPMlV3+EeWza5vJJ0ruPdcLJi0OyUBXLEe89sqYvGCS
EPYM2akiCQsvtIFMyDYBrB0yOmpbiKwUDnex7gMoBl+4oCwQT8aTLLfUIVWobuUa
LdqQXStlUrn/WX/9eidAP1iW3J02tZ4dR6svKSlUAW7V/VIVc59Od/A+XiXn6iXq
9qUrV3TGqdx3HJ1E0x6hl54KEUvvY59u+sJicEeBdR+Ux0g9fLHpFHaC7NUI89uB
WnsOvLRApCDuzopjO54hSyJKCDhxY3FVkkerM2pBT+KTX/72AR164vTJsZdGEiEw
hK63H+Q9ilq30e8gQyfr4Y6ewKBgHSms2lrZg+rHRnQpAZbc4S4mFCEUaZnfuMaF
yFFFi2ZFNj3WkSMk+jUn47WKKH4KlOsB/YY2DUOL77ChM8irwcN/ruU0P2DUqj3Y
qsYinSWwa6oNVE2X84ED3EXIn0ub5s4WGVvMNSZ04BQUSe9KPtXI6+mnCUdtnPsM
3EdWALmrL4mBcjzPXDh8MNGRlLHmPJXsQHyd9Lh1N31eVk1RZ6M7F5K7tWPxSQyg
NukkU0tqqzpKPSktIzWxwiV1Ldc2Cpq9NVLyVPEjeJmUM9dOM1slTEbS1imN1rmj
K6EqQhYeLlMFtMoB57cjsm7/DTd8X52lmRsn7qQjM7c8MQhp80i4i3c2VK2pmKHL
xHD94S54t4FNRNLi+k7DfwzLAlZyPqirgxcOYe/BG9DeLykGksI0f9/t+S8J0eXd
mzNeCbzgXTTs42l1qK1y2TVFsB9mcnkz48X4BWjOb8sSdAF6IPoOEouwgzfCuTWL
gUCGkSx+tZlYlk6qYdiwaHGSaruPdmO0AclECsZ+m35RvptgyiRrcKmJJcQSHN2O
SeQbYWqvwkyBvQI2ueo9z0tkCrXYnB9fvg8/XII8coYeIPDoUjyLCJjFQB+gP46n
WILfOzWnFebvUxr/mUomf3kf8Gd56kkAJ/ChgWsWxETJ1qnTy4T9Je8xo8F8V5T6
5xRmWMuQ7RJPpk1iz3XPepltCtJ3rwKx6WlW38OcrB+ewOc8A+D8+fxXHJSm8qqJ
hv6GyXNp6nxGk6tz7ikT4J4Qm0emZKLgU3O7Heem1TwrB+uwTketthkdGBRU4T/X
RmEuo/VA4UQFRmXLjaYQ2Rlmyg8hGLTke5PSZgNB+XOJl+4gRlFZPvDIgl1NmCbs
bb7+wErEP/teUX24gLvpCQMB+lh7q0Y5/7+gMXCh05dEfRR1ipkvP4lbG+x7g5SO
/sES/QRHdh0fl/YbzNbJ/wQV3Yv9zWjV0rdycDnfWv+SCiYDXXsioOboVPhdCmKE
dWqyJ7LeyYdhqYMs8Rci3GosLQhGnBuEjeL8MlC2fnh2geUGwNSgnkwQ6czKyQtS
AwfbvVkwKyd1SiLE46yt6guS8z7QlsQMEaM1leIUTk7VhP3+CDuq2OmxBYt92NIP
9H8Jkkp8liMP5U+pg09zH8cLOiCFnuxo6tOouv/9jH7iSwtNUhBplDp1YnPAB+ao
NJC2wMVE4l/n8+o1ok1MBgQTlD4ku6tQDE29ym6rBeAqYotrfmUS5TMUw0+V05UH
mhL0WA5WrrX2z3NFcubP7OW3CIC2qhtBoOjT5hChAOPsg2mr5UqCZkXof4eTLBwX
wr6QMR+yzBMMi/srOirJfqInv7v/pyhFHatQkM6Dd6FZLCwyQ1qXxpWb7uD/NNmB
8lPpST1gIqgi1HYs3iyRSe3J9LfV0Gw3vlrVDgc4DfVIjtdWCsQaMsbiCX1fKGUw
Tul3Lx2oRNz08Zw2UIWcEpXyjvM6tV++J01oNzHmW6RXJ76LYtfGgvNKu81IZkOl
owrW7iDdLJDcMJ/coVDr/ayNnpY3+jIjjtjGSvrDP5xxSMI+12b9BdqPsJUpKfgW
jpUA5PuOlru1RwUJAvhJ6P+NhNeiLx8rVw4kWMLH1PPjKlOYkRBFI+TVtaPSfMWt
TfmusVJ0PpOxdv8UON/VmGmy3qOUbVIoUcxpKvSk51V9E1YZ2mkS/NPRIA1VKT27
hXhn1JAGyFf6hvv8uAdBs8BcXhSt2/D+N4uuWXiAl8DcT76lAvQbHGCyY+dZ5e/5
3EA21gi+vB3dC96T28WKyAKXzlNE2JBNHw6eskZ+do0UK1/QdQNGARTt+FPWSv85
srJnJaFwVuhrCeHb1hZ+ZstyTDGJMkqH28QL1ONVC4V58YNgXhw0QiOAxfgnaaDW
AycZTdF/Y9VYV/vrcn/4W2Dk0+JVuLISyjJMDWQOwBuKnBOfz/j/EhW9zfpnMes0
bniafLJP3/L+UBcdOtpZUZL0hsBbQG0QJNIT0m7P9V6CUpAb8JYzJOW0+qOtZNMc
DBA15qErNroWjb/QChpVwOkZtaMIBCfQ++V5BOBIjuLHaymQfaaIDFPLBBtUyx4u
bDPumpWimbcEaVV0B7X0Ch6oWbxbfbWntRMJxuH6LmZl0zCKG9E4OMBy/0l6epPk
VuF+TPU1WiSnASIvHpGpjPQwvwMbh3MbGJ6ldMOhs21N3s82dPzMcriNDWdLupwt
kavYu76tnfn/ZrHse3Jod1rZUtpK6ztB9gCu78SPf5ju4hx1/9dfBDDGzPj6FuEy
16Jx8uNeDfRR4jtGNoV4BnvS90WTWmefqAyFl7s1Uxlm2q74jBSAi6s3telwGO3z
y7LEnrg66dsWux/8qin1KhFDJvP4HkKKdiGJdkc2ihXzYZPJTMmL+INLcGzav4Zh
Bs5eJPS4JYNQM4wpM19YeLgJst8/pQF2kZaNDtOnMj3jhomsqc/GGmGk7gvxNOiu
SD/kLZhmLpIYSWkCfQv0ZdCdIkd6ZmuHzAFwvpXx5riT95IGJuMTuM0wlRkN/wIb
NLPKQwV4nIzxEeJna106CTiAIeLVfKUGKl1vtlmMgF3xWJwWN0y1p3XESzG/jMZG
53h0VlZAsSbfW4Q9AMx1s+xPjmrxfondrYM5cZOTNK8/wION4VWFRcfbepfV/g5s
QUPpcqD9BOtvobUSHmq8jaEdA40TARw6pjGlqc8/0hXBstwN1+lo+5FLRc1a0zki
EvGFtZDodntSCAHXhYsUZwYbPxBxSjEmD19RSwpocQZ5A5Qb43vOtugMnwmvGrYH
0HqnJbhq2opYHFI6P5iAwE1MdmsWTepD4jwY8L61oBsvKXbNxf1ooJSfSowDylxs
ZOte5wZBQsjFBmZNr0PNWpaDtFJdrI7b8feyNbCUSU8eekSxGX4DHhJv7aUIrQd4
mNN5SZuCenDHMNXpnXPgNy+K5/Q5+20ahsmXPSDmiO8oSm8vfrQ/l7asnm0gVvtt
5gELnDdpODa8CDBzgsYNntDiaq5CPgq58YEy5C1WRXveozwyLMcnuGuRB5GsNDnt
ZGqKLFrgQhpdGUYJcPq4MDnKOb+wRDEa0dsNkIAtWnJQYP3RUyWkDQEifuGvbEnw
9VkunKblJUHqT7qclR2at+6c5aT9Sj72T5MZ0W4YHUGSmlrk5ohdNfJsGV0K4vGh
247B3E46UR/pBxexgDCa8D2Q4PGkjQn8yURI6EdAF15VRSp5xrGKeYhtUaOFEiM8
qQQpkjeBa//kE9WhX1FNZreNFp4DrNHQbPfTI1JqoYV6uHn1VJ9yYVhnK3IFsKye
n7mK+C+6tGwb3k00Cuevucnt00AO9kGCmzdmIwXfDnemPt2v49u/qjxQo0v38c3t
e7yzzEPPyy1ds1U7OBjR2mHVya9ERYOMnfaNghe//cUwmLf3F1qFKUb0jBbtCrQQ
tImrkdzwhhhFzVbpxIUU64mJ8dII6goYfOQW1SUkqoez5Ju6YU0CpYreNC7DrvxJ
YJfGx74su3VoW/GP0Hwb5GPzzRSv9xmK18DosvVFGvRyvYNACu3RNFwiE6Vdbaum
3Kt3sSPg702bhbHN3GmbbUQGbfHfyXwFYtzYD1nshxTktf8eknnH/sA/Ywnu1w2z
Q1V8Ce0tttglye7coe2xAR0P7u5J+SvUQSbBxclQmSVI9SBHpX33CNt6+OLy9jiJ
cgeKzvjbnOZGHnvKOlarWp3raieA0feTgkVrK26fS5Br9pPngRagmc++YXTWvpI4
jfLARyFEb8MvMMGXW0osnbxM0DBnYpWYzQvmLCsLCAMPSCc/v5Y0TuGqg9tNqMMl
+PBBPFp17CRiL35REbrJ9Xvq2k95ucZsvc6OyCvcyKpgyVSVGRMKA6PNp3fYLevZ
NGb2jeYcC7YxZDWNAdN4L3dc8u8Bnz5+VGm5W93E/NsDvlflNb4xm8vnolSv1IfL
j/iEkaoTDfl3baFcEdC4ogWug+uJUhrmDYo6PqC6/7Sv/YEMF1Bo85PlRXdxNgOs
bDb5hVSmyoBZ6sOrZxGX1Lr59uzhaben94CEkNcb5CO8aCWRR8plzZKbZGRRCgvH
5hpBK9Fe2EmDXVnpVmpgzxEw7+8P8O84Qw7LveKwg1Ez+tRpWOryzTemw6VzISnd
fFg8CEFT2IDRGHXlBKVsiaVBwV4E1bicd2DVjFcaurdumQvJOk/j03ljdGsALf7f
bsRoyAwGf8dm2iIWZLuXVoeE2jSIstF9+MKBcZD3zwzmGj2jfiO+awaKdthlmnmg
Q4NcYtqqwnqTNu2nzBYnCKcUigYybTw1yZrOwQsCZS/dhukwAXDhFIyUr+PoTKP4
eYYiIuQTgdZpLQtaSnsQoIIBh2W7I7iJN5OmPaepEqbvTMAtK2UA5p0rr0dVu+8f
krZaYSNj4dwio+25uO49HlCTK+W2qJ/Ii1gUnlhkq+faD8kB3uTyPkcJgXL/92fW
g2I3VNG1Vt4DNSBW52XmDUJBqhCilsUBwYthh64g57PFiinJk+CwXhd7WKAcVoZe
XxNnKyOBlLHA6Op1xWr7G0WDcWLzS4qE15HD+pyKJcetYm/fg/WCnsj991w/aXFP
BpooUc6r8jgmNQ5Qi53siEyluROm8qFPOYhz5tIu/aloDSBSdCqW2d2L7wuq28v4
blJgyCYqleMC6FxYUEjoABkx0jiI+UYGS1Qv3EpPtbA7R5rLiS6yUXCPrmZIR6fx
rr/RVFOtpmtYRO2zdjTI71pxvQryUbh8Phd3OZkdujKNnMW9VCXYG78QoRx1U/6n
nZLOBsqem2sOiGFIiCBFHFF7pJl4x+TTR24O+lhv9DE7nbisqCvJhyZjSexkU3Ru
KgKpJIMVbAaz590Rb9INYVPeMIGXFdTkXrNMRKsUotq8jxl2im1luyI9b09Q0GRX
9RmmYAJLdRlMc7AvuMKVvZttsmClAfiPdmOstl2Eg6XbUNI/36e7jzYrkuYGooMz
8tTrSs6COumH447EWdEyWCFmoMSS6Edrz7CxKvTFC2PbUt2FJw13HCK9TwpKdm6F
Kai3MvgZ6jcsU4E4VGKALPNB1G8CwTdLb5qOz8ZxEB97ua3vBxCn7TV9vowDbLtx
xsxt3VdpqmT/+1USfo0pZ/b0PJ6+XHbiv53AgdcI88CURODM7GC6xG+GedvXpk9M
ZktwcFQNaLXbCxBgr14pUmSSeDmOWzCZAN5EHSvBgi4WX8CyXjP3259OhZgaFAvs
CIQHg1wmtFgGLfZZUJeC/mSofTQa/9fTzz4kro8+fR1SbWxjnEBuHWKQMz8F+7zw
p7PdKhm1/kTvMIFWKhE79MU9O9x4xE2ezCM2KQtxq3iPMwH2SVnzQbU/yysgXdHA
8kvWEunMHkOd1ruUIJc9BC2bcVSeU8mJBcg3YyegrefT93Mpey3H+YskfJiQCa49
u4Sfk08tPTvoHAHv4PGmcopOr4z3Lov3UqSUm7UcswaEIB10v8S3J8Z/AHAM/ZD6
r3xglifRCxCKI1hRxRZ/UfIe0l+DlfVZyC1ZPEo6PD9i9ew+E3mMPQz8rTrL8zXG
RG7BsSRLlEjqNVK9trJwK7BPSDzyI/MUL2bA6ZCCgyIB7/iVd6o1EgY8tBHBDlXM
Os953647HHozMJcoD3paMdm4Vqg8ha7/hQNDyKDvjQN/l33QPKIqux1Vv/xaq+0h
cFxwomP+39k/RMQrB6f3jy9nyVrU+2y938JlGI81Zr6Uq5/EyhYiKioBS26DM3ej
JJIHHoRPBKhqTS1FiYRKBTty1C92DCFJ/xLcbtLdZCphzGGbOVWOYRjnF6E+sm6n
NmCxfJuJhXAkkQIGAugvB+pb7U7viVIRB6VvT80QhWlrxNCCsHzAFaC+fWaRJvkP
QiAetROblFMlKXZLAVCVfxwwXwWpiXt00a1OUqKsAFVCvVEv9rCg8RR+e6i3g/pL
iWpJ93GWVO+gcKk0gMYvmdcszxySFnCc0zVG/ZKnx2MY3Y9HjlXZf3V+k+aVzuqH
7Mgs6FROYlwh9ke7wqR2lVy7t9XcY/ZT1A3M4La6CgLgYCz4UEqSpo1hZSeIYAbF
cdPXR86J4QfOJom0BNWdb/147Oat8nqKd0U+WK1//Ux4CmlAM2kHPr8Mm47FbmxT
c4rjWweEEDb5sJhF44uqoVNuNnpnVQKxHFUARh8QYPczxB+H5CIipZ5CKKHgYEbl
FGEGz8AFNVeKImQvR1CWu2JjJHrNOOgcxcs/OZ4pEk/6ZgfMfUXxow3XmUvqerCN
YOAVHVaK3C49Nwe5C0pfodjXfF8Ui6oRjJaZeudS9zrlN/HAzlVlJ+bydNRrSwkE
MNJ3IyoywaBaWDcv/4/T60FD5wMITRBL4X3LGBwLNGTYy7LvrRWU+oi9NHwnrE30
gIMqU9EZLkMM7K2pNdjeulDAnyYqMHkESui9wg5qF9xFeDPO2yGu2AzKdckzQkgZ
2WygAE9qMWJ4DFg+xXvhVQszU6Gfgl3QonkKJiuRQb3ZVnQRMqtbcMoF2+PL/0EB
Nhloww+iUtLlXaTLWvEDUzCEFt3ymwzBjlgFvftNGCGM+FQ5YCYtFWTHWjH3chMp
DQT73oP2Tv8Cl58mpFNcXWFUhqJuTrQPtJR9pvZlszwdaQEsjt1SxgO9QPHDm24r
O2OZVdvf3w6mcWAlgB3emH+ZoThJWpNPyFkJ/M+MvDTOx1FIfR2n9xeWMgCLvbFV
NuX9uWQBbobU57Intr1hYyMcgtdhJVWWn6vOMB4vKPPdhRG8G6BUStqoRDdkUdRD
q/78hTNEWxpIYgzMF9DpdmO0RRSNUEjuDtx7lpDP2VsWF9V/czzdId82RETcPy4L
5OS2CK+77MP8bl2VPUNyJLlQeinOxrvozsdLep32Z8cu5aXbCwUws1GkhnF/OlKk
X7Btq/R/wCle/5+7IXfmIAtCHy2CTzjTxio+4gHvLUA9O2S4yBht7mzBbcQZj1Py
qSxTg9EPLqucbgD7SRBocSA/kMHxBwRhyHMh9mHKb5vhWQ6F93vBaDYO+4rvaWd1
rsSCPh66VbdBxFRQrNSXaCsYB0i8c1pHofFq/LegCsrTRARoso4A7A0dyXI4yGrL
gXT7KtbezJHxWi47hjXVYnhx1AW6qDjcMc69zspgMelEWrXDpQvDKOjNicYG3mXQ
ml8BpcVlWdA48W30peg/rwfnZZF4pFrf0pht1DZNwSycoOlqSuRHErW+a1DhrHsD
Lh6ix+icD27IF3RsBk2WlEpR9I8fKbkoxLlhrgUBFLMuWgCRUXzTtsFfHwZY8V/d
9Ru0qm88DpKV2fpwh5EfbsKrPvXcDYg3s3Udg0y5eO3s1zYFYRYGcSUs+nGvVHvZ
+S8sftphAjYSLN6FkXl7R4DNHly7OhpT6zsbSWI4MHsuc+sB+0zaewY0zPFFkUE0
Eevdx/qE7pp/Euwk3UFNjkeKhTVULwJ+dJeLlbotM0AoG2AabFJivjWs9L2Cqayy
Dzj0ochJlC74qu2U45guyofc6m74fPpFa9xErMOLpa2FP38UW311jNBxXCKGAn90
SSE63WT/ZIG5OEzgRZte7OvZIj0aJdKnUZekUnN+MmxJQcjcfP/HpfK4Yv0Qoiep
mmW/Y66DhLo3az7kJ39bynd1EKcDfjnvyLq80EIfhxieVy2gxb1Ot/hgXURUPk5n
i/BeoHr3DcvT9AgxHqrBbt3HXLlU3KkivwXNLZKJ3f38eV71PmXx5UegiELLJ+yb
heGnhjCAHFOVOtix52HjEJWhfLos10hPyfRLDaZnfYUr6xRPY2hwWVDT2NQLs15b
ozlElHreB01rcCAXdate3pyim7Ykvw9w7s04jCGhcrEB3kM1BHDVDHyKNWrgYxmV
+fHDX3mB/YJ2U/GnN6MdKihqm3fuLDp6F1bB0NxeQwLasRXy46YmdIp5R9K6u5TD
5C3IGHfwytN009IRkuhxRfZzLkSTnDG+ZEdNO2gVC3uEpUS2o/7hsmodCoVJRt3q
QJxaa9pR36Sfutp5NEuEzpGXNnze3adtvQ7zf4IspaXFTLwLYsaUPZ6Tp+GtotUm
Um92ptmji/aQBya3WKr+mYNnt+Du2Laj+wZlibSfcUNjX8IOR9zbl6fMINEwVOPJ
nXg+Ty8Mt5RB4fyvhmnsVr19VMybzIQLy40vuSS0C87qIIIMre8U5JB9nX49OwIY
zLLCMe3QGqpt/ZDj2JULcstHXqFdE+IGqvuKYhAofe2eedij5hpGYJdX7V78jiUP
xBSCr+vDQ81DdINckiYcMhllI0v9DnExu6fyDznu1oXPX2cF28SH8UQc7mSzN5eR
IjuvnC9NTH5R7II9vphbyWU3941vFkNZiB+VAYU9fabL9WXwCWURxbTOM+E8CA0O
7az7LGYHfXkqAwPgM/Ol2YvHLnO2+v5WAImCnW8gHTQaWP/teUpkCCJLKS0yU1Ex
4nGU1Hipv8e6p6meqs+y/PjL7jH+hQX5akBim731oehVcoJXE05oV3X17w8MGBwS
aQXP5UiaacrkyrKqOMH4lfr6PGI9oNKHi7PN/oWpNGkATbfWOAxteREuOUxOS/+w
cc+dWmdvLP+J+g3UoUO999h7CkcPA9PQYZCPOv8JkFqgH19Z0RPCDpKMMGtCIBhq
hZbGFtv/QvfeisAOLqJSqrgffThC3m6zyyvB7cl//0L664Ke5/6IRlUSM8NTldoN
G6QGSr2dkNeNmE9G/Q7ny2cJJBYrdrBnhg+v3bCmP97Ne1QryB5wXk1Uq2prb3od
fThgQlkYI8PfZhRd2yjcdzJPkBv7lzNxeb+czBcdmobZmZMwrxQB70+2i4oa3/qe
UdZtvfsNFRG6A9Ud69DMHVYmZ0yltpPW8NI4t+PTt46irrolbCVWyHy8gyee3VxU
sREhuGI1231h26D7pGpE4B6jsx2Vuylz5kU+N65/6kH3solvxmglNNNquPQdk9wO
4FxY0DdOLnif5avRQReLL+bDqA0GvQx95L4iZKgDqxZc6dbUJ+FKzByLwFVGJLHz
g3qaNAT0NrF3SgyEW7Pdu4ECJjdwAQBrp0MUqG/if+VgL2xiGw/EdmwmU42fhtAB
EOCc1JbuQrS6+qH3fhhhuZFHBbrAwWJPUnkd+g6Wtj2qeEpx7IUIQwJcx8lg4ABY
hgYqp1uyj+BuRWyiEgWGpwWqwUBzWMzKg6d75rBHjvUt3SJ08RChxfkr4Bh/7ET0
fziqSuW5/27L9FN+p3Ob4WWjJOO5jVwhYviAfI0w4pCHh8CrlGirORrUBHV3CPkB
w1zliol8fodlC3cJ35E/JdtHT0hmJxE1OoUZeWKutXgT8QGp5u/h4qIUr64k4osJ
H2Rs+hMq62IMEKd4ay+g+V5uHFtW3kASD9C6B8e06wHLdgov5w3gsNu6qGGsrL+w
cxxzfzQYIHsiwihkLHO3fXSq4y2TES0Jqiu+SfkCVqdHzyWqeMtnma3P/+1T6IJd
YR6Qgkek/pPpJIDV5A4ojKDHnbWz6NLoHFNGnxyC5k/18tCXtuhdnBuEqqqAU79i
Vzk6rIw9IyFXEnMYu+RXmGNI7cv2BPs3FDQ/SkJNsN2qzILxDDzC01LMkwrlk/Yx
WxyQPqHgIAmwJNAAPWTTP4X505bkB+2k8NDnQkJx4SoZVIBwAXR0oDzkE6eF7jOY
7i8pXcj1keK6V5KVyzrQXdKAAOwFT3EGhtblYVG2GIjFc4/S6eSptF1uXTJewe/f
EDhKVFIXRC1fwtr/19cXNBtQw+fD9jG+/xx4f8QG+9at9fW2t4y9suUBNt4FBEdk
ghutid4xko+Bfv9OdhSHL14hHwVDF8Ti83XgPUINEpc2lJG6bglGEwL0kNAKwUKU
wBj3Aud7vR4KP7kAssPaYIT0YssY5p9w1SeCFXIasyS6ls2u/zw93ZHZFY5/Jac9
Kd5kyxwMSLAZLNQYZQw9P7AD+gKiu2OhMYfMc2ArwTaPEp9rsXR9EjHU7Npxcs4o
1EWaC1FhVz5gtmOCO0XJ9sbGgVSk3ly0FCj18yn0atLxXVEoAaLBaXjhfc9wGqCE
6TUbsz0VhS2bv3gSEakC/M8w42nNYzsEj1vLJXr+L/hni56REQ7tvHxjcdCahZ0z
8kZ77iqHRrZwnv474ZMiUmVOQh+5tKsnLA8BRyRdM6aupHchxwiBcPZuAGRK54Mt
/EW0i3s1Z6jTIvy2JelOdAEsaGhOxzdkfEakVDZKvhVlFjpJIzdi9QzSN7eCTc/8
C2zLqI9NjogYEPYf3GFW7KA+ZSA/5Gyf4XMFXByl9IV6cWc3d5thEaTgqVH+Nwer
Mo4QnXSJDV8RhMMgVJkhlb1TmOEGkNX27wY7a9qq50Tl2y8eG8lf5xPkKk4bGfpG
ZWwjXi91tLrHMJ5fOo2UYZke/GdI58s2Qyz5cKdGS8dKPD7GwUk74HZUbgRDltmh
hKeOe7TJUVdpltZRaHzQv0zCFVf7Kl3E5JDD7061Tye6zteRHUyW1IcJenQLvxBT
d+zbtl86htBVIQvko3q47H1pxIeYQFR8t3PriwMX1+B21s2ztEcHsFF07wt9LdQk
JWwNbriSfeP7O1P/cICMTxTZXDH88KWVaCACBljipa30aqOt3oYkm+KehWuNcbx7
WJ/YjDzxqW5MOl6Oqe11UlOb1d1MvKPSX4p6QLpDkQ82cIAeksvzzN6v+0ovZhqE
5Q9uLlE3qj+x3NyPKyGrNbl8NlE/aldiDL2RFYT+CLUZioUJmfetNIR9cUvl/lVp
vOstWzAHrwU8XA3KSjfGpdCbd6JgN98LM690mEJDT7LUHx07VqKkSJAIgIA42Pb5
tP22zTRmuaFZUrnmuhdtC4uU75cq3/wuhMOle0CwnJA6Y6TnTF+HO7Mt7p5w0nJY
c43/AyPwbNl6ON5FI7RSU9UpfDDSYikBVWqLG1hd0UXoms4iUVJVseuAlPBBDlC/
7rDF8JSpYHASdlzvA0PVVx+9OGvB3lZWZ62PPRjewvY44ptFi1OqzYblqhuZunlE
N+4Ag43PTeHmWyXlBzm79Jxm6dhZ/hhfg0JXwhwrv2DXt3pEoKe4pjCFOqDZH5gL
Xjck/Dk1184xs9fGw7Ba8fRpyTiwJzwqjNEhmWSTJl07qAsuuwrR8h8H83L6WdxQ
jj4FWiJDMKniM0NdwcFgtV2i9ejq+PKdOL0mjSxxjZaO6AnG8ck15NLliqq7LG9o
B6QZIKPS0Vv2+FptQFK8OhiEpdE8yz9fla+gWnCtU9BcCjEr6Li1jAC+6JGnHxsH
YopwxrUtf3J+B+IvkdNq2y89RvFk2XqyuwSivzmNG2ni6VhaiOBPDn0h3L1IF133
WUUy/XHSTTUbrXXtaUe3KzlbsWDX2I+zdLxm76TCIMBmLwyHsgwz9jByvoh5Ltiw
lSd+goSiUbOmzfTjkR8xBw4bfQrfSJOM37tj/r8869R0L57cHnSxYjwaIZo+b2S4
uc0rCgLF5W6U+NcOivnROdQQNZgHUDXgEwzrN2VdqNflJQuXiBeWO/yKwZDdVw34
aikWSpWf8GHoREHU8Pb29gUTGWRN761nHucoVlsxsg3AAdLxRLdigR4k9rJq8OgK
8wsE2teaO7iOWun/FxHbeopZ/v8o9WcUsoM6UmQnCoYRM5eOxFmGtdgAZy/J2ts0
nnlmBRcD0KjADw5upnA6Oq0TsUJXwEShbaLG6JC/dKP5gfLb6pFjcyQmPetNN3Eq
HVLUWs75t11Uxi5eawYzCzSyTmKrh+Q3wa+YK7KPuCjz5Cg+lpUa3HuYrKjxdwU0
wh4SqPzct9EWQQCEmCM+m/G94cFoK45t9n/k5utcw0150miodCIN5GLxXcTVHNzo
5T9JviUMSmqCLa4/xAyF2D/kEkJZ5cOqTiEoAwaQKDNvnTDU6/HFZrKU126nMeln
MRX4JSk5GnMBsUU4L8miJGg+OQ9iMQ5w+mfIMI0j601elXx/trHDJQuKjWjj5Kf3
YQxrmyy06AfiWLkRNr9fAnvcQCR+HNAFfd5Uq7jmq0AAO7JxoXOrl4qkNxpaJra9
X11u6mDha1NLfNNiXip44LeGKSMsoDMjSjHBXr3pftNIvypFcooX/qDFhYyJPjq2
ZHRcJpF0U8Qe9mV6mNPJSNtzbB/i5ULpZNeWBvUssAuNjpY9pFqFh3aNr5mJjTtL
Tp2HAuWFm7cQBQ+9o1u54ZOSIoB4BrU26NaQ+bD3LNe/sy2N5lnJT+yAc5P/knAi
8U3FHatkyHtJ4N2yGeK7rKbuLCMGO5A+9v40I2kURjuCw3j9uGqt0dpCsDB/hTf2
vQPFmVzzOL/3j/1UT47h+kcJSEnFO+6TTzVMIeuu6xwtLU1lEOZtSpGEwEv7hQc8
m9GW3aw0cVA91EIuRaQbvtnIZwF5hYDwEbqFLs+ZGMVPAXRm4S7HygXyKx1TV7/S
yKYeLBoT0zFNk23/VQYVt2Zd0vyo60ovAoepNiNNquSrxLF5kE+s4auLGz6IpK+J
RqrXjXZ9uGY931Ouga4qSzFPYDQX7bhHyKA5sznUobbpzHiybjT+DDulKsWPSdDs
Vo1SZbcQ4K3wPrqhroRU4GGSU2ntoV7FIDCEuiMnb/2N0wcqFZfqL90QsDf+4LfU
NVyRmolOXtqKsNWTXTcfbXBlazH81rqvtJH/92Zc1JHo0x+U8z+F0aDp5M79Oeo+
dI7uyTdgQQ0XcUfyy9nDxb8Rgdfkog5QSWPsxgEeZF52oCoVCMAsF06oHV5NNI/+
sC/z64d6ConojVw+Q9HQ4mj5sgsN/NwIIj3/EZTSu5iDJOwyf0OtGEWml6n97crB
zH7V7EqmpY+cemqHo/FB1d3/stCiRTAs9LbzcqciXyGNqcOgWO+O/pL/zN9glTfI
E/2LlrGhiLSlb7aiz19jaEAfFAMLvlSsGmr2dQCTwfykUeHnxkeEP1bHwVKr9SOm
SxTofgnaqxQU5XCJqBwB4d0ezVWOuT1v7hxCLytwXpuar9DjVvHdawYHZi2VMz8u
OuUT4BBB/65jOOAiDp+eSQIeMKno98LIa1fIrt2u48JnjF5tNGSuC8wzgzq/u8+U
yAryLtbWiBSyXkmQMRGpcrllHRDOCbI6bDpfyOczYW7SSOx9IOovXXetHwM1EuGj
Leo/bh0uDPcn+xWKs2DxoUyyL9D9Un6xJC1/VWG6FY5LP9bC1FnBZ8N9NwesN6Wm
qPIuZLLF7Oi3Xa7r4+LhD3fMieQW6pF+gdffQhw2AVzy3ff3amjy8a5pdEX8OJRU
YkRfdpVB3+6ojUue90iIIina48QCvm60vgE/IIzohhudbneS2k+pKTYotOBEmDn7
4IjWyk/dOnQRLZ6VYZoBVDL3eiMdMFPC36+DvX25sDzVoTA0yY+dd4jlMoYpS/Dc
hRzPd17YP40YM0z3QtBE2+UCN5ywgFWdeQVm0TC2NNGT+zyEqEIo4/+1qIUnvMr/
te7IePkaT2EvMZ3ImPM0oCXyy3w9qpY3D1L/mTpZg9eOXQ7vdWVaqDTK8eivEGll
6df2wYNH1Qm3mFcLxPLq90q+u5zAASzWebVPbygsYPYAWJn2MY/rEoIwL9qPPhbG
OtsvC6mR6tsL26fmDtxucRHSxOzYc8xBq39Qtp9TPDHDdbxXvp1xXVidajJwE54L
eq76SUoJCymzglROg3Fpt0unHVladrRwImYwzz3ecy+p6T8MLOjPnboVglLuJ5n+
WtAr8GJ4UJoei45jzf0TndNgae/STBK2B3Ybk9o+ki3psT+9KHEd26/S9Siz/6Fm
6LBGuaiaCRhfOprv3TsPqvHdZ1JFEYD+AeovqYnwLALIRoNxhkRojRS/cGGCnIa/
4othLecvRtPDt7o6EuTfqj8kF+vnkg84LX4FSeG6zkYvZkvCEj+Ef7b2r/d4bltF
C+ThT+XPzTTnF0kODB+ZxBXFvHaHoQoiN/BloFYpd8RgZvX1XO6D2xljbdKHh8j0
aVyFkSqhFczH5VKJ8SRDWbikHF5/Zz3+AiBmEkM3R3TqcyqXAbxRATfl+02Xjghq
a5MndPS628Elowrz1Ja9Dnzsc1srxtyJnSNk3riuvRJRbaGJQOqEESS83I2dR6xH
7TiQzklSXlUASIzcwcHXuq2QUlyier3EoJ2+eUXZf4p5al6VGwqn37tkLly8+CLe
RJ7Ef1LgJ/KbU7wQGIS0xqaFG6ziXzzrhGUK4iVL4vWBjnJEPcSusmbTr1m2Ga7+
drQ6HK6lScY293i2pY6efrq9lO3kJ+dhGUb+MzsNZOGnLHYSSGWS9JYI3vWXBl46
X07sTSI5rJZTGMsNzDOOz0a/iD5Muw/c6WkLMRJTvEMArIxubu8BDB5x9UXd592k
yYT3Np594Q8mi3ke1Bvpijta5Cbkw78en12EscRs5Q8c6lwKFym3OtRBvaCXV6MV
K7nx+gkwiRwTTom/J9gKSTxbv8lTLzfZUrPr7OdjK2K6aV27AfSmSQ6tYkuVEJ0s
Qg4ccOJNbBrvhimYQ9tKU3pP8JNOidp71rwbzCu1YfEQVBHc8Tx3Kk3yPUmsunlC
q6lWZVXSwNZUEgwm0ZW7m+rA2jJiT698OInmW3Z+cLWek6LPiWPnImgzyO1kxnZW
M5G/tgKCtt50WwxBdwory3yMIXF5ZZyMzzEo5DZrxpm6qR7DPVFiytXtWTORcygO
iegjO5gzeJpoYYWa9AFWVq88kR5mrdmpMmCasgHpIb+fzDzIfeJKJUXirPSmP1l1
qhSFi/P3jaePkMd0tXmXFoSzSYGRYIRbaIneBtv78iC+MHuKtX6ZP8zxSraGPbPQ
TrcmLjPlBdiDWL4DJ3Ygv/SqZjkW+yC3qTK7HseeKRrQdwMfbgYQ74mRdgYko+/t
ksnCr9kJ9ZP2zXfgiZosM0hX9hvHi6vc09AHbg52Fvgup/nIZ2R9w9ncqdrUZWy4
aUDuMKFOZ9JMZ0PtmXkqOp03iZGmssrZiuFUhe+P0O//KEvSJAm62t2eJUemrz7g
J0AIEpdkFD5denJMsEOQBQveOLvtxDRFMAwBsKZNNDSHbPwEfXUA6ipJWKSnK8Uu
9Q1pijjLcIwWzzNwddYet+giusAYzaRSjjO4q7yqkR1VjVwcgoKD7mFb9G1brqhQ
t7w+DRYaDu4gf6NWZYa/mhxobaEe+POuluzqBcmnAD+60BOHnUA4nFNlMpQVhwJ4
jxApICYsLOPilnrE8Rn2v/lrBomJ2YOoNFcXyrJODyeMgZ1i6gkEGHQeSJtVVZVa
GU7T1OypZBb76bLyjtjxpJ8ZWeWaIW6O2wB3r50LSZNEuotW2tyHHt8N/jnsiLvf
mfHWXsHbF9CBd1H2oL0Hcz9TR0eegzJnO95mXkQmtmSilCB9d7o8D6lpjtlzqtp1
dOQ8Bx/nVsfpXDaTVZrQenlTt7X6j87oOd4EoS+UmJLpQdIDuvOw6+syJ6HhSOM2
FABrHDF5cLKfF44lE8tuTSI/aIN29kaDoDD4zu4Ocl3HtREidP4rF/5X55bXLwAQ
gyVC8A95qUssDMcA3tE7xzFAjwKIJRQ8QzjDPeYIRaj49DafHgM7xzGuu0j0v6VG
WQkj1Wb9T+3unDMAPcXRVwuqG9ZvsSPz2BWWTePiaLxq2gozpozfti1MzRbHl6bV
hf9BXIf6c5+Mq5/yrURmyF2np5/u6/yXs1gzy0t5fhRWJKCqt77K7btQD+vg1oew
m6Ypqndvs3NcO1GqzHFq/5NGSsqPpEHPzXz0OBPhzT20nn8ZgkcWjP28qGIdsop9
EBzbfZ8fN96kkaqkbiLmHCD7MRD0j5S0ATTXpHrmpOoroydRB7WmGwvRQkq2TfRa
/EydYLsRuJbZq1L4IRWsjitj7EJXOg0ubgrdqHchprTufFyAhFsKZw7MvwtcUaNq
dMi1xrsHK63MxdDF8pGyMbB3z3FUNi6bqttmwtSKFMEOa8n5/JJ9c/ft8fpQj9ij
edNMChTXIlwh127Z/RGh90eeEANVtb9g3Skxa1GcieqdCE8rIOESokhvcxOsvX3w
TpXYlrl2EMJkiD/5U+aeuD3YIvYvIUk+JKgmvJ76KjnLcwolgW0ZGagcqIYb3vqD
nuBNna8Cx6dXp9lXFUSot3aOiGyLrFb32eqTIeKSCxL084YG5YScUzViUlaQOw73
5rNYh2uc6+SKQBYQh5CavetsFa417gV/HNYCTD9nirZuKeZoQpWgFkvtfbi3gn4O
AWlPdXak6cI7aqPxUjE9kcn42BG75K/UHNr5T/RjNTVA2/MHRnYgwuqUtSxe44uo
EMA/ZR96hoELBiLuJ6M44qVt9V7Peno8/n+Q9bWsUQgaVgtVCVOC8RMwqRK83FzS
LwtoBn8/2Fm9/y+rLfAZ+l0ZS7HRTCpmQ9j1hqgigf8RsfU/mj5GjzWdljMNIH7a
PsE+NLy/a6QU+nyk3SbNr3r3jo7I0xrcw/HY7b10y+MKHkNh2ySCI4z80JQhK3EE
xPVE5G46vb+d5LNQVqEDFsAgjEs9+z27KXw9JTf77Lnk6BnppqiClcwHuTk8Whdt
27UbJDrpCG36YxRotd1VoWiKJpC2icFSF2WVf+D8oZtWRaqlfV8QNlBPWtjhx53d
aM4yh4E6UiMnKoTJ40oYQ4CRN0ezQ4xwiGCzmTrvNsdyiMJmZT1oTjXHHUNf5hw2
in4Qk5E9xJ1zihS3yMdJOTWmHl/0cFlFVQ/GHbCrOrla8SgWXxPK1yizfcRaKxeO
ZRaE3nWNzFp/ACJA9v54qHHg3Q/EyMo3x9kNltwtQ9wTT4FCFlWbvYrg3Brs+JWn
n3fJvm7G7zDEKG2BUQO9OtQmfeollvxVDPC37E64l8Pr38cc9AmiGrmmeVVisLy9
K0iiLKrij/Y5DhFBbc0ieDk5N3XR3o2CcNw5Sy+tzrLA4igtcWjdvsXD2Vv0IEyN
OBnbYceKoUioxJ0A/DJY18U7Kk4aWxsZRe5rG2ke9kRSDbVOOL2YMwvTgVA1P+tV
dBZjMBhy1JbRqloYS7Onjev8LW1uWDMqKN2GrLHRWWjy8I5atUZNq0JxalEhg+Go
iUO4PuaCcetKlMRWt53ATIiVH/49Tj+Df5PfLDACnPyr85VAgIC3fpVLHXCrsUMy
SpoQ6J84vXhH4lUypC990X/WISDrO/jkbjl2EXxbDclxDfzyVFw4qnTDqIHBUViQ
x0WJ1lfDgO9wHbpnvMIRrAR+8IogH+Fi9X3buxeOUTDsJ/ZfzRGSltCOFHS1UXGY
5OwBdjzskbifIxh77WkNRaNEGI/bRFRMS3u5y+suEJiUhG+NlwBHzSyhEplB6Ebj
t15HSpC0N4szZ9oZtC5pjsi7dgAkqqBf7tSDIepAyT6K3ZJjPe7xfwcPHLSWtiPY
/GbibFc11ZLSypFWemxkk9BDia/o7zdsncf2pKBtLimL6M9RvuFJAug2W0up54qk
zTPDluN0tKU/IaB0dp0rXU3VJfztyBpPs/GQpyfq0RJjR5T8WK3NTwLODGLkXofy
AnZesz3tOpLkhiRMqcz4864c5isKiBSg7zJaTyc7l75PiVCOq9xebU+tqVW6J+P1
+h/sZBRPgg+D5eHtOMIqc4kXkO6e01QtwiTy/3qxokSu9kTKOxjJwagNKIIUEyAq
XMOkdv0oSdX8I0WnF0lZ8/Y38fWDB61rdzs15I+GMyZ3GtGYl218EDGOzMjVAns8
VLy10vys8CjwoekjWX/XeuAg+cWDbaXbqg23cCP6BCswjb3KJPDr/G6FQ/e78MGT
xxLeLLmZTYH1Wq27+Q6ZPBXfivP9K91RDVjGqccrAzZpYm4eOX5fVLJzmUcWHpKH
Hls5k0S63kVZjeYKX37VDnBQv81rbr76Iz9mldaeyQCashhPXOeOveE8i8LO579Z
oSdDuidEwzpCMoIbEJz/ajEuC+HeqlSZ9HifsgYZbHc84RGldfwhi86nHqXx14X5
tYjjJfRcg6MYfYikoamF99jFZZDZPPtKc6NEnp/8fQGMWMz4zsf7t02mHh8sw+nN
VPQpyBdM67M4UXJIEGixVXklKG09wm7PngTN4AtoZcdv4yv2cVoaI4u873LQi501
Rr5dzropX1W4rlehlzvMBHNNULLw17wCQ7h+7MvrpDXM8ygb4g2qVpZyJSOwLts8
ZBCOTBzccDpjBmZ8YP4ThSblTmQO/0tcyNeJgEsb9njlXa+tAfacA4CLxG9dQK3X
3PsCTkwxzWvNYxHb1v03295oHnhwpeuo446YEdHYSpgeeT2rSeUDSdPQgx3r2DNv
Qmr7Dz6D/tikgTwzBF/Vzb1lCMdM8JK0ZH1L4WqwSFMkgBdQYKFfRI9KPgHxeCXE
inZqMpcox2WYhKVL0ihzQjK/07iFrlpBiUzWc5W9wY2jHpDjVLGsqzCB4iySSPmB
gtDm/S8xs0MrGHttJuYvOc6gWfdQXlJ03Ffmp0+WFBxc02DgJ33rSZqrZn/6LYFA
SwFPJnrzKa3rk6Fmk5wfKT9oETfcpiojQBtFOKpHYAEZYqgc0N085KPMfNJXjm9B
AgZDS4j12fwiLBbJcFRxlziZGbMULdsWctJrBPbrBvPVe3txSdxjmQk9s/nla7RN
fcJKyR0RUlBYv7Hgv389TSSat8S29slFdZejllg561A0oEvy44GniPwAABCV2kju
shhJNlbSEW4wvfWhGZRvWTJ1JKalV+iVOh+0gaZBH93iJswp3sln4Qx/jadr4BV/
GADJt38Iu9P4/qrGSH8Ak1x6hl81EhEn6L61WZlOjbZJtFu6p82oHptWd/3IfW/B
YdF1Z1L/OFRT7zHpnlGyIbVjByKZ4MAOoBzWi2AT8737bBnIpYRBiKtkaM9ET2sX
HrcrF704d1QSR/irDS92KLbG1weRX0nOE5tNmYehy0uOzI+y1iPal4IhubK1d/1H
KjXbSuOZ1G5OapJsgODRYLu4/Fy0i18qNpog0LmrVzzuj3Vq0pDIn5/KksLn2+Z5
M+sfsmVGrE+Ar/uQUPPP+Mw88FeHjsW9Y6BpEtMNYQI8INBvJ5FKP7VYd0Mf49ks
WoWpDOhJXR60+2HgZ4owe4mAUzywXdiMSGwsjDak5FauXXG2uIN+ChW1bGJVWS4I
JKgO8gEScv08nkfHMmE6D9eS0otoLlWOcpoDCOM3rIOraGLhyxkFWlzRqaY+SkYJ
56/R2DFI1X8yIwy7VNL32ZRLh/ctzXjaBE/8RyuF7ITpTxhPqOe7ar+KJFHFtbKt
qmlIjZbh5LoGscGjRPY+iq6anHxXXtqLA1m6Pi41ncm/ehhKoLfnIQqilfPoJ1Jt
xjNDEvW9HejesFDIOdA0JAbHQ8gEqfOt7ZDdiY3UvBTS7QhwliDHO1+q+ww3vKdJ
He6WIrIfhUtttuNwmgBJTH8LeaN+kGoK1ZgVYpSNOfTo8gnE32x6aNRlwMlREjza
YG11IIsc069SDMYr1ltHQ7wm/N/qq9DHm5llKAyVwz/LpCYB2AoqkxPMUIo3HvgM
8Az/GJRjyEU3jfrDSQ8BhiB5JMahkD4BIQcU6f/zAkty8JOSBH+c5rlxOmAsPSh2
iWrnGt0o8xdGQjihyuAurtqUqA2WTFpJ5zVoMLPkEuoN5zawTIHUjGFX9YLGlQEB
CyfqOsndcdS4NaW0yASJg8h5i1oMqDg6c5fEfdlSm0hNhxlXLI5fgpT9IGOglCj4
9qje+QqIhZE7f5MSbjSDQfwfVeN9rT2HnZX9c224gEdF3iW431g6PAXyrFJCPI7x
tHrbuahznmwY3L8gd9iFF/rpQte58K63ds3iUE4Beqls1W6hmKBhSInhCKuWFLCx
0U6xQFZQG1fOzHQUx7oBhTFO/I3cp+tWSy6ju1GmfmJvmJuQn9gIQnDR2F4+uO8Y
OQz4vzFBmXHa9rG0lE/pPEUZCBHCfjvXNlVaDg4VAGQWrqGc5bwYU2rm9muZCUKJ
9PvOjbiaDj8MW26SdCGE5eOYvyE0Ao58b63gWZD5u6Ek4h0tooY6y5az/V1xluQP
rzuytdqiY2nfZJo72zwCLU9IwSaxQar5oF3qdGk/yNcczeWRjSlmgJQQI2Sesa+I
H1/RPqWl8OAhJ3Lnjfeq8aPvCpE/tZodcnjeVX4JLrxw8Czd2h7TawNSTk/AQ75R
K9ayNSG967dEmLilgt4yKUO3ufcuAUmNMpryXHJM6gAebuOfOudEIZPzsCOaz/et
z8cIxIaWnXAu5NNeg/DQL29bsUdR81VHaI6pR0EKw1WYCmpqivcUstCPBZfwVMgB
mwUquY8dSeZ9G6qVipcfm69gq4Vl8zvz55B2rPwrv746IxBs6qd1Ep/9YHrN1iem
FMCw1a/zR/2VdAcmmxkVOWkcZk8gbP/oiEjwBkPbjlff7MHsCbrhHZ/ynRkoUvHQ
UCfr1Vf1Yvt/QKgrGLSgeoQYGKFZPyQ4zg8oWo/lqYVLyvaBQfOu6cXlfaO/D9rM
F0IZLivH8S8l0ygpGeL5B5gAqcqXm7bmWu2EotWC13GdbFzhVnGzxMo+s3PCT6Z6
K3mCp/v+917srmEMxNbVs0X2E3DES1l3JKnsmI2YlzOc6y712ZwdYCKI3w0dCc4m
fwjVvrr65JmaacVSuENyZ2eKtdtqE8xRHensYGzXgJQE/rwzCZuR+Xhq2bsr1oO7
oc0I/FUqart+ogFan4opdL+u+piaa31aTT/N9VOM+qwca8LtVwSS0483R6GW0JAs
P2scf+RnxrtSnUnKpNc3aCSXNGiECCDsW6w9o9IOlCc5Gey/UkXL9v3kP2koYXpY
gu1QRU/dGWDCqbkG09mIS4OS8f+h05bsusNvm9d5NIFhsgtLZSsmQldy6w1XP/yu
F84Ezy9RwDkESC8AVylAhtfpZNgetBGnHecwoocRLiWwcGgBAat8R/+IbN2jTCYi
zpJqjlh5CxGcn3N53Rso2BxRy5NeJXRp0vgnO+vzTTBVONV1FdGFTrE+PC6xSMmq
x0QNlqSLk4E2VW5ZUBHCf0f0bULaNp3OoyPC3wRz3tX+lUp1hoYeuzhFNkcWKmY2
SqYvQClu6vK5uR995y1chgNlMuaX7F4mh1AJIYCMaDn0y7l1w7B+HXd+UzxsFFzJ
z+qdnt8RSz8e/2td5BtPYuksSKm53SZ9gOA8BqmmoXPc+tNi7VB0ekNxJVLtCTcf
HBBRTJOa9gm+DwlkG0GBC8Zew5f7w3v46eXUVodK3gkWk3g2YrhQsDFitK7l/Bee
Qg2+IhEa1ZJIrp89MaFhZ9rNKBC6RapgC9eAjmi7Geeh+MxBKKMuAdCoST99+uP/
wX/2HASOzbwCsf78EXaX371Krpn2UW8tm6iqNuDgxngzBSXtSPnmM+lsGaUKA6N+
xDkOUsQ9xr2xxyj3vdPwLcJZ81mEPdBthjG9Rpvog3/n4WVcG9HW2nZ5656iSwNA
xD33D0Hz8hF2C674Dyge7la7U/d2pqwiDWmLA06bCq8Qz0t/Iym9xOCtIJRK/3GY
391Io6XjHl4R1j3nlRD2ZKmFqUBsjrPgj+qaP3+Vqzm54JvafMXxXbYrAm6VOo2o
5l1hL3XVNfTWb1aBhmRtHlXSYgE0QjDYZ8rluNJLbnOi5rvqjXww1J6QPA9ggp2K
rGecyMBYx6/eCWDSUqI8ApJA5l1QzV4RKCKaC7irfJJQGMSZRQ/XzLAV07GzbavD
dPT1Zfm+9XbfBBeyeVwfYQycZ/hVJnVHvEULQPVC110pBcbT4mPaOByBeHy2vdMU
HXdqCX5fDbvOUxz1vorsl2sYdG7ySdAGNyEkZCDeYY1+zNRG/Y7/Rjfbbk6ChpX2
RAWWdEdvCNcR32yM70UH3ymWrlkR1nGMPB6xvEmbRqlyWjVFqXZDiQjalSXXNK00
uNKKyUUcoDZhg7klECJzkTzFqoqqpp8ofX3R+Y/cvbuLHFjoOl64WRr7T00GF8+5
2PAu6JEPuYYtiEIImGG5hoGQlQlHxTjTGujpjnjI5K0TDrC0bHREwO4t2SqfLbMK
KevfFz54lxfWg0KnZdZAbdQwpwBdvo1sR87lQenR3i1gRH4mg/QZ4fN0sRkryYua
zEJ+UMy5ZLbLBoB9N3BYKlf8Dpl3IT8TOOYzQ6uP1e1bA+352G8Q26da7O75AFKJ
U3D9lHvSgFWRR5UBMskQfbyHrybnqPkGibq0NmJI3GOw+I+LDbz6wr3usyM0N9mo
yt/z3NlssiotFkz6MoGj5Aa2kleXzER7hkZqVtS5eF5Kx9HBmRGMSnBxipPIBHvW
O8AjWWwmK5C8YgklOcz+uIMQbmBYfamGdRkbWyEwCb8JQBMe6cvHgj0ilOcvdFwo
fQ9KeHuYvFfQZcHOtRGoq2PNqiL33AY5Idkvrs4DvhVWEtadYiVFk45RS9KWzVaI
a2LUffs9hpp+3xi7MRfihU6NLiA8MfiKiG818mLgJc2SjSeVUV2gQP/WJjUMIJfG
NrPIn/Yzf5X91XA9M9b8D9hUiLIRc35UKmTLRJIkTRrZxF7zejuvnORm5BHKBA3Q
oYhHUrBeYCJxSN+npGZtCmqgaYVe1zDfuuFUJFtwTHDhiPbxKJac8zVqj57PQrVM
cUGyP2oyaXY1S85djKxwnaRwS7nIe6EJbxSpUB55GOdK/KE0fe8rqmeWx3zxbM7T
YqlexXWBbmN4ICvuU9IqfEDosihrbt/IQgLKDR648xVjGS7BU+ApLMeMn9ysZSSC
gvXXcJFaozjMZ977pXQM4S2A9gLnx/I9JFnPZE91RcaKspNKweN+r7alfGpEt/iR
Nwi1r8O8F111Bz61PL+eJIBZ8WiBk1LDmN48aMHoquyifaWiRSJIcEGaZ7LAiyS+
OjQpMIB3UKULk+8OxEXqhYM8Q7GTeVF71OZpq4E+U2HNiGD2aAr2QRKIIorhhcu6
qnsICHpzu1JQe2/hu2vbtz8wa+eP9CUsrn44BFndf3V3qdGBHZMqrFc+2uGf8WLD
FeUIT0fOMrmQrCChqPbXTd/yhqVQhAe1IM5nR9XUBma3//Rmn9rfZeeY5m2mx619
zHsc9nzBr+HId39msbCMQU129phT1rdH5UWQyv/1Ai5Z7fL2/vayCjt3UpeS4m91
prSNSGIgggYCX2ttjDN+++en5ATGlGHhG2UDBWRpk77GCpNAcGy7e53ijesXZSgf
+dCsuLNLBxlH+7UTpYuvkGQzFGNBghawvTF+nmr41lhKhF0A49GOvum9hmX5cxfi
dmotnOJ3/kra2UbUG9mQb7PRxwuvBj6fHLfBxvTfNWFotq/Kc9YwVS/WhyqEjP4n
729JEe3lEJkQBTNaVu8DyCPpCN/9jtt9qzZmSiV/B0gt3X3V2nH3jjUfD6JBbP64
YUXQ1iPxpvcyb1f879dKxaTyrcq47BNNG8h5r7C7eCRxTnOSJ2zMdpBP2ulW5Byq
Im/dzPzWmniu7eY7lG3fIQ9YK38BEtEwt+PM6/zdP9cJsXljFYGecYhte5+qhimY
ICbu+TwjhRoleSzOF3LenNH2m8OeINTT+L6zJafwis8jfU2DZL+OL+2AxjUsXGFg
bkNJjy1nXw5FfBgozxrSSSRZNBbRZ/2o0veCp+jNBeh4nipJIkgteJncDk5gSq0+
WyIXVUhwDjRN8VmUYImm8zjgkgOJJRKGX8IWVPd3gzNk2TSWXruDPEDoWL3S7lkZ
zNHU9ticOwpu4zmbI7uOR2cJ1BKgoEWg2B0MHZ0PmsWUUFcxHvF1pf4QU8+bIHTk
lXQEv8J+DViw2fyVYhREGCPl9V3ZntSTIRgJCcd3XFFVFPm6CkR4f8mhLGUgJUQ6
EVWOpviwExOCvPgUPhODB40XIQ1j1kLW7mVEdcTok8bLmPe/jAumBZFyi6hX5a51
lNqEVWnkyfX5wQ8UulhGbed19Kc7juh5Okhyc92V8v0MNiwfjBR2CWUjTZCbn1Wy
FjSXY+6ltKrw+T4qsQiMBmvMR6G0ZqRStNyjbJE9UqYopGeE+40LylwQirZGgc8W
k6CBsn4Azk1DYeuhEO4+j4k16grz8YLgOJHn0CkIZNX1/9/9ddhVdAZCx/3wOfQY
kvQVvRaVaHpct4+r+O4pBFlvzfXKYz6zG8NpiSU1VOCITYhyb2R3XIg2uy9G20XD
qh4u29p3I0WdAybY2CfQTWQqqLvL9tB9LYL0FxoYgmQ9iAj2vD/RyYsZUQDyYiMD
tn34Z9dFYEBpASJmNy4TDMQUCcPnddb9CV0CJU+0psIkEmzDkkPmuM1v8A4Wy1Dd
AEbHSoliYP5wErfiTISahQfwm2hnAgZHTqqNL9+NWamwl7H2K9xhDswiSgrpES/D
2lPM8+UhhyIk4yRmYYUqTI8CyVGpeBGGOTuoXOgUUhWlIXY7FJxLK+Fd3I2myq3C
ItdSn3wKkUUo6GwzTnmXwqRx8/lVfwQfx1PruMnQhnGoZ+uknLv3UQ67aRSa3DK2
52QM8c4ran24NYdPj1WiJjuzneLQ6nEawhoLRpgVFHc6U9vtTh2VkqJ5pDf1j5Oi
KWoZtrnEDy4uXp6YokAJflPMO3Ke+QoT1bLfptd9XEVhJGgkXVsQzeiEPy/PNIMO
9jhpbbblgQpiZJI897Zkg6q/uGhw3pShxL3930qGw/YoC5ddWRp6jbLq1i5ZBLrw
2RGwH9qrszrvXEtAEeJFD3TP0NJyB+W/YasBmuEMfRZA4uA0ot17dG5KNLjwbl4Q
pzRBPmyhrtZLP+eJFpk+z+oQVqeEZAuoI/sRYXasPv6BnbKivd/pFsPtAAwi5Gyf
9QtpXJXYWXbmrEEFSrEC/wN0iRTmPmYygw1CzkBHxSMLuTNtGaBF7B1XEOfF6PZX
dqwTrv0hl2KQJ0ExxWdFZU+Z7/cGkyOVDfTrhQVJyPAKaRvNQIvLZjp3BNDUmhG5
jqYrkyWRZCIKbeIU1LxwqYVjFYauJRw+Whu6f4LEC5f+6rW81qGn3kbTa+iV21yu
Mgm1S+G3cXkHb9e+MWBqq3l/WoyAI4OHaG2hHuiZJ8buJvdxni6i+7tQwft1lwKd
nBP4H6bS57DQwHsSZHGefQkzk33MJINMJkD2kvv9WApCKqZ+Pe5LTgyxoZ9tI4UP
6ycrIm/zLBA8qbT0NVdREnuMIqhfzUaTDrHLXvIEHZKmt+DV7PNS6FpwPJ0yOp2X
OYgozmRFIfOXJKv7aqzRNnS1Rxf8KZM0MYP3LrRW/Cs51HtR8dI0AmFu2wP0ABIG
fXMUjECAH+Oz2PPp6YqFE2k+ka0PN5BPlN11ESHUBdHudNwQ+E0xkYqYi//ZwtiQ
vfbbVONLmUrTVDiwbMBTCSk9R/krgoFUsr/BoBpMziLY1P5MuePPAoFjOkLJOAUf
Dt7lEtWntegQ/IY2e/EMzkhXMq+vrHzlBNOOd+JpB2QKnUryu2C5HYmXQe7NeF7q
euNNmw1U9D10nnoyOzYluWJaxzjXNkujxnsJ8KMEPYEwNCoeG777p5nncQJ3WMSl
qaxzjPfNOhWfx5wFvDXw+8Sxohw0dFGIe1cmPyVRAyFcE3ZTTmDMQKS20ft3o207
GselgnrmXnv9tvG3F6XTzKUizvYxw3QEPCoxk7L3G3g0zJPrOS3dzRARhXPfJfh7
AjjdCoH3ZNtm+9ZSRJuFu+6tr+8cKZOaElO7QqgRQs9q8xn8KZcQ8OpavrO0X3Ec
4QHvF1qi9MLifIFDcAJuTL+58EVZvC0gxhYhItJJpF+CLbPi02hDFM4TsA7XpLpz
mrrrIt5Bch+7WAooq48M9snly1BlhuUEGA7IJbssjPFgOVk9jnKzLklVj6FDPdNe
Y0wlO8Ki4Xk0LUOaiq2GR0PsQpgZzseTyQ4qBhK975USXM7g0CreT/3zoW0Rxofc
EYhywz8arFleD11BhJz9ecCW6dk1cfdTZ8+BNIylE9CX0Con6kFnjpObUmhiHQas
NZ0VE9EFyllqZJOySQjGysBpttBBzTMKLu6EW9QvFhTGXYvUZX2DeXVLvYv3EBpg
gueIqyAcFOCqvYBO/MM6dyCDUtT1MssdpXzhWGmtOc6kT/h7fGhFYIozOip0vsoa
IBMJSoR0k5FsVjO7IQYIHv/gAjgGTd8LsAeOQ3ug1OYMpL8xWO1CdKiR7JWsw2T7
fS6t6shNSj1wy2mmv72qwAWyhVpqFypHwJM3CJFPJ+/HrYZkhIOBVXuPoU6uwZen
Rv0myQrWKokk8fatTy0RSLvqHqKdod1auZaWdQzfW8PaqMxtC4vb7kXJIhJbgT3c
3GEF4iOLA2yVr7RELxs8997Ue1fS+E3pzP18cHanIvwm6ztbZ3Z0hrH5iZK9iJ55
lCtWI4oW1ygB8v3PeItsK6MZIcM2VGPVTlDh+sygGL9L9z8mNWW8UUWWKbhNxx89
5/jD3Qicelc+rfGLud1VWOw0ZZKI6Vk2e/Jcdd11GXByyka6d7OQ+h8Mlr6/q9pF
OCDc8ZakrPnrXZeKMlCUN1x8W2XYUUDr7m3YNnC0KF3QtL5jB+FJ2Z8wO5roAL1K
KsPZEQtIZwv+71OKbPvpOuvtKS29JexJ2OfhfELLB6kNsgXwyLAGrGvMhHaoe9Yh
rohf7hRZuIkv9AdZLj1zd0maC6rf8pqdBgmfYgo6xaZ0XWqa2hZQ8x45GKuaeeTt
TiMZKuYVbRszkIOWKarzYf58eWtnApEv3X33TyOs6DrcRgwR/MAj4WuaAJ3dgsG9
i7WN0HKOcan87EZy/nzsE0MFCivacktSJNAsjDkiSFboLsjx32dJ8MMEbHewcaO/
0HcYP7YR/Dm0zDaR+ihLiEYPFAab5i1n6z13JZg+MaaD0KZ+QUQTzPlEPvmbI4ax
/W8gCVyCB6RH6D9OFHnEOIiVECZtx6I//Dcw5O6rihc04VNdPMDzIK/9amLC+DMN
xcW3Zpr3Ll8/CsVtxebL3pXrbaJwq7TR3UH7YbNjw50L23tz1lKpnGprJ4m2xd0F
mM409rsbb6KoTtP9cOTWMTKOBRy0pDgqN+FiPDpSNEwpH2NNEb/1ITgCPxy2/4Bh
NxWa3M21QPnvYYH6v6d+087S9xqetaCnN4hKFaolZ+PclvXbpPK1rkP353lgbvKT
SWfWVpfaYn6AF9ZqW09r9mtMvGATiAj4dPyYFTUZbtoJoDPZbp4O7XtSPU8uFIyR
CVjAg7eGcOKeYQxVUjpXtmEKJ35WwJl561/rhPgnrukwh+eF5DxmtPpIQshO9aOu
C1V2q2yd5u/46k7gMFX2OFnl0h0NQY811O13IFx8wwKMU+rjLmLBjNXhVc2c+Iqb
w50aDF8skPnFwPi8ccWJHPnt/odCy+XAhUIQDZOeLL3Elef29FqwU8Pp15NwweX5
diIVjaqE6FrDVFyVQqYYnl+KAY6nxdpNwxszie0qzEQYa/qdNTNHmDVuwPydN2WW
OLvV23+cWhcoANf1yVRthaJkdBrOS0nXa0cx9GrBrtdPWCb6yCvsnShKUvQ3OOce
TO6ID8mxn1tpeiQQnjldnmEbuJRoOpjVU7yVWFFsMDd2rkg6rKqjglnZwMNI5BzL
3kEDv1a8Ev0eTAp6CdpWOkpxr3wKDRnCCXDDOULH0P+QuMpf2BfU790Vr0eWdrzd
ztJGL+hgQrlvSwWKTLL/7ZmZeaHi3YvI4IZQWA3qHG36/8bPuj1+Q85nvLxT9mK5
ULFUcGacpsx5mqzmo/dMyKirPQBZGbh6m5RWpu2aaX30hJ4mjieci/4WK+6Be8jO
HoT/toSDHCB/v1ewSsOtAu/V4PlJTvzFESGZYZlaIhLqyZuI2f4QBloLp7Nx9VmT
tDK8T3xRgu4ZaOxSSIJnLaQuXu2z8zn0xal7WXppaFCBCq42I+fhmzV77OyfZMfR
4Emr75yErfLSaiA+lO8/6Upq+HBjOQzoSH1Cc0O1LM/I+8HdNEMGJoATZoV67mNf
QDhC3lHfAQf8ZZ4clsxDwZxoMqzlqSx+W4NM52cp9WXbEjk8yxRJqCxxlRcUu6dG
PNZEwEKn93jW/2LR+WD7yQ8LQW3FwwMKXr5h/yDmZFbu/w0t5olh7OaBeuYjaiVm
L7dSATVQmYFaO29YeM5KqonSKwO7kiMn/gNNe0DIp/9IJLQ5FLROZh9aYAWaOj/6
OD5mjQ88um0EDX3QNJDl7fbXG3Yx8l4Ju2y+/MmmFBNNwP1wGaT2xher2ZkwadwC
NXsWHXDWNkap+pPdKGF5gazXqwIZ8p9lDSUveyeukBrselTYbCJAB4z5k0PpfQSx
G0Qwf4CwzFaVdd5hbDA93vuRwvFGVti7L7oT8YaycrlMmzbgo4eRMCQRTweBJUAV
3P7FCY0sY30KkTJKsrrbQ4pEysj5/wCOvZK1aSSc6FE1FMddY/OOVoT1j+hzaR3x
TZSpAaqKnxxrLr9ntoPhFJmCxRI4w33Yobv5LjcnTl9q06di/wIlq2/PRtXv9loa
I2G3lnslqjaFyPHAUPX94GJ844ct3CcQoCEk+l2YKd18Qu685M4viK55ltgQoRyb
Zjq6MVjwM21BKHwiB8bggj0Bfqgn/dZGuZOIkfj/U6ZekFKb64lnccBImrJbJnsv
As7ZvSYAdbZDWG9GKIZoFXxh0afoTBEWi6xVND7FMCabiIcDFRVamxnWdpqSG39X
umI8mY9uelhkFMDSyJIA5tTFdz3WNPBL1nrsB3bXd2k4P7kfT+l98w50CFi5/eCs
2I+n/IkZRB21WlDZe+5oV//mI9w4hd+lJOSJOzMs6bNqHGe4it5BIfhB2bckdavX
r3lKkaHqkDDnUH5RgPPiLWEEa8QjRSjBBnewK/xfEkWaeBQOSgWYlOl5bxB+AgRE
SuZ/s5/q0QBXVP/TOliMQN9UTlNH+cZ6gmKjeJEtjAcKNCRUhY+hYnuZag8sGwxu
lwbQ5Nr1hYUXcGz+QVe9waa7KzzIoyTk1RNiFXCNaRXvJWKv4WclB5/RAEFwt9WB
A+JzQHGqBTeNRhdNraktqOwhlQdqoikrw+zFGCOx94aU3nN/mhYCybTdNmKgUxI7
KKH5aIH57YGHgOLROJ2B1wttqPZq0VfBEOZ5wJAB4uhxFZvMULYyVvgDcidg+WsC
Kze5hOyK9/adiZ7cvpKEvJmmEtHE13xNTAvZETi861BQfIYFRQsT9GPhvsc9xLqO
OO5YNW2EnpKhtXmJDlgNBrOh7TW+3fLi6nqE+HQu2PLGklYzkceml+anWkmGFAzs
fkwNO3VeJUJm+DGs6r76X/soRtcpCaS89XiR2o+td2IyNzM6bFH0Ous6yCAQlIhM
5BTQZ/UTgyu43i6caPlPQ6vqi3kC7EbKtNGtOPvUqkkTx6eUa8RUcjRnRBimH7F2
zkA3GpY1mIUhgj0LWE/oe6Kr18una1aQUgsBJTwIgaeQQRUY6vFa0j9uwRYOhm2Z
wka/0vBVvlVbmluJmZBkvjY1WzUqBOYtmNSZ4uYDhE97j1ya9Ls+JTsugrt3cKeQ
Upa0n557eGpqp/ZAjfoAOCRVd1TqdxoUfrLPRPKz3WvAi3Bnmgusl7VKjjGZiRIQ
MJ4fidvWwQVh918nJZ5LERJhid+6Ifu2iqoJZXt/pmYJgScmJqlTWtgvOBOLmJDG
N9FHX3EX2Ok32UWcvJihr1H8n3hkgqUtcyAMLdqzKhFeXsZtU0xQrK6/ghngMLhB
0eaVgC6im0OLfaw5qILe3WWrMUGRGwFJdlXU0AuTy5q0Fc3vpE2M8cKd9//tzbFo
7VhJZ1K0qZBXg6oD00MjcrJmnr1zOkOOgVXScIsskTj/vRKqHd4xeLibnzRSDafz
cKbYUNt3qxkyR4NubKvM0anHC+A21pTm9sErbKlPNObEH3QNyQuo1rP45o56ay7G
EQoBamDilyrt9gxsGiJCBZYhufAxVIKUKf2KFaeytkYrmW0vCillTBTnPAAyZjry
EjJjH+ebJgJL/ZEm+FKrISo6o4rEbGqyxb1o4rAyz2ugFcvAqG1rKtrmKG5FecYZ
ihVvtX6p4D9zuxepm1OkuW2c1jbLGZZUFSjggvcJfFzY0sEghQm5CrACsvQ6Zanm
WlFISkC9NYLpTzJHpncSPK5DzjSb0UhEHxpNQnq1TKBdrZMp9cEgATlVRf4U6uA5
DZqW22o1UrZlqImFlGrW09XSL3xTJoLW2k9gK0rkvAhoauQfHVuwtR3NaeLZlqUy
lPo6re56n7n37OVeu2JvzlpZS0hTmo9tTKUZSd8pyYupsU2CrvzTW2dS9Vt/3QpX
Wop9I7TzQs764hFarTk9txqKC774qeK9btMR04tmu9qhp4vaZBrwcqYu8BoiIFSO
DRASZ/J3zwwXOeh7W4lbDafooRxkrtZrHkqda7nIDk4rkIhuWivaQP4+9h/3balK
H/32Dpt8p6MCy2A7K3PCTwYeDhFM7iqVG96tqD5f5Tpwpm94BBZC8Mjiev55b+gk
hkdEPNjDpSgUxbSkT/JvbzH3D+oO45MNyYvM/+nzNb6WGf0nmC9wiJFpLF24fr9w
6ALUgXGgc437CpU/A7ELwR/x44cN2MEq9FKwaJq8D9BirnkC008z4HWzTkThzTa3
ZAnWLEndP3IY54kIGSvIP+oUzMZKA/iFEvYX3R9rCLSGyeWd3xjumwe8te+nRQeM
v6gP1DMVCi3Wtq4N+LFmyxSMMw2Bedz02hkk5KYMyIt7XjU/JJvrMeM9btcSB5cl
kQdhVnALHfjgks9frW7weIbCfe2VQVQuOEsz8pFE4bYo6ovyvINad2OYbS9eni2K
sS6EieGvBMFAVAmME/7XDN9CHc+pyNTo4i4P6vErRzSZqFG1WI5Mv9WrJY5CuFCg
dpHa3UkiL8NQjExXmzm/yFqt7DZhcNxOApzaWQtC8BdZbd2VBEuVleVlyb+0O6Mr
IdHfhQS07/zu/XsCRnP00ltHu6988w7l+5y8hwu7BQqLTpYQ39f83vfopCoZqVLS
nYvGcjxowXhTdmx7oXEa/J/RYgZ/zJN73USFSeQvvmc5Mn/29eWdSjGihlIUWJrZ
AIt8VTxYbKkELG8cu+bk8loJf/ZFDWzu3waID9JuADWPgJCAySr+pKPu3vFXt/d2
/LejWgU6BSO+1643MoRukDwgdMejihOqkbfYi2/T9eGtgeGTAkBjJrsPTY/VdCEH
9gFy/nqtYgy76863fiXEy+0idBiuV6G4BhZuNNKUd5mFS3SLjr034kU+amQeFNqn
qBLouNwx4eRrIqACKvGQVsZwW8emUr7hXtCJeqag/18IDjQy8pRnKcVJbsHAq1m/
+KorbpkP7FZtBcK+wM5W0kt0sb29yKfhuS2KAcZUmBRL5Lg6IG1ZM53y9NTceq0w
G9RtmdAMN9yAQu1VT6Y4V79rlyPMJ171d5QP7yBKIs6G3k4saTQH3QSeH0UrdI2F
nTjf7T0Eq2H/QztzVoKvyGEaq54e+4QAOxetZNBSfKoH4BEmQL+vZtzQGxtqs6kc
U+kcnrFl5Bub67ZcR35ZJR/osfVrwGxofq1eHB+pepzLg8YLOtpVOaTby2pxXpmQ
9xECLpkAv01HEK+dSfjDHxBAqdTEARvpxrj26QTrmvpSqeSbHaWk6vZtGQEHQHFG
zZmneIa7FihN6zmWjYknH2cRvIBB/UQa/06RIyp/EFap34dk6x83pvAjh5ing8DH
Iumcrf15yX8N6GB0hRlzPnjF+rvNjd+U6hu5vR/SPX2pVEGfmGTgz496rRpbDWTb
C2szePlw1A5FbIibl9Sp5jJRExUGmUlfYsDpz6XAzvsc6w1pEX/Bz0q+TSIF+3MZ
dBdPFKhbpeK24ruMjlrcH/qn0aDpMR8vFEhgK9FkIH9F9P/49dr81BdDlq7QNCDf
kJgKRsDll95ozeovWNWTw+NuvXnMOV+JFf/uiR51jethZqpLPQoNIzY5Gen2LnpP
cOCLDTb3CUWdlMIh1bpptG/noZU/j2buC9Tl7299kQpoeiYKXH+8qgFIxYHDP2cu
p1TSqjKWVbPmsbEh1yIXfjR8JUC9PscG3cXHIeNDMyr1wZD1SDrMKb/dBMxqCA/t
me5kmnX9dLwWy0d8Z1ZVHJQMaP5rxweG4tJBrm56bmjKIJ80FSZoi0YfPOoNnHDV
0xXtkr0yd3sNlLp9bVM5Ll+i+8ATLHppeajgoyldx+hOEwo8iY8oUJXgAwalZxYT
pmIKF2raxQveFtyiC9xtv6Z3R3H/ro9CCD21Gu3/ZDeoDB+tvvqpt+Td212XLZZ2
/YBbbWFpaPdANbD/pN4fXQnWifRAYrFr18050Gjvkp3pKLf8PKg9cOs+hpJBnKqZ
Xp2Hol5MrIg1qVLZDpqikKxe9h2v+UcaS9VDuXTg4g5e2da7vo87cqncDrZedzOo
NTKvAZnxd4SPCJvRtwhdzLazRrO9aEjluGF3PEWLbWInHslI3x8xbOwKYSf9H/Qs
QDvCVYF/fdaqMmIAvJWSIhDIw4lkq6U3t706NNyMtmD98FMg4frKgUF5uAquw/AW
eJolGuMOgILo4QiGV68F04fB1I/qj4y6y6ToDe6ldq63YwFoqNYaFbpX/sBGdsWJ
mFg+qr47CZKWWQLmsgUpjtCYdz0c+/+pQpZ18a9hNpO3ajkk6Rlp+rDaRxjh0gRe
vUgsoHGKGvkfwBeB0Xrh7DC4opwp0rr2pAV/EFAp/r7piaFonK5p57uyhJM87UCU
h88gEQG5wT5A7lsiMT2GBGDvDQoG2Xnz4+/CAD+NNmYZWhfbSwpx3BM9iKBKHNu3
RZxl2+5opORpUFtYL5Fmghica/z4w53U7gki2c4+RsivzDq09K9oneOVQ5NvgaNq
UfpPQodgWj9iyM0RUMO+z/b4MqgwKCU8ywpkhnnymBpOnIt3nhJcVgHL1Dipfpo/
XQXVbZ3+et9R/3I3UlUKSMUXmbgNXIvpFPHQP+w7UdTjZT70ZNfTKLJN46pOjTdC
nI7lun0Xm4Q9fnd5CjFgYaziuUghIRp8Lb30cxQ8Mvlmk+IHKPFM3Y+fjzlU4pKI
0b+l8kMxmWy0O/vAFywlmkz8gdeMBqPGg0OzTeTPNjqWwGe7tUNOu8rX/jVPG7un
Gvnb33PPqlfteIHxcIVmbZ+guFI51F8OQpdDkzxXcXhPePuOytjEA2vJoMplL3j9
VpXRdIR9PPscnPEKzC6c7k3SrnarejQFEuHuZST9wTU2fypJUjzDkFMWJUq96rgK
Br8WBVGkrLFzrIPShqBVj4I2Snw9tG2WdJKVQofXq6b8KubyZQcx08jjHt8hLUbL
A1gCdPY/A5sYagSBNl85daCPb/cv81Rf74LLrFpTUcbQ0N9/vguoUQwx+j3Tk2+S
6z7MmpaohdePdaD9SzCt1cIZkfas1bGrkFRyX2EvrGLbTOJIRwuZFevcFCUXPAC1
SGb1eTXHWidaGFqciwDnsiEh4ar2yYZanavDM56WQRZ+pCsj1XTmfkQjEM+3DHkT
weVMX4zHgAxE06jPj3KLXrdNi59ZaUH0sFyUz5r9Alp6VqEXift6HQqMC/hGleNb
w27IgCwmrfaps4uQAHCu/trEiNePda+3c2th1A85rHoQ/G7OTb0x9siRYkYKXasD
kItsw5n6YG87qwQA6fzVdhUSqQhvL/pejRXSu+T68F5Uq2rNJ1mHlMnhA00nf0mH
n4nsFq7/mEfi8b0BN3u9jvOqrgT6DBTh00yypRAOJhirH3Z+iEmXl8WiOFMkhsfV
u8lmorl+4goVatYYVwmOLFJPGTRpGIxA9xl63NNMrxhSlqxXVWDhdJpt+/Iwt+4b
k9Iwuc1aD6Zt4EMVh/JuiPFvqAmzge0A63nOieWunFbBxKtSm2z+NV4OWP1iCOLB
wXXSTf7EDAmNBJmk0dcqme3rq4NvSITkZegfw8o1KSYLAR7ssUdijy7TYiVFNIbg
yddFmuRUKDiLJutfLY5OPxs5+trPnsh6FuhQQuX/NjwBwHrZU9rw3jHZaPnS5Xg9
/RWhUZbVzm3U7Th5yk0U6pHanLAxEvDVjUV4bUo+5083IXb32WY3bhvRfcAOw/Rq
J67/WWl0gms5Q2vCc1UzPj4EZP6lLv+lDdNFS/zTHWrTiCOzl2t7EqlFrj4rgKTi
FqZqIBuN/6Vc+zeschLC5+OZogzGQ9YARPhGo3tfDk5Byk+2B2UM27YlQzmwsXT9
Ga/L683tWJw6fKJZPotN6MEMWH6toK/tlsIaj28Uf6A/mo23Kvw5zQ4Vvd5zkXeX
yXNofwu6uy0AWp8TlT0/l5mnXX5aEIUhRCnH15FJZK8otakh0hj1xg2i3DzwyFaa
r8VMihlQw8Y9F4RZRP7DcDaDLWknUXDjRAyz96RsS0hcN09n1R7onxrYxbM+Dz2f
/Dss3O7T7thwdcVA+O5MdN2uHJ7arfBggJs91AEHQNDiqRIjBetUuhrpK6bFR7yY
Vh/6tC5oWSOEV44EKy05aUN3kazCpzJWqF2zUwq3LPAfUlY3JijiJ9Gnr0op4Q29
H7z6XoT4fa4+9lfmP9MdKWRBcP7ahr12BrVXVmfLwmaWkQ5zH5Gi1StiuLW/VyXd
eKy70VZWqdbG8VjCWiHVM22W28AVaoPnopKFmtJ2rDqMCv4c2fNNnX33Qd/K2jnt
OUjFFKk1bAW+6H9GllSbEb8z7wg8/WVpnEHIKKoXS++bqcdOke8cunAJigWqxhDY
/Hfpwmv3I2TVWeKrhxOsPeQJJ4uZVtv00AsNIMFyxTfWG2TCnkrz9Rm3ai3qOhGP
O8EORoN+kMUNGFijSfIwy6jH7mBBmNYVkehD7Lvsmoryc12rPJGFA15G0MwLCSvB
dJ/NUFEHT6L0CEm+l9CszxPUUkEQRZeXQNapGaIdiwF9b/Q42YfB5FzeGthcT3lS
R/gWaOhubnLO/WyUUyo2XuQNJakSHiCHTJ3hppk03bZgkDGrQjKLO7L5U0K2vPfe
sm4X57DYOr9BCfz84RfK8lwzsvTPCYSIp8ijlrV8srBRaTE2I19w+RtjHVXR2CET
XaVHU5xvdJMgN1KTT1Zdfk+2e7RoE2MjcelfxkdJ7F9IDFy/Vrdftx4erQ/UZMcP
aHpmFU/mb9S4P22Et1PgHL1Ce8PcJSNjqXwgzGxOqbiStLzI8zM2vRgHsfGV8C98
llBiu3ahQgat539c/Y33vrbAn4zZ05YEyALb2L8wCCbK5obQe1ezM8QgCtNaZkm0
UwdY8++wVYRatfFAXut+zF29UZz74NgVLhaHcQY78zFkGfdeErxPKNggczFXnsi9
f5byFgyszP9hi+zcqD6u3caUQBF3X4TacQM4yHl5goM5PitmsYF5cuS3+tLKY17e
47d0szhKnxYeAiOYdqvGkpDuDyfLU+VgwfqIWs5P7Uf2b93W4b+ehsEoSDcksQY4
3aWTKxqWd6Z6DNGwskshFyVJiUOYRD55vUukDFCTS0NmhHZ2sUw7wmilquoro0ua
NXnwOGp85Ak4X+uekbcrZHtrmWCOlOKwMXH0dZ8dlYBHVYrFz0VnkN8iLusIc4qS
lD+wjJ/in2UzFtQyKDu59+8pjhwO6bIjs/h/2IzHLsPKF30o7T111t9vMb45xBr5
vS8stnTPjRvG8GoInI0WunPVqoIFxnYJewZjbEmcEXRtsSzzr/CMYQq6nzn14QK6
D0ExcRKKH8Pig5oB3KVhjWiPwjsLxaP3+TdPTufHTrqoQGvYhBAHmulV9PZUWpSz
RBuTVSGHLoZngjbBiJktBK67ZXInM1chc2YwUv6nGylQBPxI2nizT10PZoZszR4U
FGZwNo0wekfMWKtbqmpW16KCm6dTWXPRMSxdN9C7DoSsDD7256SmVovOv5gja0YK
WtvNk3sGF99oTnJ659BRHu8QNLF4bINueF5cypcl2tBlRFb2uOAdSOx4G0UOjYgl
pwqsRW6vOFF2IZN05Lyqcc66Lumg4uNw0lf4MRlc2pOwJh4o5v4Y1M64fPM8XHke
KytOYnEp+y9hRJ0wpnTn9trzmBwtEyPXNW5yf9DeBHPmJNxFuwYdYxy+852z2BOO
gOcDfZ8FmGtTTGnQ1sdTEgEj9778o1YnP18oI+C6860etSpyZzP5MQ/41HB5abwi
KSPzQLwV1hUqxIMMp5ufwKuNW2EdeOsETKsBbLHRfF44eChnLYXYE7ZxkChcCkRl
SPzIyYNrAQqKAGIYzckdhZEhtiaaKMBCsaehAx0fdbEWE2gUwl7c32UsbfVX6exH
EH5qA7aRC9lBDBc/p0EoFWwhM0BR6+9jyiCve47sg7k/33Pa8liRQ4MeM+ZVfM0p
JjL4MFgmgqe7qG6NgREa5plIMOyjuazA7vx9b3RzICDI///lSBXxzCSmnDIL+BQ8
VTtwJAbsVi+Q9GDieZSe2SqOODW9oDJDCvMl80NjeJyn1TRax0xtQfMV4/EJaYgm
r+xbaG0YsXyYO5nRwiGNEzLSUou1EfR69MLattEpjpK/CXnBtiD5AznbMU+qAIFT
XV2yBElSTBoELW/T2jm+xF4lRiFx/rdSmahOA8N0m1ynma73uzhNtpBQ3+SVVAhN
ZVN10HoN6u/2JH7ktWkbsPsbqbYYpdaGJFEpwjODjjvBG2IJLmVOqPtddyp8D6Cx
B5sl3uz+kyGNTKrtzmQE9zJE8s7dd5RUHG74ugCHOqHuNDwMOqXr8udJObvor+xS
mZVXvHxUfJnnYkaT5a3KJ8Bjzg7jpAyVJiPYKBysqk2SJzEhNCGdU9h5Ya6fnYs/
Zhsx3C+GVnaXNDDKb76NwOcMOlSRVY55wWCOaZKT24Alb64sDr6wmvZpuFFHmXvJ
CcbPPRG03b1P33f09/TXWnglPmW2Ac9m0W0kQ6m3tKqh7XGoj8HAkScXHS17SmbO
xeodDYBj4TSLkuXiwoe/UnryttMQC2PQt72e34e40HuGs46TiuOwOydNoPpr7dVN
HFUYuMKeiTFE4ppj1e2vI8WFwTLmj4HCSBUegOOqh/AP1mHfIIGu7j7NpvhsiQzS
MazJkZS3mA8S4gwU33eH1aikSdijsYjHk1BVC92hko5bDOC6pQSXxTLaCU1cGX9q
6MBWusz8ekVBA2QbpaSwKjUsQpOrUScjAgiZifdTMu1KEIMANtIiV0lYKwjHTao0
KBAyo2JPp4MBSues+pd+0Xts09rApQmCpmY4a/6WUIwiP6H2pazpvoWFWDmId8fQ
G4tbKBsifvk/oGTwb2vF5lzqOewlwPv7mxtHQDPvYjr1lXVxuVpTEFsUfkVZikJL
j1g7s6jONmjXijLxWHV2EuG/90hMJCdgSEVK+XLvuo1GTTL9kR2F3e4N+hJqQ3BM
eugnoYRER6qPlMGDO9LTCzRVwrldYvxG1JZ7sU7vxCmg23ftMpu/ErckLYY5Ftky
I+vOcqsgRyK0QO5CnaudvqSBOef18U31+Ap0NQIMDzM8CHS+lP3v3mNZ/rJ1oOnf
Bw94oH0zIZe9ZDQ9vH6WWrHia0LeKEE0hfUvneo1udgEqRwr3TJo7WrlM6E4gv5x
cqDqhGni1WCaBsws3pEM0ChdELyE1DwcqOlCVK8l//m7qaTXYvJE5IB/p8LmD0gp
tVzjUyEvku7Vwc3ExEjAg05gBzyfy0i+jU5PqvnXbyctX4Gau7xEn4bT5tMs4W+6
pIS/hFwNLQW7i/6U48hTwV3ThUJtopgIG03mYUY1fkauUA01sxzD+xq+iQECDkr7
FAq6Oj28hImyW3MMxMeNuQ8lHwYz2tDCeUma4201PSvtiElFP82Oe7rGHXhtUPMw
jdaMwABDzye6qu77J8eAvHsp1nceNrnqj7/WrcumCT71HZLvQ4S11xFSpWoG0cjW
sEuTBAo15DyTcZT/0m+ibGgEmYuVK/gjPRGjT/p6/SqJ/Y5CSuJnM8QG+ce3zECm
iYF2PuZm5Yz3f1fLtayjZvd4ZvkR5y/AtO+Vuqps/CvW19Uh3wz1b2+fDopdlNUm
vkil/gNtg2EFRg4Kz4fNzynYW/SWFL7+Lo9ZA2tiW8CwOvKWf5s4WHt1v9E5A59/
KJlrKF8Yk8LEgZNNsIOf9LDhRVGC0PllvA5ezg5du4/l55akbY1NiM8M32ubfmJ3
knvJvv0m8bUWjqa01QTWtZ0j2CsWETG0uR/s9MvdVaFqntW7EjufVAkgplrH1gaC
+pr9KJ6ITxfnavAFWW7Iikim6ClsTik1LmeTC9AMS6pxNhZWxT3y93TFyZ293VFZ
zxlsJsUWFFv5q3US3GjM2nwSTZ//fEaOWEo6NhcnGYTzgYbQnPlVDIqfzHRK7dZU
lB4WI4vOxGXnhqnTEyz6tBvjScp+daU2UdDbk918FPV83az4YymERsZGRqqaBOHF
tutjiHb+WHvrHB5jVvKurvIWGkVjJqA+jt4k9Eiqu0tlXkNccm4W7HxMtnTqKix1
foGqw9st0/LGpw9OquQiUVcvaJPFuATml1i9HRkByXiRg39ufwHxoef3ya7oC1PD
S/2hm9ebM7wOYwnCkiBbvh6btmSt9IWT2I5ras5DfgF1ndiPpbDZKw4fgCcZG5Yt
hpaYDAZP7r83A8kz+lKUoovGZY0rwFkDoeOdk9IhigFfLsukF2MhySv8RVY0fAOu
KFlMcGJNoDYN6yUYN94DT69gdcHsNzMsjHxjLlwkUDTuoVwJmNlbU1rG4svUX0K3
7MaFNCK3kwyYg0b0TQ0zT4DRcdZODUg/q9vdF9vOBqgECJN2PELGtPnEPLdCxEgr
dUvoQq4DCcZmCb8G5rCmXk5PinGFfk96BtkrOlZlIvNlmFyjmquZPXw6dfJEZ+3L
3XBripZw0GeiRLz0Pop8ZAtH2lZzdizat2iwNcjpchQUEuPs6bSwnY3mJ+dyAHWO
7wuAHKCRxVu8DWQwGw/zj+CYtREiOgdhGUqzsRhNOU79QK2Dc15boYAK1jDNs0Bj
wT1Fo3PrSGudkkNftYd2ZicxPAD/d1uugA0CWMm1JxMlbpKOh1MKKsiQxsMtIX/L
HPxRCRzq+iZAfGaSiBmeKSac2Y7d7/wT4n8OOhaorWvzYKRF8aaUV+yJPNOKSEQo
HQiTK8AHMHmqXWqbrGeAJEcEw71qWy2aC/W2MyrGtKiOBdAOsrPnlBf1dsf0ZiVC
kpl+uNmEnaZTSExtMmA3+1YEhTJ250dVAIsU5Pm9BIioBf0le74t0HZt3AdXAu87
KzUvGfaRp1WG+yG9Ena5HBDuEpt4l0vXGU47wt7dCHt5cIKMoVKVaEDr+8JttChD
SMe9LShKUR4DE3UOuqIRnhpnpB32DXHyEMye1rkDSnKhq69JpkSGdMn1v4pmGN60
ZOXbKAWo36Izrr8k+DTRkmJLauW1bTyZhw1+ogezS9IXWSYHHSJ1Le7CwgyXCvv6
SdkdVFgqA6yZ/iiQQDwI1StaBndI6OqMgmCIzkkI4we5BPIFsqQFvX7CbFmJD3K4
K1bi5ZOgfDIPgIy7I2yyIdRrGm7Ys2vYx+ctgez8HtR/eYnpyHXlat2Tyg7zt0Gz
5Yu5qUnwXkNjE6DnejJmofMIaiBho1eNGwtLpZvSOBDjAynPIOnngw8P4A0+HO61
vwTGr6ZAdijeNm3yCC14u558cctAWHinP3XGIjRzSD5H3nSFyN/vdVYULkfWRCGJ
hfI8CZWF1iyKdX4nojpZwHBrnXXYsajZtEVd17rF1sNKbajZb/Bqc62e9p6PLCgq
/pzSMfSATxh5rRy0gg5kL/ceQkNM4vmdNS/sESJO3RThQX+p74FseOFlPFHs/BD6
+xCSaVah6SgNm1vW0ts8pWN+RpBiLoTA5oV8NmEmNb2OYFQwMAeUojHOgctx9plB
HmN8e1YxHSpj9LsgNmGAdfKX43HZMr5c8eXhbM6DqN2a+SaI6dP3N8YTAFCMkkaP
TRoSBCLZNqCq8j7qFD2dvpGVafc0ypIqRa9gXgJfW5JrdduNqZsWoOC15Zw6SfNC
Nj6u8Xj8pu8tIkYFeK1adeZH1snFZ5Zksn4JGf26K4Ngo8euOzD7/J4a8SDyVqMm
vQrYbZOs2TNKMEDbmYlEHKxU5mCBUqjchJ5I4XrP+KJWQfkcTqjsDA+nUSDXG2o9
v5xfJop2SAqKJchHZhfHmiU9SsgeLoLwyMqn9+RjxjhdQs2Jf8oaww2VolwwvCsB
cFaMDloMtn9EKitjY1YScrD4/4Wx740ODgxW3ehcxLZozLjslBK6Cf8Xf1A4RPfA
7V4j+P9NK+KVonYtCi9OqNW44bGS+VDzEnOi+TftV+I4cD4AaKw71hZMTqpJVxdi
ZnyVB1CCorQAWiaUTeAdY4yEaQzM14P2SaqssaWtJ7Ndn5/Znf+REn33NZ4AQb/g
YMyuN9yLsH7seSgXSOx2mMzQK9NFjUAWI+vW03r8dIyH2v7lykhmDKQpxVQrJbbj
GxbC2toqH7bFB4ncTKhYdv65fwSW4MrfggpkOCcKFsV8a6+gcqD2IObGR/H2W3kl
1w3wsWHvbrM8zSwo/JCfM6ndnB/qOD+4YDR5wQwSxb3LbGdFYOrtVUJKYsWxQ5PE
zDUe2K2KlK4Qq7wQBXHdrHZOBbiCWgMkIhM0Ygp4t+UjOvf/StRsUq9tf3sCCq+Q
RNF7mpyEvVRL+NIMwqASjDxq+NDXTnJlmXjmHjCN2V9K/2tMUC+8hsDoE9hXSujI
zuyDCFB4ZsyAKTuLEu3vhfR9pipRNMhviNMWedeKFzUjUX8JfYph3eaA8XrSXzkE
dziJWs9uYjVW7Xq6oCuM6NPHf+WKQ4Mvyp1ATEyWJDsykBMKHIb1e4y/ernhkZmQ
E30oSkpAWvlFKbbIwSpNKhMJxsJ/L0EKd4Cu0ybHzdyGwbz+weFZV5pmoMXtts95
6CInuOUdhHy/XaLhSdoT+MFXXVdtl8/5bYf15LuC94p9nuWS7x8Vxc+dN+A6eDrk
fgS+KGJGUpluUoS/3Fl1FUJqVbWDyB2dvz3LYv/EYyzUM1uOj435ReDW5S9BPYiT
K6BOqc6YGGjnYcDOnM8dNQ39RY9zVBK3bc3nLJY5oNCMIdCNE88bD+MHysXEYGPr
sUxM71oMw2v62p7b6hFBZq759vEOg1g+LjNy0Z+8J7qu5YkA2sh+WqBZFGzu7uWT
hOrDPK2APS9SM5phOHzSCTJIWhIDfVOy2RDD+NeHmzPuDEiNan+7lhomMox2fVfx
zA6BkKcpPFaRsftBmP1FB+zW55lqHb3/XXJIaArz91K5UCUGbZPhrA5f/Y8JZ0OW
k2t1L3oa1Hg3Uk/RV/cA2Nmbt9h5u7kzfghMFHD8AzLebWGSArPL+ahLsGBQa/O6
dHsmXXn5zcv7WN9gkQg0Pd/2oInfXB8KUt3ACC61jOfzCymFwD4Lz3kF7YDBqFhh
qQx6ZYG0uAcstg7MyX3viFO0nL77LrbbiRkIgMnpNEmFfMsC7cUHpuWR4XkdBCdL
zxwwNsb3Z8ZdhKE+DJHXeRUOxylrNHWIjLKChYd5wYj5H3ZYydHCVoNoVzterBYb
VuIfmMl9Vx7WHIfc+6hQ9V88zck4fKtl2QFvfKBy2sxs9iCJPbWtiZQM75B7Rs8u
Ywt7Kij8mrDDqQdsq8t8ArjxyxGbmO/c8yvLNyKrBU+9kY5lU3Js0YrT+TIm+uRY
9LnoMP5sNisGNNm9SM2XHuwO8ejx7XPVZVU2Qpd0/+Xb2iDkFe1TsiINpYYE58lX
vSpbWXLsdh6qYPxCRdpzMItYz+x6UghqONDWSbUYHinXPNb+YaFQ55nsqQisXLwX
ZNae6gA0dSOe0FiDdr3LAs87aHSMe9fUMGgSPq1mrJeRCCqOrNCT6lRPIY3wMvRY
Hq56AcK7LhaVaKZBh/0HeFZ4SXEGaOT0R/C0XPtAVkSomyriveqN4vsSaCgxBKdA
smA6OgXTSoecMgorhZM7FsDvVYa5NJ0DLusSZwQyYFR0s2mQfoj8HoLtsIlvM/OD
Z/iTStocGFjceYMm6F3MtQ+UHMOGCRJqn4XaE14Vm+z+HiWsXq40ARSO3mJOQQEX
BBKKpS9sgzceDdaXTI/LSyvHIrxOpQdRT7lWSPmKYBKkQnyss9xPW6Cwfrc0fVlI
m0S9xzyHtQUd3OfnxcW1x5YVbW+E8EygyX8Ezv2ea1tfGsar+pGkRLvG0VuM5IVj
2CzHqgcoQyvUM0pNLdXPm4+uAcfqowsdzFbDyAm6beB6bk/EsrVC+xYG9OPcwej8
TdNM+OsjrBcZUrVeKTW+1AEI4i66qB5WaOKYd1PeZ6oulw8se2fSs6A0WNoiF0vP
j4cZzqwCmH/VAMumITx+lGHtU4gOpHaO9ENJoeE9Rk/wPKpYJ3Nw1jQOX4hee/Fl
tftpE1ltRt8d0ALwFFGdsro9laIC/nt/verG6M1sklnJ0h3TTxWf8+AkuC7AApob
iTAilSLDwkecib4AuaD6m9JVnWdBBRwrVMK5QYwyfgF+rs9PyPVLdHbwYuOYx93K
eBmq0VI/QalmsmCoCUisfJ/2k9hNJ9pMgGGZ1aJxw3RQtUITu4U+qpfAuTb7AsS3
9DtoBfbSQdHPyMPkO9s4aGu4uaGHCN7NjzJHkKCX67Eb6X2aEyIXkOovNedd1Wx/
EBXbT3X7IDxOqwclrQGNZ9N31TZDRIk4IepbqwKVAHAb6I3FXEn60Jb3ttPqZjTA
jIIjTMtTRz1uyyKd658y+oSQ1qYapQj5m6xCJcrPY+AYm94vPh6siZlZo/JRapJ+
lTjaX1AM2oXQ2ObqY6lgDG+hQraMNaKA0wkdLPg091th/BUmkG8N5k8QFFwMKA/N
c3eiaEUIG4radTF2gV5R5zN2qX6hzSthknTuSRDWiZTeFSGNk8IQ/lsOpR2DfkRo
aiwKEEXRhvOTLb/72sgNf+NHsFLum36mrYviAdbnjslHz5MAANz07DVutUmGswGU
OjAuSzVZ3EGiJEZ5YQfIlTMQzroXWsOERyjchoxXGZ6ub96yTVCRtw0xsIFRm9XS
hmywSzshtbWqK8rrjtF9Xmfj72wN40spXynYtbXLtHkW/oQy1kAveL8bnZi6KRED
3LLZGakh7Vu0BcZFt/DuV9r0Gt5yZMRwO/Fh3AnDZTq/fYfZILDWMSHG0UvCiCRY
5v/rQIfbJHa+kfYtm4YlhahVDQNWB5oblseioD2QyYuac7w1Vw3nFFOYHZvCFHnf
ftxhwQKw9j3cWUmMjuaGNWQelk99vNZqpkD5Hn/gwQLAWPeTpL8XbPTEKK+xh7HD
qNgMnaATPXf0iPejLZftEhY9Gto4+zmZJ8e45QQBtYJac6rhcrjDR6p2h5nw3GnC
0fnABMZDOkRfIm20Imj0r53+5wrQUiBBo9A9jkeEbZYrXdUYt1sGrddOaPO2M4p3
Cpn9GJxj6W2akwq90nQRIBMsqdt2Kdpe8zFiz05mMzilA5QyaL5d2KsKlFHQA5pk
8G7g49qYns9Z4EWvuYIw2rqquA0ssiVHuAeBygbc0qAcJG5A27OUrw4vFuRXx7wT
ensFRMnkPFDgB/tHFdpaelbouSUyaq0Cwbc9CBM8i068z8wVVubS4xPbdZijpk7i
q29nR5xCPoq0NtAmoWe5B6DnA7DwsQ9cGKA5lRa3GsBxWIYnqkJaURu1fgH7sIfP
+vjq9S8E5bHvtMan2+gQgI/WfkqGPZwUfrKzb0u/3rhgqEOKX1EoSWhzSWYXS5IE
5CQ7UKKMJMJ6V+qa9SRVPjaWQMKbXa6hgkJe3hMHLVnmUywOAbeTIoq9DoI0Pjz0
CEPDzbpGDCYPxRR8l7tNrOGw1y2BDgXvShl1n3HeJ/1sQyAVVk39bVunL+3TC59v
O89gB9llOAo43Duew+Ryp8pfFTOOWuImeF+UbMyG4+0O9/u90Y/BRPZVrdplD+OA
Wmcay/QKGHAR8bYDkHZcTCpJ5b+X12bjOd4F6Z6ikz9iuMcOmO89rUiFEVjdttx2
3qI8IQslQLlC7jrZ3oDFAjesOEy4Q1nnPSwHcedXlTqjVbBFhXINeo9Tg1aFJ4ZQ
RmqEynbxfwm8lvDl1XQEcFw+wbgMsRpAxY7XbM8GQ1bWx1WaknQnrINElFPJugae
JgpJ5VJv963m/1GB0OQ2dgkjeda0g61kjLs66u6cKUXYzgR9MZl5AjclOSdoEFhM
U3THc4UvFoO0wqZ2KQ8qXYKbGDbtuMgrj3KOoUdC7o1Qa6l/Whc8Ifbem727LBsU
nDpoNsQvCEKmYFxKWSAUZMi6SXLuLn0VLdDfIZvx981UrRIY09zupN9sIebO8k+I
Gnb+WNSlEd4aY6rYsDUdlthvA/rZU3KSRk72iIznu3St57GSeLPPXwPmYJaJobJb
BnFALg1wSa+z+1DLNXCHhC1lBqk/bghzELQLE2NaBT4FPV7KtpsZx7uoMZjWUv5J
0HYcbT9F8Nk0sDHPL7Ot2ZEtGPZB724343O4szC56ZdYmo9X+/jNIpB5ryzdn0ud
q16q/lZ06HzVlQRzZPCy1b6kRx1aT1sc4AC61pw2Yx+t2D1g2TMFV4S1HyKd74sF
0XV/r+P3r2Epw8mzoNCPBLHil75SQK8g2gzxR/Sw8TQ4I+i0ZGBPyUw63Anj52Za
SBXLcqI/qdJgiLCG+kIk7p99AeQRMEAVx+PgkVN/BcTs517p9tPIgjvp5Pt7jL+2
wMR1AYces2DUDaSzJ2YQSCe55UOaD+WEyGNSZ8M/eOtbkQQHGS0YySaGZ7E9ilYd
OMPe+aQJmT5698G8gOUVWalB3Nh/OAxTcGRKz5mxsPj38X1jwg4ZrxAD04XLdlhs
du9g5oBAIWQ+FOX4LlxfLEPldpG9ojQMPV4YJkGrBx5In1xmqBAYFo5xxb3Bz+Kd
9eaVS4VPapuy5wf8+4khe9xTDOnzKa+/tXfFxXBzMJK6IXIAF+9VDeLJqcfGGaZm
E461ZlLiNkj+tTJYrdD/h4aKggH3AaEc+J+xpWWbFexYnU9m+a+XS7RTnLwk8EtL
njxxDydK6l3nIDOQcXl1QaUdZgsmP3s2J1DGVeJSmx9RprOsqqnZtsiGOrIne5G9
5lXbgQGu7+/LYwmLR7+Lfb12DWhZdnnBXagfr4rqPN9CqtsXJQQGmGiCwlbSU/GR
9oI6m4F12N2QvSKoD5ObKvtF/m/sSjpfXymiyynugMMh0hauP+ZStAM1Sje/+wTT
Bke+i9opaB2v6Up49fGBLQ7vDx+fxzargiD7oD8sBB3CLg9UIt+ME8OumLjuEDLH
zR+lUrqaUEkfs6/0bsB9tz/cdmCnhyaC/K3BrrLuedQX/a7IPPK6NsJCHTqEjixj
MfqgMHlyEnj8rb4ncsDFzjfkLACOplC0GrzFe1Wg8MNoslm5KVj/I1gx+73V2Wwr
VlYCAuao9REbRnXHX2FxeitAdB56cIa6ci/6IeDLosn8urtNLvR062t0o+gMryJ8
3RwRyGzB0vdMbZviDVZBwL80COlVcL4B0HFEKe26+/CR/DjJ0LzXUEcELoaWsuR9
qI8Imnyu7xhXjJiqCySBN538BPK1ricc0JfIPovTVqt6+S6kdBaHmHdAyUMDWjPS
toksiFx8CXFQ0Flb12+A5IRQql4sm6cmNMvwa8WPIvRjPYe5f7hNUVMvKUZEGRHx
2uCNgsspaPl7wRyhv97jFP75wWyFOuhJPCi/6jBfmhU4wKb9FDV+i0rIjvvMvCZ0
nD6R9ZFNee6snhyzlBtdJkeEolEofTKWP44/OgBATs0j6wi6g+AdGNegdn0GzIEn
VN6SBuf1NgBbLwrkP8M+zOnz0f+JMk+d3ZKDGDi2CIbVXpjSb9+LuqHApyy+AsCr
K2+tITMYcd/IgsQpt/FUHFmK/lkI2HpFa8DdJL64H4EpwXGbJwS1ZKGRfCOEHQpu
Q5i7gK/RVBNCfracJnMzMoNn8Sk54w79dyuMHoG0VPhavICFQ5iP+fNODULgz8fd
QUnO59J1ckxAS4TlueLl0F0lNh5CE7O56ybrjGl7RxGtzB2GHXOIv8wS0vkTFzDS
VG76Rt3vCEXJ3iQlEPSFI5I+Ga9plbxpRhoQEbZXudnxDemhoUihAyL7IOGAwEHn
KVn6jxx3AecMn3dKFp7yX8guOgoTXjCiNnnOpRzhsibuYJJTETKo0p6UgF7A2cGU
R4Hs/WxREDNXoD6DS+UKOXEWq4tsrBNbtDqvahtqwyzveaQMUN1RtnjlVa9uXBg0
TU31nwwIZoAoFwB9tNsAzA5kUpylsAoMk5bi7RodWJgOHurgU4PloE76OseITnR5
Lx6tBu4KLwaCophnq6CSeHsJ0SocLR6pgyZmcu2/R4GHP+0oNDpYtkSZpu4ynzLP
3WMvSppqQ0ftbxnpYkGLd3kLoQrqEjiM5/vdKn2ypDg94N9dZqRuIBwnJWeynfY/
g1pIyyh+q7RA2tfwvaevOD9Zi9xIKQY+eUqnylTyPyjuyBSmsg25v3tJ81V37Xqf
3XRhhdYTrtOY9bMSytdzJqAy1ndX+J37RsmdQYCxSRuHFu3ghNcVa7yVVChspMBV
pJOl+ukpFnswQpMd9gh2Q7z/XSTwl1EKOa3vGg9dNSJ+MgLaupjE/VyVTX4OSlBv
nZD2LBco16WUMxMVMwTVbMpoXgTwKyK7l9sjsj8UacdONWVtutKSTrMA7GGRna1C
9tG/1wYKX97ze0GFCNT0FafWXP5EdAcxdMRZlQ8HyvoI83OocOXqHLcYOCaClhJa
Tx0MtJr2yuPKUAP+/JzED4kUmdtwP9/uipGRJUB7KxRoJtdB9RNbLlRaIuRGXinB
fZaa5hDdaPKtHXqzL8uOMcDR88pwA6UlrnWtyZw9LM1NK984f1ITD9NimddQMGuj
xoIgyF1zPCxXSq9BSHJOy8Wy6VIeHRKy3RxYWIJ4NHPRnbA+Q37g4AJn2MrcA/Y+
4/f8nsjEs3Z4xq17txkuRiIzeBTdnFrGZKts3V2R1GS5PFD4xBD6gxD7Dt0Rr6TG
QRpB+EQN28EKYSzDJU7eoUOLm6Oy6zDXKrJiHyWkPzWYytdQejOm4TkYpPIz9x0q
5neQlbC1aZ00cTbRSfMSPTZXZlEGctuSsVHS6dUvZbhQfTh82wAnAQg4yMfcmxvq
Bo5GkQ8jyVprSUQdVtzyi/7czcw+6CH6fmmkI0qmjB5wXLgKFAGpP0fAngJOkavx
z6mPDOPKrqmUQ4N0AU1J2ETUtKrCysx2tZaEV5qqbOWa8VXGmlBYY7vrugUK0IEA
QUA4fgvoHIxKiz/51UnwWbMKzwCLHZ0CuokNC6qowrcGUHVX4ea2y5XFaOESClgA
L2AUvJUR51HS5dh1DCovdrZTnZXUxmUaXFq1HADw7MVkfvaNIP3qLx0cWZTGrx/c
60s4zctAfW9/WFXuL4G+d10ZgoUYzExOrRZIGH1LrZFQvZ4MwTEujARkwwRcj9Jo
lBtXws61LXbj9efzreWFkWLF4uBvY0HSQWKRVdqhVRK8A6rawUtrHsNE5TDHyDNF
C7mQJgzwZVpPGwYocA7nRNsvqjJ628adw082W5/mEEaZuPehOvZPEic9dCRJkQas
Yw7HFjAazi5BufJPoY3dLHriq/Xw7KiUwpw+AGPGaHhLl7oHDO/bb+/NxP0JdDOF
Sq2VLXpblAr11+qYpRRKQ4Ej/9+17NlSj/EFLLJPCUvHj/3xihlEWDp8PdEnxwtA
c3BPpvEVouOtLNNg6v+gFlOyRnKcIUGdUIUIotAE2wtPaeTCxqTlIqqwLD92HphK
YQCiCLe4/B/pqA0mcUoLBONqotVcBDiRye+eQyB6gJhGwT3uj7mb1hat+qVXya8Q
pLAelEd2OQSfVoGXM9smOtypw8ko3ZLFHT/85NjgAk9/3CLr73dLmJ+nyDzNrrUf
VW8pYWMbHvwCgNlXlYFObEhMy19o0zQoGpL8fVDwkPgZJbkvFkfCadh0SmwP/74J
KMknVOUFdbNbUuQc6NhjVV4wDflQZyDhot3Tf+hctgV0pTIAO0JjFI9O4PQovOZY
UhAEXtsw+Uo/Vbx6OQCxMP+OFu9fYT0j+DqfJUFfN86OeWyie8NodPg3cbA5h8aF
QzfzZUqDBAVyXu0X/6z+Hy4W4Dhy4+WCooiY3IJd5gMglwmLK49OdXWaHmZdHz1K
set0OGZmY12OWZUmL7/XNnvXklCKy5XFhNg1dwhXLw04wfrkE3qUlV1lUKc9F2Jl
dmvXs/QzddTpRcY26/a+xPaAsZB3bWL/fQWeDeCPItuIi7kDSl22mfbfPT0WMkq5
Iu0M6ZbWH2S1SKtSDDkIP/CUx0d3LdyDvJk6BKg67nHBsaUlEzy26V1R79AMBwu0
B+d0tQ9jjwmi24LvPIh//iHAFdMDQ4vbeIVYGDCp2I9gNttojWNWljebJY/7zSEi
BIQMkXp6Uu41R94QHWSpZcvTziNGF2UjxNBIy1VVrsbbG7XjfVBncdsxMfs1lugi
F6MVOAa4T8/vTG6Pa0625fr19uQYAU0v5/0ppVPUEsvEZs7zZ2ALXavUWKpDRnGk
AJqZoxFMADAV1MhgvNeV9OoXpNzlv0sgHni9/xMDPYEkx7rhZOVc75Igr9Cxnkoe
Mizh/pZjDL8pmO95MdyqMyhxU1hQu0BFjzXd2yFtSHsghbkZPXWVkzVVkRyzAlcs
4OCr3bSDADU/nJ5q93Zv/6oFEP/sQhVyrBePV/MAC4lSbIhZ5m91jfoPU8w5hGL0
vAVTlamhmDEICTsgcSw3Dg/G9Ljpb07CAc2uWO7cc6B5/GwASrwzwWjwL8KIzyxz
AoIRxxMt7K+vDjuYf+PznvrNAM+nMoqUPBmVKNJbaf5zVu1TDnJXB0rvanLjpR6z
up6URbw8B5DJ/gJl7q0U9pp3P3vYBYExfynFbBdEdVyW8191Z4kc240X3QQ2CQv0
6nSup7F/stO4XDQUgoLpdfOcCPaCLRFJqQ1U/ukW6psBJyeWt/qkQsxLWh9WN2Du
Fz/xLujCJKYxwSsXC1RgukTRgvYaaQHHVv4IgVVXYmdVPSMGjx6niXY4QkNJ2Qnx
8Dsdix1YVgCQ9P5DQmUua8IXMCmAKIsgOwRqs2kuT48Jm24iWtb9Pl6x7vZ1VmNY
m0xT2zafzMzo7AxImOunSS4qJ8GTYL6CP4Ucrgb4TyMmtFoFdl9sU0yc95w9R8/T
zYw9+U4p97uwIZ9rl/UgnIOkiPsLLPUlsmDBgUCDSSPFhEJhzRfi+zQ74/r3MPCV
6uDQsh8qfAh+RUdfSNnlc0YioQsFlibX/trhegFSGTg0dqPoJaIgF3sESwXJhAuN
Bzy4mGufdgvc0fZGQt7o97BD54CWNBEfiLS2gcH5ReBq7FA35fGq9nkLW5JkAkQt
0Mh0fVW50YkU6J5EMy1Kk7EekFy0VTxoPmtynFLd/v6A2S8at8hpFFbqCL9VG0ZW
xgBsRi30DdNqIBG5EDWfEJRh3wTQz01QcfLh4wruQtZAar0xM2wbZWqCb3X7Jzaq
QqpzKMBA00Hnb1w+aDnA+LRQVQMnR43QjpOUE6oI1FZvHXCIMNPjhUvk8Vk0tUcI
1PesXAde9l9u5DoCanqGv23i1+EsbNmNj1YVyF1BdrJLoIfxC5SzernUKw3PwnEB
nOBciMiRTSuquVeP1xt+RRj1UhO3uzi7cdCspcAdfpt8T52JGChCseQa1WG4tMAb
j4yKOCtLhBAZ77ePQgezIC+ZXUQyuWi1vwyqxEC/Of+eM2xTlK3jqT9Q3qSLNiyf
9JnJbFFdNPW5gwDQ6RdatWwpNy0PWd9Ll5Fov46x5kMd3Mq1hZSHA4CjYuHHZYG1
0VbQqmT27fjgUKXjiJNFfM/zGXH3+jR7Fn5VlG89a+3ZaUs0mECKfIwxIs/YV1tG
yy/3Om8kVqW0ikmQLjlK3ybP58Xy6OMVy4cis7DGRbzEolHGXJyyftZiAg6/I+wk
ZH1TqmjDxErAeYBb9JGc+pTnp6PYBEVDNodzze8Ghnif6TwPmgR6V2+ZbfCSp5Jz
snEj0dznXIjVnBIxVFV/WUf6rleEYrdvYgBMlXdfl+437sgY77pH4IZUr1nu4wyQ
ijuUbIxAXsbfCnHOhwveqfzAJmosw2ip00vyzU7c8r3jj39YYz7dGmr8frtQSc/D
6yIRwwDvW72zDlG+fr+ITDESswnQ1XzEkav1F4XAeOkPv0C9eFezv30hw+Nfz3ZD
OeWblfozx3tP2aYvW+6cNHH5KPQqOKcI3IXHQfnEnNjOP1DJoeeczEBwCRV7B7aj
/VeqqJ/Sri+ksY62F2/kGczd3ExpV6XN1y/1IhoxKoofoXOus/hPmjaDbDFWBUOU
XgfkrTo/5LIPWsbyPBuuxsH3/wR916bp0sLAAcneZdtf2C2dg0R9EJbNZGoI6tt1
eWxf75ag4Hlf82E73gmtBKavBtEchTgc5H+LCgPdhrIvnTSZ8Ue7/l4ljKpb8bNa
1PWI1NJJxeDc85Fcll02F+MSNlM02jHN0J7IxxeORy+djY0SkkaCal7jPk+y2BdA
KfcHnZdiZVRb0pV6ckAEohORjoCOS+5eqMDygM8QhHxl4qhkldJoNl0kf1NDIJZ3
WhWzyTQ2uWPvNTHoR1Pa50U7QYxRzefcB9DCtBJ6k8LwXLB0Cd4AxeFBaljdCySp
XW6HLQrDvekxMqpGhe0Q/gLWnrMkR+GElQsG4CANKiHnHfjna/YsDcktZvNOK3Z7
IZZYylYPliy7F25wRSmDzfDu6+1+mm+nMWYHrBd69VXzz10sg93IPmmIz61nceOu
rJK4ZcYJUmGGXTgCGSFO4gUpRZmvomb1Wb1Wb2lL0nVjNDSZ7qrhomigGPSuyTqh
i94NbrbJ8zPYeCVnz1E7J8rG46QAdLADrf186Ws7fzanuQiy3tOeh4Mq5lNpSvB4
QUk2dfMRIvmx/YBLXWEhwy38Y0mOa1lzhlOO8lsySDnDh2NvLm/6zUyLhdeKsHCh
A4+QVguEGUkJi5JdJufd0/mgpKSbW/7Y2dlNG/SZPDwj4hkrudylQUIBpv7QJHRk
AD/kLtfvThdMZi1AG226A2FYKxfrzIv8eoYPjYUfYploKf/w9u77qzfdy95TL1cE
okIawkF8VCf5y4tGjkNn+JLb4Byt8ZtmELsJxR7Vb0kq8tPFtISC5Dzk7cVqE502
Wa+qdmqkwX58LjqjxxJt5deDZRpPtGjUVeWv0F1JNIguZeEyoeCLpRGzs2oLOP7D
5qpOn1AFk8UAUwTyp8+2NqtHAsQpBq4x1QvuIGFJyslZiawECae0e1A7H6LhacL7
Co1OgEhGOUWixXhy7cDgDqUIbqVl8FdzDPLwbz5Cx3pSl/V2uSwbBgAYF+X0iRZv
z1cfQoU9CNCwT8GUHvVnDv+Q2CuIbwj9ITRFAHeGqkx9aVROIhFaqDQ+1JI12dlP
H0SjYOifThbDBU5cGtjEGSl3d2Bmsv0EpHw0tmEL4BGaq+nAe92XgJQdysVP8kcJ
aQejf0jEcxI2vgMhf9tX7D+JAGFvnUK/DzOLSPscixdbESDVxDonmeecZYYRqFxW
i/im3NYyK5sBvmZW8MyWSjr2zfEmPfg+hf0CD13tlFdRaBB8mNz8dpmHzm9mbc/I
sINgowlFeXsthcg3nqbFnDTRhflDV4jV/l1dw/qIiSOgBtEhA/6AZuaQ3LRmVDJa
GGaldffjWYB63AizIrujHe8LVyYBuV5EIx4dYPCyEpG8h4d4ooVFtChnYZ93acTu
rr2ohMsg3bisAe6LE8bNwsfzi+6MR3BEszzInTTVUykZG7QDkzAoXFlJCaYbOrm7
nIAsUonLgJY8iBHBeBvP18BndfQK5VD5VFIhbb3UM5bNZxZL0d2uroiD1tUR7NtZ
Irt1pIdkKXKw0e8vZ8G1gPgNvJZOUmwEqUo1OxdGL15BTJJNOLxbZ/FMtNFXqlV8
H//MZjPnzcBUlRj7mn7SXBEO7/VG0mKKUVUPfXkOzP3RG/TbzbdJzERIKkrBinYw
CN2UocIs3V1gDuZAdUIKjdzHZSBBe3sAXSClo+jTgqjs67EQ6M39uvLidUQL7Bul
lcxW72/g/Y1EH50+YSb9jh1u9PloxnADVESCqzBFKAHDYZehWIQ7OVpeqnGPsl7y
TVFWK8/A6N0bg1OeiSZc4UXQYa1tX8b25pDqD5kreuTQeXwjLm6MvadYSfacVvkJ
t/1hn0DsD0AVX71z/wOut6Ea2yirfH7Eo2mgzlnmZzK+1hVyfLpyMWOFHK9BQERc
dnbs/gD1Kp5jzPzWF+d4fSTCxz1+deloRRB169wIDr2vrC+YbjC+yBSumVbKODis
RdDMkKU/C/9R4FQh8Vq/nCaRCSFhMSJRoK1DCKchqgt6OZJXG6bF5ZKNg8bTEfXD
AOa9xa3OL8PAvYeEjo96YjWVW+aS95wkLrTVyiOfumKpusHTuxp557AMd1+gTeaM
cNAD04OCuqYO3kvRMQPRNlbTEW8cBiKIT09Bi+6JZp80KPCRXBvJ58V+B/Rp6ky7
4ajjVAyQ/iP/0gzOXXdpLI3kwpKx72GkP+lCemSCC/kbbi5+WggZhphpd6a6XFBx
sBD1fKhGVLuVQipP5XQD9i8APpxXGj8Fuu/Ju460oCyuZSH296PTuBjPkGUkfnBl
b5oeS/bUONxVh7AY0foQ0wJ6FsAR319OXamgYfkHvPLiH6oUG1Tbsv1NGOS6oeEM
FrnGEO/LQGMps5GEeA2DJZXXEZtV+uUqmWA4xHMEnHgabNmMJtydPX62+gvs6zXQ
fyIEFmzoUjoCnBTMG5e5k9mY+o6nhd/jeBEuYAP2kAhKTgcIdPw4OEEuIKExQfn9
Quh+kZjoF4CbVXo/WxG+VEpJiRC78zRw/AwJ5J/LN5lAH1vBGiNO68CbvCkQk6ZR
kCVAFvrwFSQQ6uZ0OmiOeWWFkdPY08nPdJozrDsdH0L2yfsQ8LTp+F4SyAHIKYfu
d+ygNrdPNWfcrKa70DYmiEFPgf9bnHauJLKG7rQDqMsOKpWq2b+buAjbhLNa4oqy
HI6tlD9HZ1af53xit4dBfrbiNH8k5QXw168hGxxQkfVnvpP7xAVP2YCDDjU/07KN
ogiTwrApDdoMW/MfWqWX7GiPkwtW0HzUpMKOGQxoNepCNkRZDDvWHruQbB1IUF+5
SP/xFe+YbXAcIfGmRUtZw5OK8ETbCJZ7wysZfKnSh6ZBQw9pRgmgxKD4ZpSMkuTb
7BL24xVhBKCp/jwndonsrZ8f8ubqnYOLz4uDac7/Cv+8Q9+Equr0RIYNRMuEItaK
P3J1Sb1CgW47vLGOL4H6UDouq/zDscKTyBF1S7CLlPVyXMYsltRNaEcPKebMKaOa
oI5enFhoDweJZqB5MqId8YRp1/WkTe6+/YyVytkSn+QyMEKajj9eT3V0xa1eNVcW
v4QyXxzmjJIdCyNC6ly3OI4IP2qLaJ9PeHvKdvTfBou5qX/WoOW+rCJN/3jCaIIv
LFGe5kthBekAKfupssh8wKJkcUCwNVNWuDtgkCO5gHWYSs7rpu5hP5DFBVepLBfF
6yn2wQ4rD6PLweroFyEnR1lYQjWecmPCQvNR0drPhfKThyKd7iJMOXeVbtFHLuO6
9e2KN2lCoW4qVvzlHXJgH78EmYhVp8jB4iYfFKj7dQDqXkJ8GUspOGLiJEI9SxkS
BYmfJuOeqlbCOmmtIJ3QtGvnqM/GlDtQASMQXorSPy85ZF2t8paAPabhN+XDaQQk
EHv2yWK/spIVwSt66XzFuqVIiLggo/0h5JX7c3W9aGos3ddsAP7JtTafh3wjsqMw
f4u8xS5vH8QFs2A/nyOVtbQM4sl0Wi0hnYie8grDe3QJB+0mkfPciYOutdBkqTEw
e3kN/ezDa2NmBwjPO4GEx8wn6lTnQH9Gal9DxiHQiXDSu0iAqEJWTjkK0N8wOYVc
ug0SUAIHcrduH+55pNAq5V6GSoYDdHITQn2rX3GmDJGvV//uvGZaTsCN5SCBhI9/
mkMp4SyRIwhWgwXKtjFQwjq6a0BktsLpyqnBAObrppNJJaahpI0sjbd6Rshse5ZT
uXMeCjmXdFj2md5ZqWJwM9ZTp6d845tgjL8JPcvRX8FPIODq5vsH8A9Z+J4o7SDI
UUQX1XHXWVwcGDBuOSklTRMSRlPfTmXRCZ8Ue0tfVVSFvPExoLMwun6E5kwWiEf8
fd3Pr5Yucifb5fiWChkeEofFihQRIAimwkMBEyaTJLKtlXTbEDjRCPXlNEgJMCFm
vWwHI87hptzryGAgfi8kxzP1zBjWIju3erwZNS8aC7vV7ktJNyvUT9Mb2xAcdqhw
+yVleox7OB7Ldau9JqPe/Zru3TspkiWrMAxJ+qMjuqvqstaL7CRaa+8rNfPZ2PcX
xj3VVinY9H95MsyTQ/gDci+9ZOO9JbiWbIV1XGeaqfek9z8GA88p/S+7FKJA589b
YOu/P8MDGUmq96eDEOQlOyikv5i7bOHW/6COY5j2oqC4EHHg2K6BXKES8Ogwwi8Y
lROpJZOh+mf0HKpj30qrtzp0nXwoSUdZKoAvJVMO9Q5FXF+kjumIlCta/0zxbdUj
USU+5xX2RVBV8WZ5PExYa0EUzI1j1jfUfjykQ3Yybi82IYzQH6xAyUAwSTLiXTz2
sTRPcedF9/THOB35krCdVYWTbykZ21ltMsbhXAxpYVafwyT+t9Ud0Xsy8p03JmtV
2Kpx8eset4wEqinwj9OAmnrwXra81UWdCiYRQBOIW5lawoSDGFXhUNXFI8X0ruKk
sa8FeRMWoa2AzW+WSKtZwGu9Uz1R21Biwx2pGTkLBUIzlt0wLwtkw1s4wVPNe4MA
0lHtq2rjy9+OoQk29Jh1gUmtlQNffRGXL3DQNqNzGpqyDZ3oVDoZ+isCe5+5qyBl
bcRksHWPrXkk8ANPJHVs0H7r/jtmDqLnu8//eJF6KIXUUY1XyHaa8RJa8XXf4kLj
ruEPYL+7SASlaeW9sXrymbYx02Od/ORX5W4KxcLshczAqvQGJeGY+aN2RaB9dF1+
dglrGzj5DOQookFFJTjf9UZWVi2AaGPmCGYxT+88Qzs1mXFU3WavqI/I8cowG8oJ
Zsi+Y4LzTVatDxUD6383qI3qyuv/R5kAeK4l8Wc8hafa30ljiFbHLuqVXeKldPJi
pEy+qmMLat9pDbDCHhydWOCRex/8Itdcj0pRycXSAZTy72BamgJH044KQ1kxqiNo
Hmu5PP+NYH2SOsyhjGRX6NC5XjVOoqvLe+tZkEbBgBjJg+i49jPdhv6ftvBmvbsI
9LYMo7kQ/f3tRnO56ymceA5VG5Ls4h2bD9S9stAARscJHjcJZXTCCM7VytYcthKF
2zsGdCh/ZmEPMEbZdRI0HsC7bnFsgsT1rc4sNnQT14GPydsbpnpivrVjyK4w5Msn
v+wiLTxuIQQLAvLs1mxac0oqYntQhfrXYRAbsMBmnu0/ZOPu73UCN8CB7yLqNkfm
1dvcoVA0Z8nGMimmQc7M6xJiOABd5b+VuIB0IBUQf2OJ6JiDf0rOKpoGE08EtXw/
FLLla1vnaKllkjada1BzJH6Ng2mcFhriFdefTIPEMCHueaxYtWLEIQrSyu022JfB
Rg8vu/mP3yomUheJTUPI3D68kv/lincXRBi0P8IOstNtrBY4VaCiPVOQZztbFEfs
R7NgJeIZPeU6ELiDHoFHwkRglG0w3oc5cYIecougp4a0IUJhCzgO8uAvzYWDQ3Ro
jA2+sOGd41oQ69xn/IKx+2thXzaoRdVm9iIoSzZUHMqxuzW7S7iA2tyjq0AWnRFG
TKARpHHVOjmvMmfkavMCquIbsacqzGedhXYGMbAz0LGAv24prHirWTmPOFASEoPb
mL2N8P2BuZ4iWbewsSebMQl61agx3KUaMeOsv55hE6taIUn8XWKjhL39mIzGxQz8
sf0JBrw6WTneCxDLlLZt3Bkm6qzdWFulHUov/pu/33Mqc6OBpikbnNuZwVKr0CEK
Lfj6zjSVg0xoo6WYKNCHG6pT20Ghebbif59VsWWCfrVQB43enAb/55igNFKP4cSk
2FSi0OMto4oJdsnAkRTgYTdzhcgi6/U439DJstxqUNZ5R8xHPwwfFhLpjNNIYb+/
tHctyIUqCODLVFUz1Slj0JRNqeJgKkxTkAQkmrLeZpA7j+/huPAmCvfGRXnVYo58
7lIHD9ArS8ss8qpQhA9VXTwTzXkychbIV3rPDleHL1pMjJwpKeFAZr+wW8anBheI
eXcnERpPNee1Ku/NFNlwYnI9JDf/8pHmQHkhCs04WGY8EPqVq+2NvGKfeBrxtLWA
fEpvkB45nF2KX6c+BuEa79tjDv4sk5fiUFmU0/FBEt9Kqo3q6OpmCE7fMMaELpXZ
spO7GeJc32J6705ak+4UG8+9YoUpMpFCGPIftOJq2GYnbVRxC3X100GQ9EC5tRkQ
r7J3a+GHJVegxYfqJENc2MGa6B1XToAFrOyjsLUs7J8MzzJP4dojhV0yn7oloBok
/QJ5mEUB3b9AyoThm85MHdc2/d4cBpFXOTHJyKvWAwEHZvrnANs50/TvTGODJdga
TuWhR6L4it/7x3yGNzU25epuFQnrankHuWMIN7tYko2pwi3QAn0sNkbzc2DD+RxK
FOLcZARp2qQMwGzbO44BvUAz5VYf2go8friyb09tUig0dcUUfLXVKFyGvza3w31N
H76cUkL49hwmJfLXU+nsHV4NHMs4g6gYCWRn9ioDrC/8jW8uojh+IYxCTWuJErEK
kB+NkMeFUcbuaijlLxGQykyBf8ZZOAJ2qnZT1NrFFDeNhSioTr1fK3nExhxd9ZYS
z4bJVcd+SbvN4/4UuKHzPiKJTG/3H7vkBxB77gOxSE7QwFzPOO9AI9ejaMCACGyy
eLzsEtWxUJtKHfbqxhPHz+b3XgGzWeEiDTdoXTZbp7EjxG+CVy4sVu89JFLpapTJ
XoTOs5o3RJRsnlpLPzBjmU7u/IBBSMuyFFqgAP9kdzhQT9zVZu4Gk9TwIdE6MYTh
BbFshDEotSyCQ4oX3ulWCQGSMG9xT2SwammXEGdhj6MyeR074q30WnHBVf4i74GJ
svHS9tZjNqdjjXpOi/Da9V2pD3nR6l224vkaq+E6hPFralyPhnxrOAAdly8gUHHn
S71MPM4RhWkW+mGo+dgvsnW018IPtPKhGaUwVKeBPAbmt+ggprLI+iozdBlBUalr
mctvUKvrjKeD4oD7Kuw7xZ63EE1DbJ1DbV011HCHaZh9VUnWbJmZVDgKZQxykrpd
FMK62Hu0TzFh2BjD9dYhXHyyAoiYboVo3gF2KhIyZs40QKCedXLg13gUGvvJxX4f
Y8Y+dNYpx2Gf2a1vADeJdlc7ZrPmasEXTGNwXGfAI8/oJ/xdh5YWZphNqSXZ23xQ
YY3CoIG+9WiUU8LoEYZ3sXQPf0wyMmM0xUmLzvaqOmPz4N86L7LhIbnTTdpThrS7
UgrbbMKnifx4309r9yLXP1XrVAjXlIfM39pzBElgdoHuMEM6k6Fu65PqIYxAaDO3
PoiB6/Y/28UUNd3uV+BrE5eVCCOzbZLEMy5tq45ukbAWzs03gjXxytGymHBox88n
7LOadT+rIL1vOhzDpo8CemAYMz1v91Ouo5bUO85PQqoeMfVTZc+KhX5iABu98i2X
g2pNzx/5bvvwOM1h+2hHw0NmvMPzz+d2ZP+iQP+Bh4+rlZVls/x2bJ7aOAE7XCta
jxhIboQLL+SKcBzxtk+kI3soGCzs1de/zBXm6T7lzxAWWNKqkKlYcYjRVsYtRUyT
LGVBvp9kiQYZe8Po182B21IjjSjoI3ZPo1iMoL/EG8FTcqEsrXUhBKqmooZ0QjgH
LLzL1E4n6FqaOopnaVgl42bQ4AyaJBab4rtTJiuW/0TYC8tY7d02gqmeM9L7yT6W
nv6vPz35zGsIY0KWr3A9OcWH9cwMDsuinXWBorZ5Wm2vV6OORit2G1/em2iRX7cP
Sfb59kcQOiobhwMk1cQ23oYexwTdbAlQyvKS59akY79jOYsirq5TOWuxYc6K7phV
1V39CMQtUY6DrDNtfXNROgIp8C3lG+E1Poq/nxWPMWCcYhr+YCWFCExas49W3fDq
WuMX8VSzR2o0oSNb+0rmoSG8nmFV4EbywRyn+NgK45MXJ5qBam45Dg2Lb9X2f8Ut
eywVIQYtRIB4QpA2joBzosdTviSiZHypa0E8hDn414NZtfr3zeQPWOdkJlU/T+IL
6QFvlJb8gZ3uX8cvbjUIUwjtWFhdB3VHFCkRiFA4CDNj+6tCLVkarOhVICBl1Gvt
ZERWwibpdvolAQolukpN2uDow0a0AvhHk00oz3oJ/q54TEztAoLHPy4fxkXmaqyG
4vZ+iJAtIuai7yGjILPIwPrmtWl3IptTKThfFaoBdHnKrt/+1Xy4N77DEUbWfpcW
cboAAYMJaAIQ6RaZeX1s0qH/eXxWwWkIYh05XJls0TvoO4Fg4Z5QXExHbu8Gqa8j
xuwCO4Svfre3Q/5wENsbQ+S73mkWpU7f4pcPgtdXnhCBUKLcSL6JZEIQgLzSeScc
tnXK95iFyGtvk3UeSh2DDrT9UBQ+8pd2SWC4ov9GP9lu0LkgaYAOSvQAd+E0QCfz
zYe6on9DVIxRozgmNPhTyFVDQ7FEPyPdbGT2WkKqO6GfX/vkyjoAHLWE+GJjHEtz
YsUg3sdi6jI+K04fSZFt8cHgrp+euTaKWg1nSHe1dj1MboCRq8fq76gsFwdsSkB2
cPgv6zrLePN5ojMIwvUqJm2fIajpZsTptUjbfk+00MVR46llj9JxNhyG2HNwMWzE
wPy5mawV1E6zgAmHLHm1lgl9659bAUIg2QiBhnWTWQrIt0t9I+NaaC+2HyZay/dI
B3phgjIxOvmAFSlu6oFI6CI3/KWkrw91hlzOuaokRKRG1kgPmTPkcdxhcIgw+pV8
2rrekauabuDvXRDs0No7oOaHYAdR3+PCYd85h7MLpx4vJYnboG120203hoGHY0CA
R5xCUBtV1ywlEtphf3+UG0z6bS3poJRg0jWV5WmNJShsW7XWOtAViYMYibIyustz
r23aVOj7qb6ztHHgGnePC9KAtjbhHTQU7qQxZs4FVus5efmeci6Metby3ScO+pdS
u+zuMRWHSJqJQcn8x7BtkdHx4dyz8+a4BPzxHoAYUjDws+TMud7IuP2WHmu741Bb
1eOdwQEUBUkOXegthhC5CU9rFrvoqgvu4Os2I87UjIwZ6AZvpOkPWSUxYONCgpcm
C+BP9xamILqsR7HHLADIK26+q7YBm7gIQgckM+9NNMHnvIOZosoWaEVQrHBDifpl
Ww/CKBDP/PdfHBUPStZrh6Ta/B9AuijebPPvh8uxZJMilWLTdwYxwikoszHMktQl
6uezHkMEgPzcqof+sb4SIEpEtlPCj0Kj/kslzOb2nEXbctRYWVbYbkRGcjVEShPk
q5yRt0xQewmGb2+uFO3xDaiLWE2b5Zk8vcMt2VIARQ2x5wPWn/gNXcWS9z+CMlgD
F9ZIqHCLtMZmt7pODP7d/9vvLBH9GgBryiystYhjDNXpNobKsAbgerHxqr0KSJaY
dtl5P5wygeyBdjBtYHuGRn7tqR4OOe6o9wCgKhS0F39iOA5QwaWAamrDKxZstcxy
KBhxZR+VrpvrqAtSHAh6biD1CtwTX/7sVkHjsgjh2O2+7eKjy8+gxvCT3zSbsIZl
lOmx6ADIW85hEKzMuYNGQ7JStM+XMm/0knEE4zsgR1Q1M+Se3NQnEqes2ZQWca6Y
6yPjaOMc5jV8JdQK7/h/XdcZ9r2U8f65oW9VITgFpVasM5C1QpenH38SVvgQQQeH
ofG/n9IlB076VHz3TKNHu/Wg+W5zIT9n8eF2jBPHgu925Ol6L2/jiCh8xEKZhE2x
QqQ4+fIhoQJF9SyH1/fXUnXYGuzcCD25wICzSA0rfhhRayMV476bnjQW6kutBRq0
h/Q9Uw4PB+0R/PdivodgYHjlyOQbC/5L2zu7D8k5PrXtzM1iknR9xZ0ltJQKHX68
uwb9RkQLuEFkNFZW1pAJHaU2f1GLweIdS4FNleSJoQn913Br0+iyabxK17jEHwN2
mM7/g+h9RHRnFlVREeB/UlhR2pxfgqiFqoPSOFhtYCInEmys2UwuFWxUmrmOuWEA
FQGk2DUnRD4a622oWKH3Pg9c8spwYk5eoWscoi8BRZkhe9lBdyfwpaYxGsVh+0X1
Nlv5SmSzZI+hvxN7mPr/l7ERSaidp/tWVHbd05oTFHK2BVAVCACJkWH0YETtobnx
swoSxaAjDvasqKRwZ5ZKDVOwoqUly/dOx91Ivaz/ih3bBEWWcrlqR1q7ElS7qzsS
xDfUPuf/ThbrlNqt0LZfYRJ8MSYFRA985o0oIK2cgJm8DlI6sbIstIwUVPEqPJBJ
NA2eDdBDpaGKkxUQCEeV2wJCXa1t2bJm5+jH8iGIKJQaBooCo/tBTmQJc21UbIO7
CN2eD9+PuVPfCx3+P6PszKcXQISbYv/zGCoUvORTjgAf7AdHYxOFqpWsN6WNaPfr
N13NaPrjKnmlYR/s0GvHJLFifEeNIN2uaCeUt7qjXL6I1x9Qa2EJxdAyVcPDYkf5
ap3Sq9bOa8LaUQGIpt+U/wlNUvclz54bIwsXj9+idHDsVAnxTsD7ze9ukPxAei6R
iQaYsTPR41zYnkWfJZc/UemIPT+ZX9twVtMM43NAGCo6+etwhvW6jM+590l9te3X
JEaPEBZ1DXu/qd66hIQuFy7Wcj9o3cewT8jtrc8Aapu+j7Nx4oi16gS3oa2YUI8r
9EAylPtzazs5kQBwWMpHvdaJsl5dxi1WiFmYeaYFkaqOBhRTB+iIfjDvp6OJkn5E
Ut19lwCKE6IJuvA1tZ+Z+2dWhvIRneZUqo8cj8Bh2M9GZcRNtkC0fBVIxkMUYu8v
TM/pRQc489GWkhH1wbDft8sws0b7H1t2Li7uKYS4QGWMqggc3T0HjKUpVJGCyog0
Z4XK7n0ESW1Uv3MXiN97EtVQJrkaI4ySOaZrVlt4xyfyS0eAa8VtiRCuFzZgtNeS
ST04Oz5bLThsz2HFOvU1feZ2fhLuxDr8N1iqmufPVmkwhPYQ5o3i7N59nPdyZANd
79RDEqvQMyVdwkQV4rXke5xI0Y+9DA/ub6FgzHP69Bx1Z7e5J4kFqjyGzuIEUCRP
e8SY5YLOOAbR4jucDnNNLi86QR3htRe/9kEdG53tsEh5hkk/uQ77SwU6PsQinDcE
4diYvCAHOwEek/ReMzIGsM0B0C9SXQgTk85o8+AEfGjhg3p4yxd6MGgs4YWoY02J
VUI92grEvF6qJFirAhwGJhFs158jjNW76IKQH3t9hpPsG8RDzk1xZblyRJYl7HEw
i2XB+zbgN9m8AID0w4p1ZNSmIZw6uzvEBynv3HZabCucLNbSAU9MxjcKUkn7lqqK
rk46YeZFqCpjeKd4xbaGE2ZxRL2H/CTr7sSNJwXiuBBCq5U0Wq/A6i1uKEEo/3Sx
LUFUNc82++pQxH4st8cClSGqakIBWTMwuco2KqvUIWpuizfR1bzNq5kf157Ql3v4
ArqvzvH4JXsw5emd53JxJ0G0GNO7+LWuSgEfBHSpac+g1vy8Iv6cFGRDeQRbKvju
3EBhKNuy1FCI11Y2E+wLwFCpsI9aQ0w2Af25wWI0uFv2SpWDt1pdwH80zIv78jii
QZ1fiPC8gOgcLwu9cOby/sXGyeOR1LqZsaJmuyBOYV1f1l2/P1FPBYy2BTdxBfhH
k2Tnp803uvy+wpf3pI1FPFrtQ+/74P6A5xEnv2AH0gJF/2Ld0r6vH5Udmp1rqXgd
Qe9uZfURlXAccQKx4gsbugQQMmjdeXhdwb9hFGHWNTIo1ZDOwYxOk1A+IYz0Md8i
V/whKxa7i9Ka1Oj3aP+5snh19R2UNMeRMIQgtobguTjGjgj1SHpBEX2G6Uz/gUCt
fFYyaPi1KxFEkZFi4w/6Od3OHUDUK5gy0ef3HGjVpH2+sefBhl7tnsvwJUR5K4qz
xR2kgPoPtln+A9Xqz3OECTOuZ2shxA2OTD7AHFNNF2UQhbHedivaeI+93WcrCVBT
eMj7OTg1NPMc/5Fa0+WUu312I4Fls8T+rd7MP8YhU/dc+i47pSBJXMSvgZ5vd9Ns
4E6gDFlJ5gopV38tF89XsNN0OMgzLlk38jGRs2FcTOKEFEeIV2hQuNgv2OoQMJgI
CLQJeVYo2YWkiHPTpDpVTuBpG3wrwKv1kQJvMAoDuTFGvs+vmPcC3V8keXwYiIZh
6YisNQxjpCA8xRobA11Cbhgv441cnvOaGDzhztQmJ+oupph3X5uPX2PGtaWwwIZb
u3nrzMxxF8Zvv0owCyHyVND9YQ51+JRaSuluXRgNjx4EegzXxtbFNCeg81o/AF0J
dJCEg3Wxvx5j4E2dLHtFLEC7WsABuBoR48HIo7CTqTvNcMbmoZ1wI/5X0z/5mTU6
FyE/F/fgj1p5K8r7vqq2aJYaaWcsXYUjxB4xO2L1zGdrKtXFCGUh0S4YikVUQa0+
QF4gcFBp4ITHD56bLVwBP1VQDPevRud6qYICDZAduEsDGcBFncHsgjypTWv3RQuR
wci1QovI1CpAl9fDxV9HR9iBfgXwOXbYlXNLeH7n4z7RrhXGgrExQvbgNPK5YCxI
1SKvv0b/13RupNqzMnMzH5pNjE9qCO1yiMVFuF9T0A7PWp27AItcHlsLaFHVc5h2
xxxddazOnZp/alrDCJTCdVbkIGayrwEWG1ORBMwrbX6EqqttVctyS3yy9tIY8yd9
JPjfz22A1kgSDk4WZBtshAOxQVFIklT1WND1Puj0B69L7bhPuS1WOc29FqMDBQK4
RyaEc7Wcg4fJksg89U5TrCQrcORoMh/0qqRcBcx+g6urzgZ/3ym0sJMChFzEBEyL
pqxSJUiQaQ8dbHODqMX3c1lGxcBFB08YAssNk0qgDxj1GftaL9jqoSr1idatR419
CfamXJOl/N/Gk2d3QEZGzVQvmdY5yF5QgT+UoEL6hsOWAv+pEXQeqbwtBXHuoDRI
usUeBQO7JN+UBtzCB9YD0ZS7vMcqx0iz0+HNCkhwHHNgTlVsE2gfbUS39zxwWvNe
2zDyrQqVFECRw9SQZH3EuSXcwNT+3hrTCRN3SSuZwbspnkJhMBAPBxHXkk22DLWU
m8S7shJlsHZcADKtiExpvu5arffAAYc+Kor6L4grq9KMUPVBACH2Nc+T8rybGlBZ
AZlnyLYWvG+JlxvI+I/WeLCPjL7y9432/6A6OOBniQeMXjjTtV7xMtdQfSevoRay
9Pn+KDomER1UXvkX5NpyhViSlvddyfX3g+NrKDWXKxiqyo+eY66re5jmFZ4fnKL5
G3FZza1SZu+rxaToJ4Arb98wI/STLdQXyAZZ828+O4iveTxR7aPR9qhu1Fpmsj3l
ZcFMl0SC5Y3qYzA8j7H2mnnmZRJJmdaxqPUX9DCr1OwmAaDifUqWHLa104U5Srzi
W4IxbrkEFB/UqZPJV3g+XDYG6wLYoBEmzlx5qc/WkhrzKoxfbFRsHffw2d94q19b
VNzKXffsntLbW8cwU/58XGxiU5JTRl+3kMwDNqYEH2zdGsEsb3DFyiLWUIg8oIQP
zyd9FvVuRue6WEDZN8kN/8Jra4+AK0gRxaKqv37YBjPFpkKq+E2LBQ/Lxplbn92K
xUpVuXzET4DVi45AoyaTTcax+gaUcDUTmFAtvRXIWt9aszcfV+HmGY7isHi8P9+c
64Ebss2tgOj0H5+a7l7GwkOhX/hw1jZSaxa6XQ7RMoXaflgiAzeY//Fe3DCvBH3L
4G60IjX1p69Gjyss8m3vSxtksAF4H1FOa0/prVnRauEzg+T9AJf31L+T4SB82f7Y
GJm3jmNUyAUb/gkJvsAmtd6xzHoDvqaKErVBjRPUpZH1pYX3qz1zCHbXR2tVwyX9
Yg4JFJX3F4E7x5pNU7+JtXwjrlPvAWw7egw8RH4tIbMeYBDnlWvVHlAQS1mBXOGW
rRJiS4Al7XhiyCiGawuFYsA1hO7kVX16unh7hwguD7H+m26wHtGBY8G4VYLsqa3l
uXxfgKmbKAGqP4E5+J9nmk1/dfR4WJCCNgOAhdRnER0a+cZuMwrTqjdBZZlPyCkr
iSDX1QhCzGYV3rBKNxWzF14mO8A4AMBGvPwyX4BLQ9tUkTX7cRzVNdpEtLsMipyx
PGRmS8At/JbpgPvuQlnX/FyL1YALacJU4K4q7+SrsjeGlHwFQfu7VxoGL/ovh/1p
1oomRAWQkHq7kdzcsD+Ur55u9+JCnzKQhUx7m5S9OW4l4m2jtKinQAsKVTRQlSXb
de3HAPwAi5w6tG0HL0JtIahPEYql2ArUKw2BYU7mWk9Uo2VHE0QAzZRagdV7jJXK
wYIgSj5XW++WdgZFKxZqxO6LygyHzbyS1GJut2Z7Gs7WlbykIggv/BVdoMzUrIm4
k69HNIvV5xWberVhIKtQbmiMgklASqhEKTqG1sJERdWRoTshRdquKsnPGILoKzE4
orbUpENF/+NykkSVMaHGMAUrP/1gWkjm0pj6Zhzy7mzLREPTLs2UN1IioMVhKEVG
t+OFlT1JMcJbBm/PPZoHZTKLdGHs8J9sTHRRXpBflnUGHsrrwmqEdTFHEQopl8ng
3pnT85KTZ3vsL/9vMxmjZN8/mc1jbgyRICGtR/jw+NENxvb40iyT1hyXa5W8B4LB
T+dIVUGBW8g+9JSbLB+Jp/6RKwb9DKl1rdg9kyDrSJT9kCtQrIY7LXX1ebZi75jh
QdFX/Lbq55qKb4oqRWF/3Bm0PJ89BUdSahahgkrPFV4Nvp9P1TsdqaeSuNjy2eI5
7VJNSfvhouCVyQqyN2EgYJEQR7srZhUZky+jxji9+yEAd/wl8nYkVwq7t7fICrfk
yYN6rYb0ToS4nvHnpS+KL+dC3In21iCTLTiIj48Zpd8TwqNJ1UNdAhxiCrXWuGJn
P5coDz7HzNw0k48u/JLMy9i/D4lEKIVlWh1UGX7Y0SpKnRzt9eFTtp52Xt/zU7EI
+WWl/GNOMqJuAGh+oJpmWUt2EuZUIjoudXmQWZQNvSjUN7mZK2zLplX4Dbp7iqbO
XB2JN6IeApalNd6bdUZZtrdzq6awKrTo/XUr4c+ACsbiKUtl+twGM40oYJvBaG8o
ikDz22mTJil5xNXLkBVNm9HpfQTMyCVifJetFiizGKgS1R7Buz1TEJdtLrLKkhRc
4e1EV1DX+U1kSDvIFXv1sQE2UnMzYnczK8jVfQ9QAdrGxlD0+41jUsmxvyaZ8+Eu
mVNVLef89FxYolgM9TECHKSx7QqXLuOVsERVa0a2pzZZVmNGLP9TvdjkTGDkGTfM
ot3dGWRAVqtq02A2XzdzPND/awkEmq/kjKVk8Xv8g933kojZUsONxEky5vEdVA+2
jbimO9yXCeIJnlJXEtSLpKWfkAT+2UFjT53zx5SMxgJaEDM/68t98VdV5QWQOq7W
s2wvP6jNaftcgG0QB/CUBAVEcnbxLT9v3NdeTdRw8HNp1l9E252k7WBcxsbJ9187
91LUt/i0gwDNti821foIrNtTrMIOm2CKtsGbJax1QyNyDsz108LgK7Bz235D6jwD
UY6HMoM5N9VY3CJWiTbJMZTK+Myfv+tc3nVujjn9NtWAwLnwTBGE32kpNwebp/QH
OtWKykAK6II0N4tmfGjij3uEwR2zElQCnsGnakrBeTfn4X+4NAihenfJ+8gddHBg
BwI7Nfjw0QCsufGjhg5WDaUKXf2wnutGjy8NvX9uKb3GrqWz4GHLir9NRjEjrU7b
ILi5KO4ilNvRUdEjkKtsGIsifNdJMCTeA5RfV6f54J0Jcv9af/HfFXaURazxMhiv
c3ZP9UyAQbUnTWp8HqJls8RR3VEJRtt3aUgPRDZiP27DaroVv0xFq+mlaoq0Bucl
m47zG1hsygsxuF8B21meXb08tSWyDeHG7B2z7dkZKrosIFZ0EzEpFlx9C8UzrgUZ
1AlVL6limLj+AUFXArmE9t8JeudKLmcRCQOvcvuEBS2+L2HZ38HZrW9SVRKOUKaA
4wkv8pX6QNZRh9pd60KSGDcb7pz7Jwtc6kOcCBi6inP8YPnvNuX37eCrDCOTYZJR
KNfuFox97nCCLqiU9/MVTK8kj8TV3FOyNBoa+xVEjagYP+AmPa8vqB/s3vZ88UHj
UIkAMjEpvyZuTSZwtofbGUjhrRmzpf29kqxNuAZwc56CtnpEpD09m+gJNaKGhWIo
HB2bCh6o29MWzX5qIOeidGZdj9j+S5h2lOfmp7QMgo3L6SoSWwT/oih/F33d+8f8
P/Fg7pxoenu3jqUE1qqgQLP4Z0qxuoTBfliFEnvTspY8dUJJTWZ7ct3KY5PTSnQ2
Cyb11Alyy2IXv192XtZACMg9jTJ5fIZNC8Y9XXDZTCqxIFpgeTgTEU4FI5dQFrlX
hHsgQG0DbduNH1q+tmGpk715POEvTq2irbhYFZ2re0026orXVTmr4voKb6EbO2Zo
GVTAmflGFY20DiN6bpzJLZ0iGGlPEw2rGQ5VnjuWnyROsnD0rRjWJ0WD9Vunlg+H
SO7mTXYb8hUHKfFSBhU4iPJOt5lx9OX//GFtCpYHySWvu/kvK6YTRIPvFqkmigAf
CarROK50H0Nfx4iHHBAlxdvoNK+ni5MKEVEuvCqt0y+1szHuxEbo9xc5+UWY82G6
BZJhtcF5B3DCpXnRfF0Ae26HMpZv2mJwOolbTxdY51VNOCdjEHITN+GbX3mhFRnL
91z39Ds1/WTcmr4avAaZI7wUPpjc8ttMvIhbX3arQWf3bj7vSvlukXSlT8HrJGi8
xl9nWRhKIcO/q1K2VghlOfMyizkIucAfn0xiCDCUP1RoagxL19KRP8WGOluLZBWr
vI4lkiIbU8oBPq1b0MDPJcR4Q09NDpidmuONiMJ2yKSLwJRK0ZwWlQqGHOD6DKDW
X+vuNc6H5h5tbEWaxzefqq4jugTyy63hhFAMyXntn8uN0AEYUuR4FMwtCI6Du12Y
6vQIH8A6xIbtMf25+CgbGVzpPOUOdhQYfiFcamY7AwadgxY794JXE9MdRKyiyNdU
5DSFBayMafNAbaRQFTka8tZ+wtndZallOmFdirD3gTR3ESfpLb6Vl7HOTmoyyxRs
HnhmyPYuv/d1dmoQeHxRYYnapdcMQIvFfGRVqu897PhN7xcHY38/jhm/kL23iARI
WqHBFd/sH/H4G0POiQaqCRTwagdhco9w9IaG/QQfqw6y542s8sksd+BOGllxUv6O
Pu4tedY0bxU2i2V26pgX0gXrIpsTOGo88Q3jUhHMEyccB21DYNOHrRTFKr9TOye5
lphHvFhSfjJCQwV/bfUWR5G+nDzTP6sxPziGnlHnaS8cHUqasYN7RYdBZglL4QtW
//yEJ/dcQc/unOH65pjcSSW1gxdwyf3lEI4F8SgSiHnAewUPGWCX+o5GKJpdSISB
KdRMVsdlyir78vQkk+rHsqc+CU4WTTSrcAgz4yAhpR8nq8WBuAqtPZiY36238dNW
PzMofdWYkGXcEW1JMyfYYVANSijX8HfmO+I3CSW6a1F1SI1MglJbQ7fI3Gho4UTo
6TB9FiQeGNa+9BTG6ZQ6D2wq1Sv2z7nUBGf3zExS0iR4/94EX4jgGaEaO1ZQVv2n
kV+n8Sbb8lFc0AMxHUuvkvrqupz8C2+ZpjpzfuJ2R6YQdomzBuT71YfAUjxs3bt+
RtUzjBgpXGwv3GBTwoAPWoWxp4GVs96iFuwwIx7uVSprJao3by53MdBT+1UsQtwA
tNvjxr3PBEGusQQ4pfl0Qh3zU7TDQlCj/bEERUJJ01zXT+UCGmVyYYLwSdo0Ivq2
a7AADAqZ/87QGE9JKtQj9xcGuqr8TzZxXHmAbwtSkyWnOaUE5VZBDdv3MWMLAEf8
P0UhRFlfEMqacM/lMt917JBoylevZFaKOuGT2yTKD76fUd/Ioho7G2+LErhfMfib
xPeScJdGRR0pPIOVWr9lDCLqCwnqHH0/yxowheD+mNENggVH+juS7H0CSxrTFL1N
zJND4O2Ca53SVlWykHTN9mkRcBinn5kp11/w0hwH9HtNbNE8dYpjTLWTkSWwATUQ
4Uw+ll4M5LzKANvQ9brJcp4mrxM49XYQa8i9DPc+9o3yUs+QGL2lEszRxc51GT4S
P+aVo9mwe3AUxaqPcHiigKhH4K+Xx8o/w78OtCBp3FJeT5a3JkL6wI8ugz5eb9Ih
Rc2tjnioq9BH3P2Pqm7dC9n9ufQlKx1L/924qunRcMg5AXsNRgAUj1iKfNH6QnQX
P1K1RETNmdzv6FWsi67HmV7+6vsCjwMlAs8kC5TdozlwyEVaz8Y/5UYAJMLelBab
VaqXdqg/dz/5GT7svEdt36lZR2gRmW6fY5Mz1Qp9NvE8Zxp5iENcDEid3/FK/gMS
wtiRaW+m6cYK3ZngIFUZFIo/OP99RxQZ/S1dtw4gyskPgryzj/Rjnc9aT/AIkjHS
E/C/1+6Hp+Q8JT7IglrQ2RkHISjJVrFwmdMfLJFYSrwf2nhgR5/2vSnFcw7/EE5/
n/ytnUyqn3ubvMXN6ytXHi6TVchmR4wqKbH/sY3gauWDV6nePdAnnB9xwxbQvS3H
cUSwVQGkLrqHGt5WSPliyLKDfcMm9q5Wvzwx4OAPfv9IvAa3jN07gfKAhNWxiA7/
A1xaeJZwvv/6zC1S5nX8f2n5wVkTTBRRUpAiA1fYicSPgWwHyrZM1lJrPr02zEHh
B1XTcUqfjsafD/UHSHnN9wLfQ+8ohPxcEpXXtMYBp1Xhqb3zWz35gqDrDUyJXdoR
ge8bh/+4p5N3AoKHvlT96d4Ucs09ArtKKrl0EeGPqo7dIhXpgvOyvY1Y/CMU5Fad
S2uFK6mY196tkI3D9lN+J3ZEPTCTaFZCpeJj8Uk7fb5Sm0N6JgicR1B/4BZYXxcE
Xr5AcYMyjHQQGUNCp/7UsxAywQvPPFh0DxeaEH6ktp2YLKC7K6TN9E+zqYv/x1+x
bFXr+G7Vb7CFFkkbix9PItXSHtk0mCjsZDOc+YOcfC5lr20zWe5D7wgMz48kfIMB
SCgoLOf9R4joNQBzI5nN3RIK9jnpb1VUyRE3szmhIURt3tcICkmzy+/q53gQedp7
GPdQZV9CyEJ1gfS0qTtpgf/W9d7jYW2jwAoVn87WZ2JWOF7KQ11WWp2RkEsqPw94
Zmz1vUmcdQJESIlbefS/Xmke9SK5GOIkvbvUgwr/UKqXx6RjBnJ1kkXik+9ppElu
XHgAY2KONwaNvU74JIQ8KPGXh/KRUlFmppdGHCHgdC63lJU2Jg8hhLTnx3q2YBKS
HWHM2+Lhky54C8y5mZHd4NKBygRMoEuc4CgWWVc6RjCeTge9SGZu7g7XwUqqYaBh
SiznVkvSzj46D13dtGtGLMes0o0oZBJPnl+7kqyNAaDKVGLpPpG87gjEiLddispI
xesEJR35/f4cE3psx5r8axCZkSfn+SRg/xGkX5xWlJ9N55eBq9YnnSdLcXDcp1L6
A+iI8EIxbDLFVCJYpjjV/1TeCvV2JwnuHll4RA2k6spjlWlAKRcT8pWTUgAMii46
Q2nIXiZKMPBzhBZ2Megp/oJck1Lej9dMyaV4nkQm2EYpy6sefJWzohwruO0N09Op
hMI5w64QbGH/CBS4n40UC6Q8OjiLqMatOItPWx1vC3W1eQOIQ6wSflv/c3PMMKDt
j+IQomMNi4NktiZVl6yYESgfVpjejroYTbETW2Uh8RHaLKwebdNpzZcGpDo/nFhx
v/6rcinz5qrTKIwEV55ADJbTxh8553zvvxk7Y9y76b1zNgu6NS6sVSCN/f5C6Y84
Sw9YEKtbBN55nR2K2D5XR8YqZzr5zS03GFbWE80JKP20kO1jYbsumZETh/pz2Kbm
LEOdU2oa4Wk10RvHJNxPXRSw6+RPgCUbAbXnkE9xeryPd+fOPYDEdz1PH4P1EoS9
Ew6kKruZB9hqH3JOQ1ahROhPz/7rGx9LS67P0gLID8VM6DtCGeFS12E/4LuJyLIN
IcNIz3zakAPaZZz/LXcaN3GMmwMcqjnNcst3b979eUWjWkOdqjmGme3YOjbZGI2c
bW0SHRhhiZ3KKJVH2EvdXfaju9Qr2hWsYdV5xaFvxbjpPxTNOv8YLLtBlix8rcAf
zovDEHO3YlAzzIR/tkhEXKk732KZYoeJ1FxBh7P9BDF4rSI4SA+pg9fFRKvOXSJW
aKnEl3yl1t3YQVQ80vHid7icyAeJjGt8Qt4jYv0XWKVo4nU8lwQu12naveenHc1W
59eguRMsk86TACAfdbBvYAUtiSRPeoDIThKMUYW4tHzzhs+/d2wvkEgv4f7SLnJw
00RJlIMsXFDDWPp7G7Vrj7mIynLMzXrRaMGIPp3NNGO6ETaBHw+18Zr1yaz26nW6
aBwtxO7FRyfk5uM8bItpFK5z/FGZk+vt9XBkiFpmk8qKGr+fdNJ6Cn5qpXV+OFXQ
/y4ptcEZBc/fiIoCjQDsfE9ivEvBxR6eL3w2kqyI7TyGr5o34pJ9ugzZltgwYxiG
n3onNhlAc/FQKfZBRldK7rQrDdJ6I8DQuhBIGA9ZPusf3u+Jvxw8+hxLl/9PFvF7
liZyzK3PS6jEFNlps2IDXo3syOjZ+1N5yqGNUydxw6IVVuDVuiMcodf7SFgKeUiX
O7XjLFLnE4fFG4fZjnxI3klTJPwP/hVMr2dQlpxBni6pV05+dLZ12aNHT0jcLgh8
N8pCpAFVN9gV8FeOuVa51rmPX0KuOUQIFU384cDc5aCctxwcoDLZzeIaa9NgGv2u
C1ifZac8pux8nNVpeMT8+ktkP1ZACxgBEouhhGbjHb14PUHz9zO0W9yJ3D30RZyD
mQ2RftrTPtjdUgZ1RGToAlhuhRIXMTXlYaqX1Z4tJNAgHf4dxB7zcsUmSMsVhilM
zRJu6vGQR10IOxrIOde2mRKJMU9ERVZdbSagOvPAItZ23T3hzJ7f3ecEcLCYMqxu
RPRG5j1dDVYWjJCqeI0oY1OikNBhPyhgw05a7ZiBjGHaHVNr+xMPb4ora4L58Bf8
3zZDFeMSULQvbwQkVWQMwRZx29clI16nT1k/EpkU/HkszyIOYTBdEWlObCt63M9p
sC2X1V7MSf8ssWRePjuYcuhxTLUx+L8kMzlHVsEjFgwNf1UdtIomCU6dOe5jIK3Q
CIwGImeu2rOhRsMCPfVjNMQTVKuqGBzhw/IJ9ElBfIbeLqBelf024inhR0sc7MCx
4ksBOHcZHm8wGV+9K6Zhmc/TC7BGppqyhkV0kJjWpINCS+jnVKbO7pfk5rw07ffs
3pBruwsJFYc1zVljMc41hemeKCndKZgvULehg57g9guPmHSkBL2FY5b0VEhQiGSu
I+n2groKDwmRkRlOtAg1gZQQwPn2OolRgVCRmfCLFBwtRy+8jiABrMyu0cjzMyKd
RsFrig8rhpU6d/1IRB1wNbGmHmXa8PKpPYSikQc3MCes00dBlB5ywO2tSvwohvF3
c06XB8/mZZTNnfrQVRmffivgldAR5t3ospWKWaDHZcpjJhz9JD9mOrxJJ6M/j2lG
J53AT7L2v6Xb0BcoPtq/P1XITyROQYBz7HxCrhdw1LqFhaCroOBb2Ydx2IxQEtql
N26U4BuEqS6AvuW0FE+lejs9vfaY94p64B2b8xU46WdybSqkvgjSsM1P3G1Bweq9
5aouHQ6tSKqfqBitMxtVUm/4ESPtERrgt4VAygXHFop625bdwlzjVTwJtoEs4rr2
1p2J26wnDFLwIfwuKa5k5OqwhqAMf+jeF7h2aiFEbsaldvq9wMKBvi6VzZhEGOhC
5AwdClMNcXpKUfvwkDW0Oi7sinHVP9hzDrqETSYqY2oNIeKVYD3m/uJ4oR8Km76o
ddA1PgBbtun5XO9PWLIXE6avIQrZOZcnWbH3erwXdRZuqdpFQgvMA4OLDEhWKRiK
N4sdlJWvCeeyOCoyRMONHIog0arRcw7rTaqBwZJbeM2ByXky1RR4qbDbb6R3J//n
qrkaIcOPxOkuxTPN0hPLc/Z1ItebYB4kLeuYsSSe4mYHAAcQ5CdVAIEbEeL6z80V
DcMVCI+MqRBD/XL4k3/E9qwXoDVI1ok1dTfNyIJ8f2pv0Vv6AypwV0GShLrsykFa
SlOqvDo3BSCL4abLjTQglqfErOssmQ60CPuzajYsbgszs9JwTFobt8FhOsVH15i+
fnnuZ/zbDBFKlYOe4FtlXnVwcM3oolLqqxuRX1UL1YfFtkpzpB/9+0g0cNzfsBbi
hsn2wCqHs/4tfVTRj+KCojDZUhzaoUjaZSIR2ryvhyOpNwajF8xgmhou05E3FzkE
CH9Fud4bs7XsmMA+hbqlF0T2mDYJM6P3AK0Dyn10q7ClP+66yb3jGQ4Vey3RYfXz
Bd4oa7sN3lGp253S2iak70WNLFiDjXpqAZiHcz84dRbbuAstzyDz+fvPwY/9+lNO
8M5q2wAblWcDGv0NbZ/RED+V3V23HpQyG3NmT/Am5RFKE5YF9b9tHCwz+HCYepAR
qh4ksa9jAgBe0tvbkbCfPCfKQjR/6B9ih43N2u8QReruU1pmw6W7Rz6Zk+C3LTqu
v4OCW6LA46g9Hwiga8t5ImZWI0K/01R9gEvUApAqh8LyGIJbZp4AmQCwH66bFTfV
LYx1QZVF3OxOkRfCppfYhUqh7rMa84wjCXX1pkvutzVfNr0fZMG8fNvvhW74tMfH
neWisrFR6ZvccSBZiKaRlU/mTD1hSLAJw/+f3Gq4Pr0aTzCkwLoKnXdc6yPaWfnP
2q1hUoiI9Dj7u+JLK+sewNKq/xToA7lyBOWQHHZOLsdwFg8MWDiq3IQKYQ0MJvnt
jgO6XfwTMvrNLOHVZGmMcoe9MuYX9YU76NWy8eObNBM89XPUGoIrBN/kVhcj4rFi
z72gf1nTYcq5pHkWtJHjKxfUwpTgeBLT3K/3Td6S8QwYclbV/WFdBY2uWh3RstIf
uW8lZUoFOxspL2/jS6lY2/ZHOKUBwAuN3XqM25B4aHioBNWzh+2cvYhP3zltVB+v
2eoPiDrRmSbqzL8H6Wtf98tO0XO2XQVuIIrrEgDki3naPCyE4xtsTqsLloHVKKBu
1lhZOGj2ZeDp2w1hZCvHYIzXfajS8O2HhNKj2x/9nczF7P0/OmyiW2p6uHeJaobH
alCDpDXCj75OW3Iepo91Mx4LRGLCgvVAn/xAAfh17D+MFdWwlJJdLsAq4HflPj/w
E5viaWsLuuHgFJALJTXirpb1lfYL/mu0nodQH7F4k8TEimjt3feDZRe2QBp8sW1N
tItotjb/VtXwd9o/W1MKJl5AMB5tM4KhK8mwb+zeDrCyH8ks5z7wOAC7xBP/8OPY
qsht7PF60r81ucFSFtF4JHcXvfMM/WwFt9RncMdfzgyvLrtBWLWBFaWGWpZgSIQs
Ej/OGnchjBjf+GyqfIRmFbnaXMmiHcCtXxFhIRFxIoLISkO04ghBX5LgRiGYdLhK
/w/iBdNk6cSTK8oe0okIYMXZbQLlyY1Gh/QlmaUEhJQccdg6DzQrHdfCoL9BiMix
xEn2IspljmGu01C0oK5dY0CDtGofCJBYVMsM1hnI/zTReikizoc4M1eNA0JVN+T2
NM5Sm4IaT7cqH6A5qIV6MwWpnYNAuOKq7Md5XEOtgOVA1IvNX98ivnnrWplbUWaa
NG/HarTrVW8sRHjLIpEKJbpAtzjFWxHvHLfMhlPf7j4JDmLC2ZushrZyYhkx8+CG
hm32y4GfiR2BP3OqFN5nqY4Hey91mCXoNCSLEXQeJuDkyBfF87TBuloN755Zk51/
evmjbTt4Qilh5UOeRr6dkmWFvSm1hxrH9En6ZwOA9deDQCTVyw+NWYU5u3c3siuc
dTM6kL17XnnKR245uqyHHMtV+D41KHH7D1MvEDEIRrOKprBgIznRQTyObxzFr5Vs
r5p6RCQVciw+lmBKsG12igt+wl1JnOFjUPGqfMByM3LJMeNdbloqo/cWzattafQg
ABFMXTVFKEWgv+0rfZ6VT1KWlRqDTIbUGIAfPBD7D67nbkPJl2l+x1uwZnzrKouQ
iccI4c+GIK6TtMVz75R2j1orVL2er4sDQwolGADkhW3pHq30Ahul2URXIE7q6cQ3
QcNL4I6ALaiqIotwS+Lrw/cpiIgYz437OcqWNfR5U1USx1m0LNz+3X0Pp0YlQloF
UjRr3XpehTvKkk32noW41A9K2aV+HI24xcH6jBwEzji20GLcU0akqId8SAqWSpE/
NuRb1t9TznH607EG8NzJHUvYgMFn1+3YgXLVSPXv71gOmaJV8nPeOacxWfJChANk
m3FyitfqdZTvOpBKwmIvP3O8wEA0p1xcAatjOOw9clOpPTv1QyS6Xh8N0Q1BftAn
1XWuABvwK8UWGO8U8B4mwiVV3YJ8e22syBhqRYXBTlWsn1nxmkooWGfo8dBJnVhf
egMLpfn7p2cx+oaXGJYaXep3AsyfWdstVp6Vluk+Frjn9nXTsoEdTjq6pQRU+Gst
Xan8etpcYcDPFY83Ujmoy2fxSXyi+tni4sqwei0c3Y0OUfv/5PQjoVW2J6hFSXLZ
jUe4ft5G6lo8MU8iKgI3OX4/FUjyHcIlHsjhdbStI/hYK/LI8AAwiB/a4UXru5E+
q9c0J8xhzbO2lE8cvCe+FuJasP5/65Z0684Uwn71WwmwjzqaWHVaiI5fBBccXpMH
CKzMGAmAKBUk1v3etaOvjZkIpnHvTqzWxIY+e8gxzCSVbjCt0rrL1V8Jf1r/4ZmU
jBtwrrh9oATyUqbWmPzOzaCKQnwDh4SjyH1RY2i2Rv08nq8piVTek55x09lwFK/D
HiUaUrwXMka3xDqUq1rrn6tJv5VVXH0I826/9Asih+U+OsXyPjxezzH0Qe1slEkK
IWqmo6+x5/9puFiYWjEDtuGdKnO5YEt9NZe5fAENXq0T+QuKt2sL96NKqe312poN
jGlB57qLTr4NfBNBfCbbeFIPLckOdlXFiTxo134bbJ5fq5dq+LAcTe/oh2tXPe5L
pnb3OqESWH/015f4DT+14tJntvRC9M/kVVnoqVONjR+ME6tgZdz8H4SVuO87xDdU
Mde1RCYDJJrtThuWQj8/5UaOFjsrzckQPrqWIw84LbdrEaipjzaVSG9tH3PGFRGA
ztYVDUSDN6lgGJejW6u2l2QkqTOApxzJxK2sdFPvB6N3mvrAJbyh3y8q3S+YJ6JJ
9ICaAZiZoJqUzIfXjeTFsDOC8XGeAe5XWwaHwZUcgiWUexCLNYB/7F8mAakiY3nd
D73u9zSKawaUXk9DcQsdkozhE8pwyV7aU88RzN8gchUuLFiVsZDHl2u0rlxvVnfR
YSN8ZCW9cs1W3++kmNjw0zdnbj2sb1nb4jRFXKXGLKgJp1MjGRCt2LlwTgf8AoS6
PT5+8Vvt62YSvOpiCPTpSO45rcrHQBDvZejbmCBgXd4lS0hVdJleGyON5UPj0oK7
CUNGB6gIDD+2SxkgYs/z7vi1PtK80Wkz0zh7upfCs8JHGCIvxu0pFSMqgigXL41L
vyk79LJzWIvTPyaR4T9zJa7wqStUm0yrUBQ0SuLOvWRLbtED53WRUh8oKfg2o9ij
k8fRfLHKxOr6QuuPQM+6dfgkPCmeULfIaUBRm7QseaLpJrVUNIuBDDS2/mYJzdby
tKx1ZlYi2IlVyrrw5hZTZwT+mj31m9jfUpQvgY7GM6RF0V9fz4fA8tc41WqEslAq
q5dl1EeAMmxuKVbEeI04N9tkqlGyf0mPjKfbPypAuahhb1y806wRPg6Aj8MH5P58
9k0WNgjMcEiE1WtFsDjurTi8EQx6Crk7znU+zY8+ixELtI0XT4t9Sit7mTYikhRR
XgQLLRhO7zNtcNSOVbeVL4ayFa1tYwW0kN+2vWMUfIPnbZNSOpzF7Uq/KVfOhsBM
IJF6S1MJE6aRTNGDgjo1gF74O2PKyMm34KNGWYjR9/hs6IxF/09itlfS0LT2V4v8
tcWKTRjFpmf28nH8iOO9XSmw4kQBNXMPnP84osnEk1jhtRkan7zdNngubYHK2xPE
BoKfr2QIfVDiT4WJB1J0LrRLTm9NHYYgmTDhXdl7esW1U2xQGmNJ/exIWIDihGGi
HOrnVfMJXGnL9qWCbKmgTnMb8Vj53tjIaXHkEEZmXw0J5chw+b+VW1EOeeIUo4SO
obLBh6XuyL7Jkhf9xS5OktGv9zVl9qa/Hc0LKormBsyrcXdktits0eelhScvYo5F
QyCd0hkXDBaoHMmgOKTAb5ZUwbT35Yxj9D6Q3NuM+fU43pslYkuzI4ABGjdPd5tP
Jc3oimoMUUFEDiUzYsRqiNpIG/2pStk7r/qKhDKSDhejFgra8GOHyHx46GNpD3bS
taW/WeYzuwyxw6fZhVbKfZsmEo8MNiOLNw5tL9J/iu1ZmZbbl/Sz1bhQOOBsAnAM
ll14yU2SK/stNyMHI1X2ofvCf5oEL708bsiiwpVmELW9Xu5F5tgfNVxWaAKAgnVy
dOhbQumf939GfzZV/El5hXc53YjJ6xX+x+Dse6xuFahk4TorC4EBRB/JxeDO1957
QjUjXZ8IqdUnqRd0nddal6dOteEDIltuw//dqqW3SRtUYrg3A8RAFdJ52hANbGmA
lDphDRvZ2/uuULmLlLXLZ/hO/v9nlQk3IqmW7EKt6s+DUCOBTESRlB1q74jYIHOX
eTmLDcz/CmIp8vKC8c89c/Im/57ZJfYjjGwR8ETYYPOeT+We13QSRD1Z3UnR26KX
uIuZ56l4fihCntX/6m/X7EFsivzhaHXiCmblJMf1+AxeFCORvyLnRh/s6nLVSMGA
uy9dSdDVxWFT03tsFmDEb5FGOO3eCrAMi23Um7Ao5FiF9ADc3P94C4BKWDbm2Quw
+ZERnGxuK/O5RbeZjOLQP6N5QQ/USEbckGiiPtFLCxUsQ9elLaJcToW8+Qian9xa
GhOQfsWgKtAh5Etb27y+q3yqrYJbaXFRtL9gD6McAk5xXvMafMTjXVj1nDawtdRQ
b0iU85fvCjWy+8ARFnif1bMi4m4/7KGxSjYecYVgzZaVgeZyUKQmB4wp/ckmwt5h
2ChfY9yVMJQxPFNSpxvKtxyUwLsEpzNKy43id0iveuw8HHj1yievGg+vJ5x5bPuc
KWUy3o/CztpmgQlshLd/WxRFUToPaK5yXmKBx4j07GZHMWa+OOrWXmsL99Z+Jx5l
2CBuKsgIAAvGM5RD8SfndR/PqKcRiYbMXfgD4ULnHpeJY+istiBo4i1xhzq1SHz9
44lxDwjQkzZvGleLebL1L/nkWrV2RvYvW/z0RZRV3HYYzEuVzxu+WwH/i07XsIEI
QnACiD4sObZLuXrQ+9aj9FPKfpu2jMW1j2ULMJRycrGk9EgMqaTl/i0NyDZZPUVb
9eYYzIaSnJs8S0apSXF9i7PSfhcOHEKZoP7VsIkY6PMTKF3GvTf5ptZddP2gg84S
cUlp7yIC/kDtAFltHA8vENs4pIE5gHbGVXU6XLyBx77iW7iohOlBUGlpwZHoTikg
gCkaxjIiTCpxikSCipfJIlAQc5P1n8NsWFFQr5MAwcgoGns/UoixhvfLuRUujbpS
EvMkmlywv6ee8qZg1g4ZxE8fSCTl8o0fe9VNXtzfIf0SpLQyElSf+pjAAw9k9LGJ
tXaY8uz/MyJLt6zS4s4YCZDcCfSwy1SimGE/MTk0RRGTDeP4hf/kOruyH4fOyu7T
1nM12rMtzuSa7tqQnz67BnAfjX4uVjKlzBhTZQ8rOrxFszjbuSAfj5cjFBixeLke
FYkQynN4/x+ytf1MtPXZ02DL8rM+q8RXYRWe+fZ8Ak4oD7JONAW5CfX+9V/W8vye
qeJU2wYcC070La5RhAV54Yd6KDakxkW1tWkal9ihVx48sMye5dVyT0QTv9LzoxjG
SRNrxcMwMcMQ52Wn1cABpWVPhdO6Xwch7MGj9lYfoOKm0J2MHrlMXZ3eTrxyQ/bL
BvJa3S9BSx5QtESm7ctntwbKhBS+t15FTfRDhx+4L/qOaHOTemGIbyERMv+Z/b6Z
/RnHWiG6uR1BxyNaAI3yi1JsB6ehcFwZu+CbY0pcFsR1Ji+H3E3paIpLnjv5mPu2
I+zdkNpmSI7zD7QQ20zCbUa1uDSrPuCdopvmDA8VeRDYXltUAdxsYcE2vG+DKMlx
Sv8JBaCcliDz4wpoDofCpw8Of1JgmvsgW4Kg18csB5DLDXWHpZL8vUxkh8wC81UE
WiwjgufLTXLbsxanC98lenenHF96sqrnRDgnyowALpqJVDdI50YeJppGEYGEcHpt
VDEI1nTYueQl8Mz+1745iZHoJdpMnkOPR+fRBsgALG5rGYv5fxvqP/cMaJq+Pifn
T5VJBuU8WAuddJr1+LRCJV9pfKIVWtwxLhd1py//3aJtTVO9aAZbHoPgV8K6fRPv
r5mxIfv3dl5GOZwNMvIBcLYoBdn9x1zhvWVkQHmTUA3ccvi7HCz/qv8C6ehvmWIO
SW2P4tVrYrR4d0rAGDLA9os+6kQUwopMvvOQ79hkfWqSoVGcunGxd7+CdbGdD/HK
176feF5DJ0mZziAJBbEENlnmBJo5io2a9w0nXNwXogd4E1F0HrBqnCjL0kQ468Ym
ghV38/pFcPPHida7f2al/5d3fUxRJ+Py9BkoKyJ7Ux7uq3dNkdX/UtePqqcJMXAk
HrPUW/QB3VqTCIqumpc39Kk57OO+Fcr8q4Gt/1cuSSolTn4sIYchaHP9VaVVNOvl
btYkYTl6EaUDm7+c3PibWWpivNzd7lDhNrcBbSy+rWwk0Qna295LdOtQcPpfvaxI
o/tRcydLv9M8s3tPg3JpzMt76Bjxv+zBOFUUz5tuia3bVmDO0grmELQaE2eh/54J
O2RSwGxV9WT2nW6BPxad+I11gM5+uhiMcoVcKbh/MOXqhnqfxIrXRMHutkDZnDBa
FGWfk5gxNJA5JC0VAqrQSyihTP0GlsC4wTAQXSPAfkkXQKV7kQDmxjcAABjZhnDV
dDxn/kXM/U/F1ris18DN7LMsetaCiE7H2mgXZ118vtQx+TDlCeLBoDYqWyz1vv6B
v9RdhQVXnDh7mb5/EMzpgBxN04JrV32HX/Dz4BPUFcEvz+bPU5qA0Yrrw0eTX1AS
z79kUF2pk9+pEgUtbRDMfdwSwYeCZeY+nrPdaTE6AyO28NvyPf+f8TsEo4t9wuko
POigKJTnYBpMF8R9NQIo1r6iQsSaj50tvjxRQCx55n3r1fJjcsJMScr3AQ8PDInF
A3N/DcZtAS7HGClKcOKQoAA2hlOJpMdPSF+KnnpbJDPGUTuG97w4XHv+FLuhM+F5
ew9aZQvwE0Tb3ot1GzFj0Zm3POjV/UK9J+SKnKcqoYjvAb+fLbip9B1qMTrPU0vX
c6gAw7H+lRvBQ6E0QwI1LISVYnNZu7U9t76s8Q1bJw==
=sqPM
-----END PGP MESSAGE-----
